;START_OF_HEADER
;HEADER_VERSION:0.1
;FLAVOR:Griffin
;GENERATOR.NAME:Cura_SteamEngine
;GENERATOR.VERSION:4.12.0
;GENERATOR.BUILD_DATE:2021-11-09
;TARGET_MACHINE.NAME:Ultimaker 3 Extended
;EXTRUDER_TRAIN.0.INITIAL_TEMPERATURE:215
;EXTRUDER_TRAIN.0.MATERIAL.VOLUME_USED:33468
;EXTRUDER_TRAIN.0.MATERIAL.GUID:506c9f0d-e3aa-4bd4-b2d2-23e2425b1aa9
;EXTRUDER_TRAIN.0.NOZZLE.DIAMETER:0.8
;EXTRUDER_TRAIN.0.NOZZLE.NAME:AA 0.8
;BUILD_PLATE.TYPE:glass
;BUILD_PLATE.INITIAL_TEMPERATURE:60
;PRINT.TIME:2847
;PRINT.GROUPS:1
;PRINT.SIZE.MIN.X:9
;PRINT.SIZE.MIN.Y:6
;PRINT.SIZE.MIN.Z:0.27
;PRINT.SIZE.MAX.X:147.595
;PRINT.SIZE.MAX.Y:108.722
;PRINT.SIZE.MAX.Z:12.67
;END_OF_HEADER
;Generated with Cura_SteamEngine 4.12.0
T0
M82 ;absolute extrusion mode

G92 E0
M109 S215
G0 F15000 X9 Y6 Z2
G280
G1 F1500 E-5
;LAYER_COUNT:14
;LAYER:0
M107
M204 S500
M205 X25 Y25
G1 F600 Z2.27
;MESH:lev.jpg
G0 F6666.7 X144.109 Y106.02 Z2.27
;TYPE:WALL-OUTER
G1 F600 Z0.27
G1 F900 E0
G1 F1200 X25.009 Y106.02 E4.53668
G1 X25.009 Y13.777 E8.05035
G1 X144.109 Y13.777 E12.58703
G1 X144.109 Y106.02 E16.10069
G0 F6666.7 X143.709 Y106.02
G0 X143.219 Y105.13
;TYPE:SKIN
G1 F1200 X25.899 Y105.13 E20.56957
G1 X25.899 Y14.667 E24.01543
G1 X143.219 Y14.667 E28.48431
G1 X143.219 Y105.13 E31.93017
G0 F6666.7 X142.869 Y15.527
G0 X142.806 Y15.527
G1 F1200 X142.358 Y15.079 E31.95431
G0 F6666.7 X141.085 Y15.079
G1 F1200 X142.806 Y16.8 E32.04702
G0 F6666.7 X142.806 Y18.072
G1 F1200 X139.812 Y15.079 E32.20827
G0 F6666.7 X138.539 Y15.079
G1 F1200 X142.806 Y19.345 E32.43811
G0 F6666.7 X142.806 Y20.618
G1 F1200 X137.267 Y15.079 E32.73649
G0 F6666.7 X135.994 Y15.079
G1 F1200 X142.806 Y21.891 E33.10345
G0 F6666.7 X142.806 Y23.164
G1 F1200 X134.721 Y15.079 E33.53898
G0 F6666.7 X133.448 Y15.079
G1 F1200 X142.806 Y24.436 E34.04306
G0 F6666.7 X142.806 Y25.709
G1 F1200 X132.175 Y15.079 E34.61572
G0 F6666.7 X130.903 Y15.079
G1 F1200 X142.806 Y26.982 E35.25693
G0 F6666.7 X142.806 Y28.255
G1 F1200 X129.63 Y15.079 E35.96671
G0 F6666.7 X128.357 Y15.079
G1 F1200 X142.806 Y29.528 E36.74507
G0 F6666.7 X142.806 Y30.8
G1 F1200 X127.084 Y15.079 E37.59198
G0 F6666.7 X125.811 Y15.079
G1 F1200 X142.806 Y32.073 E38.50746
G0 F6666.7 X142.806 Y33.346
G1 F1200 X124.539 Y15.079 E39.49149
G0 F6666.7 X123.266 Y15.079
G1 F1200 X142.806 Y34.619 E40.5441
G0 F6666.7 X142.806 Y35.892
G1 F1200 X121.993 Y15.079 E41.66528
G0 F6666.7 X120.72 Y15.079
G1 F1200 X142.806 Y37.164 E42.85501
G0 F6666.7 X142.806 Y38.437
G1 F1200 X119.448 Y15.079 E44.11329
G0 F6666.7 X118.175 Y15.079
G1 F1200 X142.806 Y39.71 E45.44015
G0 F6666.7 X142.806 Y40.983
G1 F1200 X116.902 Y15.079 E46.83558
G0 F6666.7 X115.629 Y15.079
G1 F1200 X142.806 Y42.255 E48.29956
G0 F6666.7 X142.806 Y43.528
G1 F1200 X114.356 Y15.079 E49.83211
G0 F6666.7 X113.084 Y15.079
G1 F1200 X142.806 Y44.801 E51.43322
G0 F6666.7 X142.806 Y46.074
G1 F1200 X111.811 Y15.079 E53.1029
G0 F6666.7 X110.538 Y15.079
G1 F1200 X142.806 Y47.347 E54.84115
G0 F6666.7 X142.806 Y48.619
G1 F1200 X109.265 Y15.079 E56.64796
G0 F6666.7 X107.992 Y15.079
G1 F1200 X142.806 Y49.892 E58.52334
G0 F6666.7 X142.806 Y51.165
G1 F1200 X106.72 Y15.079 E60.46727
G0 F6666.7 X105.447 Y15.079
G1 F1200 X142.806 Y52.438 E62.47977
G0 F6666.7 X142.806 Y53.711
G1 F1200 X104.174 Y15.079 E64.56085
G0 F6666.7 X102.901 Y15.079
G1 F1200 X142.806 Y54.983 E66.71048
G0 F6666.7 X142.806 Y56.256
G1 F1200 X101.628 Y15.079 E68.92869
G0 F6666.7 X100.356 Y15.079
G1 F1200 X142.806 Y57.529 E71.21544
G0 F6666.7 X142.806 Y58.802
G1 F1200 X99.083 Y15.079 E73.57077
G0 F6666.7 X97.81 Y15.079
G1 F1200 X142.806 Y60.075 E75.99468
G0 F6666.7 X142.806 Y61.347
G1 F1200 X96.537 Y15.079 E78.48713
G0 F6666.7 X95.264 Y15.079
G1 F1200 X142.806 Y62.62 E81.04816
G0 F6666.7 X142.806 Y63.893
G1 F1200 X93.992 Y15.079 E83.67774
G0 F6666.7 X92.719 Y15.079
G1 F1200 X142.806 Y65.166 E86.37589
G0 F6666.7 X142.806 Y66.439
G1 F1200 X91.446 Y15.079 E89.14262
G0 F6666.7 X90.173 Y15.079
G1 F1200 X142.806 Y67.711 E91.9779
G0 F6666.7 X142.806 Y68.984
G1 F1200 X88.901 Y15.079 E94.88172
G0 F6666.7 X87.628 Y15.079
G1 F1200 X142.806 Y70.257 E97.85413
G0 F6666.7 X142.806 Y71.53
G1 F1200 X86.355 Y15.079 E100.89511
G0 F6666.7 X85.082 Y15.079
G1 F1200 X142.806 Y72.803 E104.00466
G0 F6666.7 X142.806 Y74.075
G1 F1200 X83.809 Y15.079 E107.18276
G0 F6666.7 X82.537 Y15.079
G1 F1200 X142.806 Y75.348 E110.42941
G0 F6666.7 X142.806 Y76.621
G1 F1200 X81.264 Y15.079 E113.74464
G0 F6666.7 X79.991 Y15.079
G1 F1200 X142.806 Y77.894 E117.12844
G0 F6666.7 X142.806 Y79.166
G1 F1200 X78.718 Y15.079 E120.58079
G0 F6666.7 X77.445 Y15.079
G1 F1200 X142.806 Y80.439 E124.10172
G0 F6666.7 X142.806 Y81.712
G1 F1200 X76.173 Y15.079 E127.6912
G0 F6666.7 X74.9 Y15.079
G1 F1200 X142.806 Y82.985 E131.34925
G0 F6666.7 X142.806 Y84.258
G1 F1200 X73.627 Y15.079 E135.07588
G0 F6666.7 X72.354 Y15.079
G1 F1200 X142.806 Y85.53 E138.87105
G0 F6666.7 X142.806 Y86.803
G1 F1200 X71.081 Y15.079 E142.7348
G0 F6666.7 X69.809 Y15.079
G1 F1200 X142.806 Y88.076 E146.6671
G0 F6666.7 X142.806 Y89.349
G1 F1200 X68.536 Y15.079 E150.66798
G0 F6666.7 X67.263 Y15.079
G1 F1200 X142.806 Y90.622 E154.73743
G0 F6666.7 X142.806 Y91.894
G1 F1200 X65.99 Y15.079 E158.87543
G0 F6666.7 X64.717 Y15.079
G1 F1200 X142.806 Y93.167 E163.08201
G0 F6666.7 X142.806 Y94.44
G1 F1200 X63.445 Y15.079 E167.35713
G0 F6666.7 X62.172 Y15.079
G1 F1200 X142.806 Y95.713 E171.70083
G0 F6666.7 X142.806 Y96.986
G1 F1200 X60.899 Y15.079 E176.11311
G0 F6666.7 X59.626 Y15.079
G1 F1200 X142.806 Y98.258 E180.59393
G0 F6666.7 X142.806 Y99.531
G1 F1200 X58.353 Y15.079 E185.14334
G0 F6666.7 X57.081 Y15.079
G1 F1200 X142.806 Y100.804 E189.76128
G0 F6666.7 X142.806 Y102.077
G1 F1200 X55.808 Y15.079 E194.44781
G0 F6666.7 X54.535 Y15.079
G1 F1200 X142.806 Y103.35 E199.20291
G0 F6666.7 X142.806 Y104.622
G1 F1200 X53.262 Y15.079 E204.02656
G0 F6666.7 X51.99 Y15.079
G1 F1200 X141.628 Y104.717 E208.8553
G0 F6666.7 X140.355 Y104.717
G1 F1200 X50.717 Y15.079 E213.68404
G0 F6666.7 X49.444 Y15.079
G1 F1200 X139.082 Y104.717 E218.51278
G0 F6666.7 X137.81 Y104.717
G1 F1200 X48.171 Y15.079 E223.34155
G0 F6666.7 X46.898 Y15.079
G1 F1200 X136.537 Y104.717 E228.17031
G0 F6666.7 X135.264 Y104.717
G1 F1200 X45.626 Y15.079 E232.99905
G0 F6666.7 X44.353 Y15.079
G1 F1200 X133.991 Y104.717 E237.82779
G0 F6666.7 X132.718 Y104.717
G1 F1200 X43.08 Y15.079 E242.65653
G0 F6666.7 X41.807 Y15.079
G1 F1200 X131.446 Y104.717 E247.4853
G0 F6666.7 X130.173 Y104.717
G1 F1200 X40.534 Y15.079 E252.31407
G0 F6666.7 X39.262 Y15.079
G1 F1200 X128.9 Y104.717 E257.14281
G0 F6666.7 X127.627 Y104.717
G1 F1200 X37.989 Y15.079 E261.97155
G0 F6666.7 X36.716 Y15.079
G1 F1200 X126.355 Y104.717 E266.80032
G0 F6666.7 X125.082 Y104.717
G1 F1200 X35.443 Y15.079 E271.62908
G0 F6666.7 X34.17 Y15.079
G1 F1200 X123.809 Y104.717 E276.45785
G0 F6666.7 X122.536 Y104.717
G1 F1200 X32.898 Y15.079 E281.28659
G0 F6666.7 X31.625 Y15.079
G1 F1200 X121.263 Y104.717 E286.11533
G0 F6666.7 X119.991 Y104.717
G1 F1200 X30.352 Y15.079 E290.9441
G0 F6666.7 X29.079 Y15.079
G1 F1200 X118.718 Y104.717 E295.77286
G0 F6666.7 X117.445 Y104.717
G1 F1200 X27.806 Y15.079 E300.60163
G0 F6666.7 X26.534 Y15.079
G1 F1200 X116.172 Y104.717 E305.43037
G0 F6666.7 X114.899 Y104.717
G1 F1200 X26.31 Y16.128 E310.2026
G0 F6666.7 X26.31 Y17.401
G1 F1200 X113.627 Y104.717 E314.90628
G0 F6666.7 X112.354 Y104.717
G1 F1200 X26.31 Y18.673 E319.54142
G0 F6666.7 X26.31 Y19.946
G1 F1200 X111.081 Y104.717 E324.10798
G0 F6666.7 X109.808 Y104.717
G1 F1200 X26.31 Y21.219 E328.60596
G0 F6666.7 X26.31 Y22.492
G1 F1200 X108.535 Y104.717 E333.03536
G0 F6666.7 X107.263 Y104.717
G1 F1200 X26.31 Y23.765 E337.39622
G0 F6666.7 X26.31 Y25.037
G1 F1200 X105.99 Y104.717 E341.68853
G0 F6666.7 X104.717 Y104.717
G1 F1200 X26.31 Y26.31 E345.91227
G0 F6666.7 X26.31 Y27.583
G1 F1200 X103.444 Y104.717 E350.06742
G0 F6666.7 X102.171 Y104.717
G1 F1200 X26.31 Y28.856 E354.154
G0 F6666.7 X26.31 Y30.129
G1 F1200 X100.899 Y104.717 E358.17204
G0 F6666.7 X99.626 Y104.717
G1 F1200 X26.31 Y31.401 E362.12152
G0 F6666.7 X26.31 Y32.674
G1 F1200 X98.353 Y104.717 E366.00243
G0 F6666.7 X97.08 Y104.717
G1 F1200 X26.31 Y33.947 E369.81477
G0 F6666.7 X26.31 Y35.22
G1 F1200 X95.808 Y104.717 E373.55855
G0 F6666.7 X94.535 Y104.717
G1 F1200 X26.31 Y36.493 E377.23376
G0 F6666.7 X26.31 Y37.765
G1 F1200 X93.262 Y104.717 E380.84042
G0 F6666.7 X91.989 Y104.717
G1 F1200 X26.31 Y39.038 E384.3785
G0 F6666.7 X26.31 Y40.311
G1 F1200 X90.716 Y104.717 E387.84801
G0 F6666.7 X89.444 Y104.717
G1 F1200 X26.31 Y41.584 E391.24897
G0 F6666.7 X26.31 Y42.857
G1 F1200 X88.171 Y104.717 E394.58136
G0 F6666.7 X86.898 Y104.717
G1 F1200 X26.31 Y44.129 E397.84519
G0 F6666.7 X26.31 Y45.402
G1 F1200 X85.625 Y104.717 E401.04045
G0 F6666.7 X84.352 Y104.717
G1 F1200 X26.31 Y46.675 E404.16714
G0 F6666.7 X26.31 Y47.948
G1 F1200 X83.08 Y104.717 E407.22527
G0 F6666.7 X81.807 Y104.717
G1 F1200 X26.31 Y49.22 E410.21486
G0 F6666.7 X26.31 Y50.493
G1 F1200 X80.534 Y104.717 E413.13587
G0 F6666.7 X79.261 Y104.717
G1 F1200 X26.31 Y51.766 E415.98831
G0 F6666.7 X26.31 Y53.039
G1 F1200 X77.988 Y104.717 E418.77217
G0 F6666.7 X76.716 Y104.717
G1 F1200 X26.31 Y54.312 E421.48748
G0 F6666.7 X26.31 Y55.584
G1 F1200 X75.443 Y104.717 E424.13424
G0 F6666.7 X74.17 Y104.717
G1 F1200 X26.31 Y56.857 E426.71243
G0 F6666.7 X26.31 Y58.13
G1 F1200 X72.897 Y104.717 E429.22204
G0 F6666.7 X71.624 Y104.717
G1 F1200 X26.31 Y59.403 E431.66307
G0 F6666.7 X26.31 Y60.676
G1 F1200 X70.352 Y104.717 E434.03556
G0 F6666.7 X69.079 Y104.717
G1 F1200 X26.31 Y61.948 E436.3395
G0 F6666.7 X26.31 Y63.221
G1 F1200 X67.806 Y104.717 E438.57486
G0 F6666.7 X66.533 Y104.717
G1 F1200 X26.31 Y64.494 E440.74165
G0 F6666.7 X26.31 Y65.767
G1 F1200 X65.261 Y104.717 E442.83988
G0 F6666.7 X63.988 Y104.717
G1 F1200 X26.31 Y67.04 E444.86955
G0 F6666.7 X26.31 Y68.312
G1 F1200 X62.715 Y104.717 E446.83066
G0 F6666.7 X61.442 Y104.717
G1 F1200 X26.31 Y69.585 E448.7232
G0 F6666.7 X26.31 Y70.858
G1 F1200 X60.169 Y104.717 E450.54716
G0 F6666.7 X58.897 Y104.717
G1 F1200 X26.31 Y72.131 E452.30257
G0 F6666.7 X26.31 Y73.404
G1 F1200 X57.624 Y104.717 E453.98941
G0 F6666.7 X56.351 Y104.717
G1 F1200 X26.31 Y74.676 E455.6077
G0 F6666.7 X26.31 Y75.949
G1 F1200 X55.078 Y104.717 E457.15741
G0 F6666.7 X53.805 Y104.717
G1 F1200 X26.31 Y77.222 E458.63855
G0 F6666.7 X26.31 Y78.495
G1 F1200 X52.533 Y104.717 E460.05114
G0 F6666.7 X51.26 Y104.717
G1 F1200 X26.31 Y79.768 E461.39515
G0 F6666.7 X26.31 Y81.04
G1 F1200 X49.987 Y104.717 E462.67062
G0 F6666.7 X48.714 Y104.717
G1 F1200 X26.31 Y82.313 E463.8775
G0 F6666.7 X26.31 Y83.586
G1 F1200 X47.441 Y104.717 E465.01582
G0 F6666.7 X46.169 Y104.717
G1 F1200 X26.31 Y84.859 E466.08558
G0 F6666.7 X26.31 Y86.131
G1 F1200 X44.896 Y104.717 E467.0868
G0 F6666.7 X43.623 Y104.717
G1 F1200 X26.31 Y87.404 E468.01944
G0 F6666.7 X26.31 Y88.677
G1 F1200 X42.35 Y104.717 E468.8835
G0 F6666.7 X41.077 Y104.717
G1 F1200 X26.31 Y89.95 E469.67899
G0 F6666.7 X26.31 Y91.223
G1 F1200 X39.805 Y104.717 E470.40593
G0 F6666.7 X38.532 Y104.717
G1 F1200 X26.31 Y92.495 E471.06432
G0 F6666.7 X26.31 Y93.768
G1 F1200 X37.259 Y104.717 E471.65414
G0 F6666.7 X35.986 Y104.717
G1 F1200 X26.31 Y95.041 E472.17538
G0 F6666.7 X26.31 Y96.314
G1 F1200 X34.713 Y104.717 E472.62804
G0 F6666.7 X33.441 Y104.717
M104 S210
G1 F1200 X26.31 Y97.587 E473.01216
G0 F6666.7 X26.31 Y98.859
G1 F1200 X32.168 Y104.717 E473.32772
G0 F6666.7 X30.895 Y104.717
G1 F1200 X26.31 Y100.132 E473.57471
G0 F6666.7 X26.31 Y101.405
G1 F1200 X29.622 Y104.717 E473.75313
G0 F6666.7 X28.35 Y104.717
G1 F1200 X26.31 Y102.678 E473.863
G0 F6666.7 X26.31 Y103.951
G1 F1200 X27.077 Y104.717 E473.90429
G0 F6666.7 X27.077 Y105.12
;MESH:NONMESH
G0 F600 X27.077 Y105.12 Z1.07
G0 F6666.7 X142.797 Y104.708
G0 X142.869 Y102.93
G0 X141.019 Y102.93
;TIME_ELAPSED:640.330856
;LAYER:1
M106 S85
M204 S750
;TYPE:WALL-INNER
;MESH:lev.jpg
G1 F1800 X28.099 Y102.93 E482.68385
G1 X28.099 Y16.867 E489.37527
G1 X141.019 Y16.867 E498.15484
G1 X141.019 Y102.93 E504.84626
M204 S2250
G0 F10833.3 X141.639 Y103.55
M204 S750
G1 F1800 X27.479 Y103.55 E513.72224
G1 X27.479 Y16.247 E520.51007
G1 X141.639 Y16.247 E529.38605
G1 X141.639 Y103.55 E536.17388
M204 S2250
G0 F10833.3 X142.259 Y104.17
M204 S750
G1 F1800 X26.859 Y104.17 E545.14626
G1 X26.859 Y15.627 E552.03051
G1 X142.259 Y15.627 E561.00289
G1 X142.259 Y104.17 E567.88714
M204 S2250
G0 F10833.3 X142.879 Y104.79
M204 S750
G1 F1800 X26.239 Y104.79 E576.95593
G1 X26.239 Y15.007 E583.93659
G1 X142.879 Y15.007 E593.00538
G1 X142.879 Y104.79 E599.98604
M204 S2250
G0 F10833.3 X143.499 Y105.41
M204 S750
G1 F1800 X25.619 Y105.41 E609.15124
G1 X25.619 Y14.387 E616.22831
G1 X143.499 Y14.387 E625.39352
G1 X143.499 Y105.41 E632.47058
M204 S2250
G0 F10833.3 X144.184 Y106.095
M204 S500
;TYPE:WALL-OUTER
G1 F1650 X24.934 Y106.095 E643.68638
G1 X24.934 Y13.702 E652.37619
G1 X144.184 Y13.702 E663.59199
G1 X144.184 Y106.095 E672.28181
M204 S2250
G0 F10833.3 X143.784 Y106.095
G0 X143.359 Y105.27
G0 X140.279 Y102.19
M204 S500
;TYPE:SKIN
G1 F1650 X28.839 Y102.19 E682.76305
G1 X28.839 Y17.607 E690.71832
G1 X140.279 Y17.607 E701.19956
G1 X140.279 Y102.19 E709.15482
M204 S2250
G0 F10833.3 X139.931 Y97.105
G0 X137.387 Y88.81
G0 X135.816 Y85.598
G0 X120.994 Y66.743
G0 X134.407 Y57.505
G0 X136.513 Y57.967
G0 X134.855 Y55.74
G0 X132.997 Y55.003
G0 X130.59 Y54.301
G0 X106.25 Y49.247
G0 X125.021 Y35.018
G0 X125.965 Y31.27
G0 X126.404 Y28.172
G0 X126.437 Y26.007
G0 X125.51 Y24.432
G0 X109.283 Y17.954
G0 X29.786 Y17.943
M204 S500
G1 F1650 X29.175 Y18.553 E709.23603
M204 S2250
G0 F10833.3 X29.175 Y19.614
M204 S500
G1 F1650 X30.846 Y17.943 E709.45829
M204 S2250
G0 F10833.3 X31.907 Y17.943
M204 S500
G1 F1650 X29.175 Y20.675 E709.82167
M204 S2250
G0 F10833.3 X29.175 Y21.735
M204 S500
G1 F1650 X32.968 Y17.943 E710.32612
M204 S2250
G0 F10833.3 X34.028 Y17.943
M204 S500
G1 F1650 X29.175 Y22.796 E710.97162
M204 S2250
G0 F10833.3 X29.175 Y23.857
M204 S500
G1 F1650 X35.089 Y17.943 E711.75824
M204 S2250
G0 F10833.3 X36.15 Y17.943
M204 S500
G1 F1650 X29.175 Y24.917 E712.68593
M204 S2250
G0 F10833.3 X29.175 Y25.978
M204 S500
G1 F1650 X37.21 Y17.943 E713.75467
M204 S2250
G0 F10833.3 X38.271 Y17.943
M204 S500
G1 F1650 X29.175 Y27.039 E714.96453
M204 S2250
G0 F10833.3 X29.175 Y28.099
M204 S500
G1 F1650 X39.332 Y17.943 E716.31546
M204 S2250
G0 F10833.3 X40.392 Y17.943
M204 S500
G1 F1650 X29.175 Y29.16 E717.80744
M204 S2250
G0 F10833.3 X29.175 Y30.221
M204 S500
G1 F1650 X41.453 Y17.943 E719.44054
M204 S2250
G0 F10833.3 X42.514 Y17.943
M204 S500
G1 F1650 X29.175 Y31.281 E721.21471
M204 S2250
G0 F10833.3 X29.175 Y32.342
M204 S500
G1 F1650 X43.574 Y17.943 E723.12993
M204 S2250
G0 F10833.3 X44.635 Y17.943
M204 S500
G1 F1650 X29.175 Y33.403 E725.18627
M204 S2250
G0 F10833.3 X29.175 Y34.463
M204 S500
G1 F1650 X45.696 Y17.943 E727.38368
M204 S2250
G0 F10833.3 X46.756 Y17.943
M204 S500
G1 F1650 X29.175 Y35.524 E729.72214
M204 S2250
G0 F10833.3 X29.175 Y36.584
M204 S500
G1 F1650 X47.817 Y17.943 E732.20166
M204 S2250
G0 F10833.3 X48.878 Y17.943
M204 S500
G1 F1650 X29.175 Y37.645 E734.8223
M204 S2250
G0 F10833.3 X29.175 Y38.706
M204 S500
G1 F1650 X49.938 Y17.943 E737.584
M204 S2250
G0 F10833.3 X50.999 Y17.943
M204 S500
G1 F1650 X29.175 Y39.766 E740.48676
M204 S2250
G0 F10833.3 X29.175 Y40.827
M204 S500
G1 F1650 X52.06 Y17.943 E743.53065
M204 S2250
G0 F10833.3 X53.12 Y17.943
M204 S500
G1 F1650 X29.175 Y41.888 E746.71559
M204 S2250
G0 F10833.3 X29.175 Y42.948
M204 S500
G1 F1650 X54.181 Y17.943 E750.04159
M204 S2250
G0 F10833.3 X55.242 Y17.943
M204 S500
G1 F1650 X29.175 Y44.009 E753.50871
M204 S2250
G0 F10833.3 X29.175 Y45.07
M204 S500
G1 F1650 X56.302 Y17.943 E757.11689
M204 S2250
G0 F10833.3 X57.363 Y17.943
M204 S500
G1 F1650 X29.175 Y46.13 E760.86613
M204 S2250
G0 F10833.3 X29.175 Y47.191
M204 S500
G1 F1650 X58.423 Y17.943 E764.75643
M204 S2250
G0 F10833.3 X59.484 Y17.943
M204 S500
G1 F1650 X29.175 Y48.252 E768.78785
M204 S2250
G0 F10833.3 X29.175 Y49.312
M204 S500
G1 F1650 X60.545 Y17.943 E772.96033
M204 S2250
G0 F10833.3 X61.605 Y17.943
M204 S500
G1 F1650 X29.175 Y50.373 E777.27387
M204 S2250
