;START_OF_HEADER
;HEADER_VERSION:0.1
;FLAVOR:Griffin
;GENERATOR.NAME:Cura_SteamEngine
;GENERATOR.VERSION:4.12.0
;GENERATOR.BUILD_DATE:2021-11-09
;TARGET_MACHINE.NAME:Ultimaker 3 Extended
;EXTRUDER_TRAIN.0.INITIAL_TEMPERATURE:215
;EXTRUDER_TRAIN.0.MATERIAL.VOLUME_USED:21692
;EXTRUDER_TRAIN.0.MATERIAL.GUID:506c9f0d-e3aa-4bd4-b2d2-23e2425b1aa9
;EXTRUDER_TRAIN.0.NOZZLE.DIAMETER:0.8
;EXTRUDER_TRAIN.0.NOZZLE.NAME:AA 0.8
;BUILD_PLATE.TYPE:glass
;BUILD_PLATE.INITIAL_TEMPERATURE:60
;PRINT.TIME:1444
;PRINT.GROUPS:1
;PRINT.SIZE.MIN.X:7.596
;PRINT.SIZE.MIN.Y:6
;PRINT.SIZE.MIN.Z:0.27
;PRINT.SIZE.MAX.X:76.7
;PRINT.SIZE.MAX.Y:86.858
;PRINT.SIZE.MAX.Z:123.068
;END_OF_HEADER
;Generated with Cura_SteamEngine 4.12.0
T0
M82 ;absolute extrusion mode

G92 E0
M109 S215
G0 F15000 X9 Y6 Z2
G280
G1 F1500 E-5
;LAYER_COUNT:154
;LAYER:0
M107
M204 S500
M205 X25 Y25
G1 F600 Z2.27
G0 F6666.7 X15.599 Y19.564 Z2.27
;TYPE:SKIRT
G1 F600 Z0.27
G1 F900 E0
G1 F1200 X15.686 Y19.522 E0.00368
G1 X17.433 Y18.614 E0.07868
G1 X18.103 Y18.311 E0.10669
G1 X18.801 Y18.083 E0.13466
G1 X19.52 Y17.932 E0.16264
G1 X20.109 Y17.867 E0.18521
G1 X21.633 Y17.768 E0.24339
G1 X22.11 Y17.754 E0.26157
G1 X22.843 Y17.794 E0.28953
G1 X23.568 Y17.913 E0.31751
G1 X24.276 Y18.111 E0.34552
G1 X24.908 Y18.361 E0.37141
G1 X26.436 Y19.057 E0.43536
G1 X27.087 Y19.398 E0.46336
G1 X27.975 Y20.027 E0.50481
G1 X29.695 Y21.469 E0.5903
G1 X30.131 Y21.869 E0.61284
G1 X39.749 Y31.488 E1.13098
G1 X40.564 Y31.426 E1.16212
G1 X41.15 Y31.393 E1.18448
G1 X41.38 Y31.384 E1.19324
G1 X41.964 Y31.371 E1.21549
G1 X42.248 Y31.37 E1.22631
G1 X42.901 Y31.383 E1.25119
G1 X43.149 Y31.393 E1.26064
G1 X43.907 Y31.437 E1.28957
G1 X44.547 Y31.488 E1.31402
G1 X54.165 Y21.87 E1.83214
G1 X54.6 Y21.472 E1.8546
G1 X56.32 Y20.029 E1.94012
G1 X56.907 Y19.588 E1.96808
G1 X57.857 Y19.059 E2.0095
G1 X59.385 Y18.362 E2.07348
G1 X60.069 Y18.094 E2.10146
G1 X60.778 Y17.902 E2.12944
G1 X61.503 Y17.788 E2.15739
G1 X62.237 Y17.753 E2.18538
G1 X62.617 Y17.767 E2.19987
G1 X64.181 Y17.867 E2.25957
G1 X64.91 Y17.953 E2.28753
G1 X65.626 Y18.119 E2.31552
G1 X66.319 Y18.361 E2.34348
G1 X66.861 Y18.613 E2.36625
G1 X68.688 Y19.562 E2.44467
G1 X69.321 Y19.935 E2.47266
G1 X69.915 Y20.381 E2.50095
G1 X71.722 Y21.897 E2.5908
G1 X72.259 Y22.399 E2.6188
G1 X72.552 Y22.726 E2.63553
G1 X74.07 Y24.533 E2.72542
G1 X74.512 Y25.121 E2.75344
G1 X74.906 Y25.814 E2.78381
G1 X74.914 Y25.81 E2.78415
G1 X75.84 Y27.593 E2.86068
G1 X76.143 Y28.262 E2.88865
G1 X76.371 Y28.961 E2.91666
G1 X76.522 Y29.679 E2.94461
G1 X76.586 Y30.266 E2.9671
G1 X76.685 Y31.789 E3.02524
G1 X76.699 Y32.267 E3.04345
G1 X76.659 Y33 E3.07141
G1 X76.54 Y33.725 E3.0994
G1 X76.342 Y34.433 E3.1274
G1 X76.093 Y35.062 E3.15317
G1 X75.398 Y36.59 E3.21711
G1 X75.058 Y37.241 E3.24509
G1 X74.427 Y38.132 E3.28668
G1 X72.985 Y39.852 E3.37217
G1 X72.585 Y40.288 E3.39471
G1 X62.948 Y49.923 E3.9138
G1 X63.002 Y50.393 E3.93182
G1 X63.064 Y51.009 E3.9554
G1 X63.072 Y51.132 E3.96009
G1 X63.123 Y51.714 E3.98235
G1 X63.147 Y52.448 E4.01032
G1 X63.125 Y52.866 E4.02627
G1 X63.064 Y53.596 E4.05417
G1 X62.987 Y54.356 E4.08327
G1 X62.948 Y54.687 E4.09596
G1 X72.584 Y64.322 E4.61502
G1 X72.984 Y64.758 E4.63756
G1 X74.426 Y66.478 E4.72306
G1 X74.866 Y67.066 E4.75103
G1 X75.394 Y68.014 E4.79236
G1 X76.091 Y69.542 E4.85634
G1 X76.359 Y70.226 E4.88432
G1 X76.551 Y70.935 E4.9123
G1 X76.665 Y71.66 E4.94026
G1 X76.7 Y72.394 E4.96825
G1 X76.686 Y72.774 E4.98273
G1 X76.586 Y74.338 E5.04243
G1 X76.5 Y75.067 E5.07039
G1 X76.334 Y75.783 E5.09839
G1 X76.092 Y76.476 E5.12635
G1 X75.841 Y77.016 E5.14903
G1 X74.893 Y78.843 E5.22743
G1 X74.52 Y79.476 E5.25542
G1 X74.073 Y80.072 E5.2838
G1 X72.557 Y81.879 E5.37364
G1 X72.055 Y82.416 E5.40164
G1 X71.727 Y82.71 E5.41842
G1 X69.917 Y84.23 E5.50845
G1 X69.329 Y84.671 E5.53645
G1 X68.64 Y85.055 E5.5665
G1 X68.647 Y85.069 E5.56709
G1 X66.865 Y85.996 E5.64361
G1 X66.196 Y86.299 E5.67158
G1 X65.498 Y86.528 E5.69956
G1 X64.779 Y86.679 E5.72755
G1 X64.187 Y86.744 E5.75024
G1 X62.662 Y86.843 E5.80845
G1 X62.186 Y86.857 E5.82659
G1 X61.453 Y86.817 E5.85455
G1 X60.728 Y86.698 E5.88253
G1 X60.02 Y86.5 E5.91054
G1 X59.385 Y86.248 E5.93656
G1 X57.857 Y85.551 E6.00053
G1 X57.206 Y85.21 E6.02853
G1 X56.321 Y84.583 E6.06984
G1 X54.601 Y83.141 E6.15534
G1 X54.165 Y82.741 E6.17788
G1 X44.547 Y73.123 E6.69599
G1 X43.732 Y73.185 E6.72713
G1 X43.147 Y73.218 E6.74944
G1 X42.917 Y73.227 E6.75821
G1 X42.332 Y73.24 E6.7805
G1 X42.047 Y73.241 E6.79136
G1 X41.395 Y73.228 E6.8162
G1 X41.149 Y73.218 E6.82558
G1 X40.388 Y73.174 E6.85461
G1 X39.749 Y73.123 E6.87903
G1 X30.132 Y82.741 E7.39712
G1 X29.694 Y83.142 E7.41974
G1 X27.973 Y84.584 E7.50526
G1 X27.385 Y85.024 E7.53324
G1 X26.443 Y85.55 E7.57433
G1 X24.915 Y86.248 E7.63832
G1 X24.231 Y86.516 E7.66631
G1 X23.522 Y86.709 E7.6943
G1 X22.796 Y86.823 E7.72229
G1 X22.063 Y86.858 E7.75024
G1 X21.679 Y86.844 E7.76488
G1 X20.116 Y86.744 E7.82454
G1 X19.387 Y86.658 E7.8525
G1 X18.671 Y86.492 E7.8805
G1 X17.977 Y86.25 E7.90849
G1 X17.437 Y85.999 E7.93117
G1 X15.609 Y85.05 E8.00963
G1 X14.976 Y84.676 E8.03764
G1 X14.38 Y84.23 E8.06599
G1 X12.571 Y82.712 E8.15594
G1 X12.035 Y82.21 E8.18392
G1 X11.739 Y81.879 E8.20083
G1 X10.223 Y80.072 E8.29068
G1 X9.782 Y79.485 E8.31865
G1 X9.403 Y78.843 E8.34704
G1 X8.455 Y77.016 E8.42545
G1 X8.152 Y76.346 E8.45346
G1 X7.924 Y75.648 E8.48143
G1 X7.774 Y74.929 E8.5094
G1 X7.71 Y74.345 E8.53178
G1 X7.611 Y72.821 E8.58996
G1 X7.597 Y72.343 E8.60817
G1 X7.637 Y71.61 E8.63613
G1 X7.756 Y70.885 E8.66412
G1 X7.954 Y70.177 E8.69212
G1 X8.204 Y69.545 E8.71801
G1 X8.9 Y68.017 E8.78197
G1 X9.241 Y67.366 E8.80996
G1 X9.87 Y66.479 E8.85138
G1 X11.311 Y64.76 E8.93683
G1 X11.711 Y64.323 E8.95939
G1 X21.348 Y54.687 E9.4785
G1 X21.293 Y54.207 E9.49691
G1 X21.232 Y53.592 E9.52045
G1 X21.226 Y53.49 E9.52434
G1 X21.174 Y52.907 E9.54664
G1 X21.148 Y52.173 E9.57461
G1 X21.172 Y51.732 E9.59144
G1 X21.232 Y51.035 E9.61808
G1 X21.306 Y50.285 E9.64679
G1 X21.348 Y49.924 E9.66064
G1 X11.711 Y40.288 E10.17975
G1 X11.31 Y39.85 E10.20237
G1 X9.869 Y38.13 E10.28784
G1 X9.428 Y37.542 E10.31584
G1 X8.902 Y36.596 E10.35707
G1 X8.205 Y35.068 E10.42104
G1 X7.937 Y34.384 E10.44902
G1 X7.745 Y33.675 E10.477
G1 X7.631 Y32.95 E10.50496
G1 X7.596 Y32.216 E10.53295
G1 X7.61 Y31.836 E10.54743
G1 X7.71 Y30.273 E10.60709
G1 X7.796 Y29.544 E10.63505
G1 X7.962 Y28.828 E10.66305
G1 X8.204 Y28.134 E10.69105
G1 X8.455 Y27.594 E10.71373
G1 X9.404 Y25.766 E10.79218
G1 X9.778 Y25.133 E10.82019
G1 X10.224 Y24.538 E10.84851
G1 X11.739 Y22.732 E10.93831
G1 X12.241 Y22.196 E10.96628
G1 X12.569 Y21.901 E10.98308
G1 X14.38 Y20.38 E11.07317
G1 X14.967 Y19.939 E11.10114
G1 X15.599 Y19.564 E11.12913
G0 F6666.7 X16.065 Y20.34
G1 F1200 X17.848 Y19.413 E11.20568
G1 X18.473 Y19.133 E11.23176
G1 X19.125 Y18.928 E11.2578
G1 X19.797 Y18.801 E11.28385
G1 X20.168 Y18.765 E11.29805
G1 X21.692 Y18.666 E11.35622
G1 X22.11 Y18.654 E11.37215
G1 X22.793 Y18.694 E11.39821
G1 X23.466 Y18.813 E11.42424
G1 X24.121 Y19.01 E11.4503
G1 X24.535 Y19.18 E11.46734
G1 X26.063 Y19.876 E11.5313
G1 X26.668 Y20.196 E11.55737
G1 X27.396 Y20.717 E11.59147
G1 X29.116 Y22.159 E11.67697
G1 X29.495 Y22.506 E11.69654
G1 X39.41 Y32.422 E12.23068
G1 X39.836 Y32.384 E12.24697
G1 X40.615 Y32.324 E12.27674
G1 X41.201 Y32.291 E12.29909
G1 X41.4 Y32.283 E12.30668
G1 X41.984 Y32.27 E12.32893
G1 X42.23 Y32.27 E12.3383
G1 X42.883 Y32.283 E12.36318
G1 X43.098 Y32.291 E12.37137
G1 X43.716 Y32.326 E12.39495
G1 X44.456 Y32.383 E12.42322
G1 X44.885 Y32.422 E12.43963
G1 X54.801 Y22.506 E12.9738
G1 X55.178 Y22.161 E12.99327
G1 X56.898 Y20.718 E13.07879
G1 X57.447 Y20.31 E13.10484
G1 X58.23 Y19.878 E13.13891
G1 X59.758 Y19.181 E13.20288
G1 X60.396 Y18.934 E13.22894
G1 X61.058 Y18.763 E13.25498
G1 X61.736 Y18.67 E13.28105
G1 X62.559 Y18.665 E13.3124
G1 X64.123 Y18.765 E13.3721
G1 X64.802 Y18.848 E13.39815
G1 X65.466 Y19.01 E13.42419
G1 X66.107 Y19.249 E13.45025
G1 X66.447 Y19.412 E13.46461
G1 X68.274 Y20.361 E13.54303
G1 X68.861 Y20.711 E13.56906
G1 X69.337 Y21.07 E13.59177
G1 X71.144 Y22.586 E13.68162
G1 X71.863 Y23.305 E13.72035
G1 X73.381 Y25.112 E13.81025
G1 X73.79 Y25.661 E13.83632
G1 X74.11 Y26.228 E13.86112
G1 X74.116 Y26.225 E13.86138
G1 X75.042 Y28.008 E13.93791
G1 X75.321 Y28.632 E13.96395
G1 X75.525 Y29.285 E13.99001
G1 X75.652 Y29.956 E14.01602
G1 X75.688 Y30.325 E14.03014
G1 X75.787 Y31.848 E14.08828
G1 X75.799 Y32.267 E14.10424
G1 X75.759 Y32.95 E14.13031
G1 X75.64 Y33.623 E14.15634
G1 X75.443 Y34.278 E14.18239
G1 X75.274 Y34.689 E14.19932
G1 X74.579 Y36.217 E14.26326
G1 X74.26 Y36.822 E14.28931
G1 X73.737 Y37.553 E14.32355
G1 X72.295 Y39.273 E14.40905
G1 X71.948 Y39.652 E14.42862
G1 X62.001 Y49.598 E14.96443
G1 X62.025 Y49.774 E14.9712
G1 X62.107 Y50.483 E14.99839
G1 X62.169 Y51.099 E15.02197
G1 X62.176 Y51.21 E15.0262
G1 X62.227 Y51.792 E15.04846
G1 X62.229 Y52.791 E15.08651
G1 X62.168 Y53.506 E15.11385
G1 X62.093 Y54.252 E15.14241
G1 X62.025 Y54.835 E15.16476
G1 X62 Y55.012 E15.17157
G1 X71.947 Y64.958 E15.70738
G1 X72.294 Y65.337 E15.72696
G1 X73.736 Y67.057 E15.81245
G1 X74.144 Y67.605 E15.83848
G1 X74.575 Y68.387 E15.87249
G1 X75.272 Y69.915 E15.93646
G1 X75.519 Y70.553 E15.96252
G1 X75.69 Y71.215 E15.98857
G1 X75.783 Y71.893 E16.01463
G1 X75.788 Y72.716 E16.04598
G1 X75.688 Y74.28 E16.10568
G1 X75.605 Y74.959 E16.13174
G1 X75.443 Y75.623 E16.15777
G1 X75.204 Y76.264 E16.18383
G1 X75.043 Y76.601 E16.19806
G1 X74.095 Y78.428 E16.27646
G1 X73.745 Y79.016 E16.30253
G1 X73.384 Y79.494 E16.32534
G1 X71.868 Y81.301 E16.41519
G1 X71.148 Y82.021 E16.45398
G1 X69.338 Y83.541 E16.54401
G1 X68.79 Y83.949 E16.57003
G1 X68.226 Y84.26 E16.59457
G1 X68.232 Y84.271 E16.59504
G1 X66.45 Y85.198 E16.67156
G1 X65.826 Y85.477 E16.69759
G1 X65.173 Y85.682 E16.72366
G1 X64.501 Y85.81 E16.74972
G1 X64.129 Y85.846 E16.76396
G1 X62.604 Y85.945 E16.82217
G1 X62.186 Y85.957 E16.8381
G1 X61.503 Y85.917 E16.86416
G1 X60.83 Y85.798 E16.89019
G1 X60.175 Y85.601 E16.91625
G1 X59.758 Y85.429 E16.93343
G1 X58.23 Y84.732 E16.9974
G1 X57.626 Y84.413 E17.02342
G1 X56.9 Y83.893 E17.05744
G1 X55.18 Y82.451 E17.14293
G1 X54.801 Y82.105 E17.16248
G1 X44.886 Y72.19 E17.69659
G1 X44.46 Y72.227 E17.71288
G1 X43.681 Y72.287 E17.74264
G1 X43.096 Y72.32 E17.76496
G1 X42.897 Y72.328 E17.77255
G1 X42.312 Y72.341 E17.79484
G1 X42.065 Y72.341 E17.80425
G1 X41.413 Y72.328 E17.82909
G1 X41.2 Y72.32 E17.83721
G1 X40.581 Y72.285 E17.86082
G1 X39.84 Y72.228 E17.88913
G1 X39.41 Y72.189 E17.90558
G1 X29.496 Y82.104 E18.43967
G1 X29.116 Y82.452 E18.45929
G1 X27.395 Y83.894 E18.54482
G1 X26.846 Y84.302 E18.57087
G1 X26.069 Y84.731 E18.60468
G1 X24.541 Y85.429 E18.66867
G1 X23.903 Y85.676 E18.69473
G1 X23.241 Y85.848 E18.72078
G1 X22.564 Y85.94 E18.74681
G1 X21.736 Y85.946 E18.77835
G1 X20.173 Y85.846 E18.83801
G1 X19.495 Y85.763 E18.86403
G1 X18.83 Y85.6 E18.89011
G1 X18.19 Y85.362 E18.91612
G1 X17.852 Y85.2 E18.93039
G1 X16.024 Y84.251 E19.00885
G1 X15.436 Y83.901 E19.03491
G1 X14.959 Y83.54 E19.0577
G1 X13.15 Y82.022 E19.14765
G1 X12.428 Y81.301 E19.18652
G1 X10.912 Y79.494 E19.27637
G1 X10.504 Y78.945 E19.30242
G1 X10.201 Y78.428 E19.32525
G1 X9.253 Y76.601 E19.40365
G1 X8.974 Y75.977 E19.42969
G1 X8.77 Y75.324 E19.45575
G1 X8.644 Y74.652 E19.48179
G1 X8.608 Y74.286 E19.4958
G1 X8.509 Y72.762 E19.55397
G1 X8.497 Y72.343 E19.56994
G1 X8.537 Y71.66 E19.596
G1 X8.656 Y70.987 E19.62204
G1 X8.853 Y70.332 E19.64809
G1 X9.023 Y69.918 E19.66514
G1 X9.719 Y68.39 E19.72909
G1 X10.039 Y67.785 E19.75516
G1 X10.56 Y67.057 E19.78926
G1 X12.001 Y65.338 E19.87471
G1 X12.348 Y64.959 E19.89428
G1 X22.295 Y55.012 E20.43012
G1 X22.272 Y54.836 E20.43688
G1 X22.189 Y54.118 E20.46441
G1 X22.128 Y53.503 E20.48795
G1 X22.122 Y53.41 E20.4915
G1 X22.07 Y52.827 E20.5138
G1 X22.068 Y51.809 E20.55258
G1 X22.127 Y51.122 E20.57884
G1 X22.187 Y50.504 E20.60249
G1 X22.272 Y49.774 E20.63049
G1 X22.296 Y49.598 E20.63725
G1 X12.348 Y39.652 E21.17309
G1 X12 Y39.272 E21.19272
G1 X10.559 Y37.552 E21.27819
G1 X10.151 Y37.003 E21.30424
G1 X9.721 Y36.223 E21.33817
G1 X9.024 Y34.695 E21.40214
G1 X8.777 Y34.057 E21.4282
G1 X8.606 Y33.395 E21.45425
G1 X8.513 Y32.717 E21.48032
G1 X8.508 Y31.893 E21.5117
G1 X8.608 Y30.33 E21.57136
G1 X8.691 Y29.652 E21.59738
G1 X8.854 Y28.987 E21.62346
G1 X9.092 Y28.347 E21.64947
G1 X9.254 Y28.009 E21.66375
G1 X10.203 Y26.181 E21.7422
G1 X10.553 Y25.593 E21.76827
G1 X10.913 Y25.116 E21.79103
G1 X12.428 Y23.31 E21.88083
G1 X13.148 Y22.59 E21.91961
G1 X14.959 Y21.069 E22.0097
G1 X15.507 Y20.661 E22.03572
G1 X16.072 Y20.353 E22.06023
G1 X16.065 Y20.34 E22.0608
G0 F6666.7 X16.481 Y21.138
G1 F1200 X18.264 Y20.211 E22.13734
G1 X18.839 Y19.957 E22.16129
G1 X19.442 Y19.778 E22.18525
G1 X20.226 Y19.663 E22.21543
G1 X21.75 Y19.564 E22.2736
G1 X22.11 Y19.554 E22.28732
G1 X22.738 Y19.594 E22.31129
G1 X23.355 Y19.713 E22.33523
G1 X24.162 Y19.999 E22.36784
G1 X25.69 Y20.695 E22.4318
G1 X26.245 Y20.992 E22.45578
G1 X26.818 Y21.407 E22.48272
G1 X28.538 Y22.849 E22.56822
G1 X28.858 Y23.142 E22.58475
G1 X39.082 Y33.367 E23.13553
G1 X39.235 Y33.34 E23.14145
G1 X39.906 Y33.281 E23.16711
G1 X40.666 Y33.223 E23.19614
G1 X41.252 Y33.19 E23.2185
G1 X41.42 Y33.183 E23.22491
G1 X42.004 Y33.17 E23.24716
G1 X42.213 Y33.17 E23.25512
G1 X42.866 Y33.183 E23.28
G1 X43.047 Y33.19 E23.2869
G1 X43.768 Y33.232 E23.31441
G1 X44.387 Y33.28 E23.33806
G1 X44.459 Y33.289 E23.34082
G1 X45.045 Y33.339 E23.36322
G1 X45.213 Y33.368 E23.36972
G1 X55.438 Y23.143 E23.92053
G1 X55.757 Y22.851 E23.937
G1 X57.477 Y21.408 E24.02252
G1 X57.983 Y21.035 E24.04647
G1 X58.604 Y20.696 E24.07342
G1 X60.132 Y19.999 E24.13739
G1 X60.719 Y19.775 E24.16132
G1 X61.331 Y19.627 E24.18531
G1 X61.956 Y19.558 E24.20926
G1 X62.502 Y19.563 E24.23006
G1 X64.066 Y19.663 E24.28976
G1 X64.69 Y19.743 E24.31372
G1 X65.298 Y19.901 E24.33765
G1 X66.032 Y20.21 E24.36798
G1 X67.859 Y21.159 E24.4464
G1 X68.397 Y21.484 E24.47035
G1 X68.758 Y21.76 E24.48766
G1 X70.565 Y23.276 E24.5775
G1 X71.174 Y23.884 E24.61028
G1 X72.692 Y25.691 E24.70018
G1 X73.065 Y26.197 E24.72412
G1 X73.314 Y26.642 E24.74355
G1 X74.243 Y28.423 E24.82006
G1 X74.497 Y28.998 E24.84401
G1 X74.676 Y29.601 E24.86797
G1 X74.79 Y30.383 E24.89807
G1 X74.889 Y31.906 E24.9562
G1 X74.899 Y32.267 E24.96996
G1 X74.859 Y32.895 E24.99393
G1 X74.74 Y33.512 E25.01787
G1 X74.455 Y34.316 E25.05036
G1 X73.76 Y35.844 E25.1143
G1 X73.464 Y36.399 E25.13826
G1 X73.047 Y36.975 E25.16535
G1 X71.605 Y38.695 E25.25084
G1 X71.312 Y39.015 E25.26737
G1 X61.041 Y49.284 E25.82061
G1 X61.131 Y49.878 E25.84349
G1 X61.211 Y50.573 E25.87014
G1 X61.273 Y51.189 E25.89372
G1 X61.279 Y51.289 E25.89754
G1 X61.33 Y51.871 E25.91979
G1 X61.332 Y52.716 E25.95198
G1 X61.28 Y53.337 E25.97572
G1 X61.199 Y54.147 E26.00673
G1 X61.131 Y54.73 E26.02908
G1 X61.041 Y55.326 E26.05204
G1 X71.311 Y65.595 E26.60525
G1 X71.604 Y65.915 E26.62178
G1 X73.046 Y67.635 E26.70728
G1 X73.419 Y68.142 E26.73125
G1 X73.757 Y68.761 E26.75812
G1 X74.454 Y70.289 E26.82209
G1 X74.678 Y70.876 E26.84602
G1 X74.826 Y71.488 E26.87001
G1 X74.895 Y72.113 E26.89396
G1 X74.89 Y72.659 E26.91476
G1 X74.79 Y74.223 E26.97445
G1 X74.71 Y74.847 E26.99842
G1 X74.552 Y75.455 E27.02235
G1 X74.244 Y76.187 E27.0526
G1 X73.296 Y78.014 E27.131
G1 X72.971 Y78.553 E27.15498
G1 X72.694 Y78.915 E27.17234
G1 X71.178 Y80.722 E27.26219
G1 X70.569 Y81.332 E27.29502
G1 X68.759 Y82.852 E27.38505
G1 X68.253 Y83.225 E27.409
G1 X67.812 Y83.465 E27.42812
G1 X67.816 Y83.472 E27.42843
G1 X66.034 Y84.399 E27.50494
G1 X65.459 Y84.654 E27.5289
G1 X64.856 Y84.833 E27.55286
G1 X64.071 Y84.948 E27.58308
G1 X62.546 Y85.047 E27.64129
G1 X62.186 Y85.057 E27.65501
G1 X61.558 Y85.017 E27.67898
G1 X60.941 Y84.898 E27.70292
G1 X60.132 Y84.611 E27.73561
G1 X58.604 Y83.914 E27.79959
G1 X58.049 Y83.617 E27.82356
G1 X57.478 Y83.203 E27.85043
G1 X55.758 Y81.761 E27.93593
G1 X55.438 Y81.468 E27.95245
G1 X45.214 Y71.244 E28.50321
G1 X45.062 Y71.271 E28.50909
G1 X44.39 Y71.33 E28.53479
G1 X43.631 Y71.388 E28.56379
G1 X43.046 Y71.421 E28.5861
G1 X42.877 Y71.428 E28.59255
G1 X42.292 Y71.441 E28.61484
