;START_OF_HEADER
;HEADER_VERSION:0.1
;FLAVOR:Griffin
;GENERATOR.NAME:Cura_SteamEngine
;GENERATOR.VERSION:4.12.0
;GENERATOR.BUILD_DATE:2021-11-09
;TARGET_MACHINE.NAME:Ultimaker 3 Extended
;EXTRUDER_TRAIN.0.INITIAL_TEMPERATURE:215
;EXTRUDER_TRAIN.0.MATERIAL.VOLUME_USED:7534
;EXTRUDER_TRAIN.0.MATERIAL.GUID:506c9f0d-e3aa-4bd4-b2d2-23e2425b1aa9
;EXTRUDER_TRAIN.0.NOZZLE.DIAMETER:0.8
;EXTRUDER_TRAIN.0.NOZZLE.NAME:AA 0.8
;BUILD_PLATE.TYPE:glass
;BUILD_PLATE.INITIAL_TEMPERATURE:60
;PRINT.TIME:921
;PRINT.GROUPS:1
;PRINT.SIZE.MIN.X:1.988
;PRINT.SIZE.MIN.Y:5.44
;PRINT.SIZE.MIN.Z:0.27
;PRINT.SIZE.MAX.X:106.56
;PRINT.SIZE.MAX.Y:112.245
;PRINT.SIZE.MAX.Z:4.67
;END_OF_HEADER
;Generated with Cura_SteamEngine 4.12.0
T0
M82 ;absolute extrusion mode

G92 E0
M109 S215
G0 F15000 X9 Y6 Z2
G280
G1 F1500 E-5
;LAYER_COUNT:4
;LAYER:0
M107
M204 S625
M205 X30 Y30
G1 F600 Z2.27
G0 F6666.7 X25.248 Y24.257 Z2.27
M204 S500
M205 X25 Y25
;TYPE:SKIRT
G1 F600 Z0.27
G1 F900 E0
G1 F1200 X27.165 Y22.578 E0.09707
G1 X27.365 Y22.409 E0.10704
G1 X29.464 Y20.71 E0.20991
G1 X31.816 Y18.884 E0.32333
G1 X34.072 Y17.181 E0.431
G1 X36.104 Y15.668 E0.5275
G1 X36.36 Y15.486 E0.53946
G1 X37.543 Y14.688 E0.59382
G1 X39.732 Y13.165 E0.6954
G1 X39.865 Y13.075 E0.70151
G1 X41.055 Y12.288 E0.75586
G1 X42.26 Y11.478 E0.81117
G1 X43.372 Y10.745 E0.8619
G1 X43.511 Y10.656 E0.86818
G1 X44.81 Y9.845 E0.92652
G1 X46.035 Y9.09 E0.98133
G1 X47.17 Y8.404 E1.03185
G1 X47.357 Y8.296 E1.04007
G1 X48.674 Y7.556 E1.09762
G1 X49.985 Y6.836 E1.15459
G1 X51.142 Y6.221 E1.2045
G1 X51.808 Y5.912 E1.23247
G1 X52.504 Y5.677 E1.26045
G1 X53.222 Y5.519 E1.28845
G1 X53.952 Y5.44 E1.31642
G1 X54.687 Y5.442 E1.34442
G1 X55.417 Y5.522 E1.37239
G1 X56.134 Y5.682 E1.40037
G1 X56.829 Y5.919 E1.42835
G1 X57.677 Y6.331 E1.46426
G1 X60.692 Y8.066 E1.59676
G1 X63.365 Y9.627 E1.71467
G1 X63.525 Y9.724 E1.7218
G1 X66.299 Y11.449 E1.84623
G1 X66.431 Y11.533 E1.85219
G1 X69.302 Y13.413 E1.98291
G1 X72.001 Y15.263 E2.10755
G1 X72.151 Y15.369 E2.11454
G1 X74.802 Y17.294 E2.23934
G1 X77.519 Y19.357 E2.36929
G1 X77.687 Y19.489 E2.37743
G1 X80.213 Y21.538 E2.50132
G1 X80.363 Y21.663 E2.50876
G1 X82.863 Y23.814 E2.63438
G1 X83.022 Y23.955 E2.64248
G1 X85.421 Y26.154 E2.76644
G1 X85.582 Y26.306 E2.77487
G1 X87.907 Y28.582 E2.89881
G1 X88.057 Y28.735 E2.90697
G1 X90.333 Y31.109 E3.03224
G1 X90.631 Y31.441 E3.04924
G1 X92.73 Y33.942 E3.17361
G1 X93.052 Y34.357 E3.19362
G1 X94.927 Y36.981 E3.31646
G1 X95.201 Y37.395 E3.33537
G1 X96.875 Y40.145 E3.45801
G1 X97.102 Y40.55 E3.47569
G1 X98.579 Y43.401 E3.598
G1 X98.762 Y43.783 E3.61413
G1 X100.062 Y46.732 E3.73689
G1 X100.195 Y47.056 E3.75024
G1 X101.345 Y50.08 E3.87347
G1 X101.47 Y50.439 E3.88795
G1 X102.445 Y53.515 E4.01087
G1 X102.529 Y53.799 E4.02215
G1 X103.378 Y56.95 E4.14645
G1 X103.437 Y57.19 E4.15587
G1 X104.163 Y60.339 E4.27896
G1 X104.221 Y60.613 E4.28963
G1 X104.82 Y63.812 E4.41361
G1 X104.854 Y64.012 E4.42133
G1 X105.354 Y67.213 E4.54474
G1 X105.8 Y70.533 E4.67234
G1 X105.824 Y70.732 E4.67998
G1 X106.05 Y72.908 E4.76331
G1 X106.239 Y75.24 E4.85243
G1 X106.25 Y75.394 E4.85831
G1 X106.379 Y77.652 E4.94446
G1 X106.478 Y79.852 E5.02835
G1 X106.483 Y79.997 E5.03387
G1 X106.536 Y82.256 E5.11995
G1 X106.56 Y84.456 E5.20375
G1 X106.56 Y84.604 E5.20939
G1 X106.536 Y86.779 E5.29224
G1 X106.452 Y89.255 E5.38661
G1 X106.353 Y91.395 E5.46821
G1 X106.195 Y93.716 E5.55683
G1 X106.182 Y93.877 E5.56298
G1 X105.963 Y96.239 E5.65334
G1 X105.751 Y98.297 E5.73215
G1 X105.637 Y99.022 E5.7601
G1 X105.443 Y99.731 E5.7881
G1 X105.175 Y100.415 E5.81608
G1 X104.833 Y101.065 E5.84406
G1 X104.423 Y101.674 E5.87203
G1 X103.949 Y102.235 E5.9
G1 X103.416 Y102.742 E5.92802
G1 X102.832 Y103.187 E5.95599
G1 X102.203 Y103.566 E5.98396
G1 X101.537 Y103.875 E6.01193
G1 X100.84 Y104.11 E6.03995
G1 X100.123 Y104.267 E6.06791
G1 X99.393 Y104.346 E6.09588
G1 X98.658 Y104.344 E6.12387
G1 X97.928 Y104.263 E6.15185
G1 X96.905 Y104.009 E6.192
G1 X96.079 Y103.734 E6.22516
G1 X95.737 Y103.61 E6.23902
G1 X94.912 Y103.285 E6.27279
G1 X94.748 Y103.218 E6.27954
G1 X93.801 Y102.816 E6.31873
G1 X92.925 Y102.43 E6.35519
G1 X90.492 Y101.325 E6.45698
G1 X89.713 Y100.985 E6.48936
G1 X89.039 Y100.688 E6.51741
G1 X88.445 Y100.453 E6.54175
G1 X87.767 Y100.215 E6.56912
G1 X86.883 Y99.928 E6.60452
G1 X85.483 Y99.46 E6.66075
G1 X84.026 Y99.047 E6.71843
G1 X82.611 Y98.693 E6.774
G1 X81.176 Y98.401 E6.82978
G1 X79.831 Y98.208 E6.88153
G1 X78.366 Y98.06 E6.93762
G1 X76.968 Y97.98 E6.99096
G1 X75.604 Y97.98 E7.04292
G1 X74.24 Y98.058 E7.09496
G1 X72.903 Y98.213 E7.14623
G1 X71.594 Y98.441 E7.19684
G1 X70.392 Y98.723 E7.24387
G1 X69.773 Y98.937 E7.26882
G1 X68.986 Y99.289 E7.30166
G1 X68.159 Y99.702 E7.33687
G1 X67.414 Y100.133 E7.36965
G1 X66.726 Y100.597 E7.40126
G1 X65.982 Y101.174 E7.43713
G1 X65.24 Y101.787 E7.47379
G1 X64.605 Y102.387 E7.50707
G1 X63.962 Y103.065 E7.54266
G1 X63.351 Y103.788 E7.57872
G1 X62.774 Y104.526 E7.6144
G1 X62.169 Y105.422 E7.65558
G1 X61.848 Y105.863 E7.67636
G1 X61.587 Y106.294 E7.69555
G1 X61.317 Y106.78 E7.71673
G1 X61.215 Y106.962 E7.72468
G1 X60.943 Y107.452 E7.74602
G1 X60.637 Y107.952 E7.76835
G1 X60.549 Y108.115 E7.77541
G1 X60.222 Y108.656 E7.79949
G1 X59.79 Y109.283 E7.82849
G1 X59.576 Y109.567 E7.84204
G1 X59.103 Y110.129 E7.87002
G1 X58.571 Y110.636 E7.89801
G1 X57.987 Y111.082 E7.926
G1 X57.359 Y111.462 E7.95396
G1 X56.693 Y111.772 E7.98194
G1 X55.997 Y112.007 E8.00993
G1 X55.28 Y112.166 E8.0379
G1 X54.549 Y112.245 E8.06591
G1 X53.815 Y112.245 E8.09387
G1 X53.085 Y112.165 E8.12184
G1 X52.367 Y112.006 E8.14985
G1 X51.672 Y111.77 E8.17781
G1 X51.006 Y111.46 E8.20579
G1 X50.378 Y111.079 E8.23377
G1 X49.795 Y110.632 E8.26176
G1 X49.263 Y110.125 E8.28975
G1 X48.791 Y109.562 E8.31773
G1 X48.382 Y108.952 E8.34571
G1 X48.124 Y108.477 E8.3663
G1 X47.856 Y107.914 E8.39005
G1 X47.673 Y107.595 E8.40406
G1 X47.328 Y106.907 E8.43338
G1 X46.534 Y105.563 E8.49284
G1 X45.684 Y104.352 E8.5492
G1 X44.717 Y103.206 E8.60631
G1 X43.662 Y102.151 E8.66314
G1 X42.489 Y101.179 E8.72117
G1 X41.292 Y100.322 E8.77725
G1 X40.065 Y99.624 E8.83102
G1 X38.771 Y99.037 E8.88515
G1 X37.449 Y98.586 E8.93835
G1 X36.13 Y98.289 E8.98985
G1 X34.827 Y98.13 E9.03985
G1 X32.941 Y98.128 E9.11169
G1 X31.193 Y98.107 E9.17828
G1 X29.589 Y98.185 E9.23945
G1 X28.018 Y98.379 E9.29975
G1 X26.374 Y98.687 E9.36346
G1 X24.702 Y99.068 E9.42878
G1 X23.049 Y99.549 E9.49436
G1 X21.383 Y100.105 E9.56126
G1 X19.676 Y100.77 E9.63104
G1 X17.918 Y101.487 E9.70336
G1 X16.167 Y102.282 E9.77661
G1 X14.378 Y103.13 E9.85203
G1 X12.696 Y103.959 E9.92345
G1 X12.02 Y104.247 E9.95144
G1 X11.317 Y104.46 E9.97942
G1 X10.595 Y104.596 E10.00741
G1 X9.863 Y104.652 E10.03537
G1 X9.128 Y104.629 E10.06339
G1 X8.401 Y104.525 E10.09136
G1 X7.689 Y104.344 E10.11934
G1 X7.002 Y104.086 E10.1473
G1 X6.346 Y103.755 E10.17529
G1 X5.73 Y103.354 E10.20328
G1 X5.161 Y102.889 E10.23127
G1 X4.647 Y102.365 E10.25923
G1 X4.192 Y101.789 E10.28719
G1 X3.802 Y101.166 E10.31519
G1 X3.483 Y100.504 E10.34318
G1 X3.237 Y99.812 E10.37116
G1 X3.072 Y99.118 E10.39833
G1 X2.871 Y98.019 E10.44089
G1 X2.842 Y97.85 E10.44742
G1 X2.66 Y96.689 E10.49218
G1 X2.496 Y95.477 E10.53877
G1 X2.462 Y95.167 E10.55065
G1 X2.263 Y92.893 E10.6376
G1 X2.244 Y92.605 E10.64859
G1 X2.143 Y90.331 E10.7353
G1 X2.138 Y90.174 E10.74128
G1 X2.088 Y87.812 E10.83127
G1 X2.062 Y86.755 E10.87155
G1 X2.018 Y85.753 E10.90975
G1 X2.013 Y85.599 E10.91562
G1 X1.989 Y84.474 E10.95849
G1 X1.988 Y84.233 E10.96767
G1 X2.038 Y80.759 E11.10001
G1 X2.045 Y80.519 E11.10915
G1 X2.22 Y77.018 E11.24268
G1 X2.479 Y73.374 E11.38183
G1 X2.501 Y73.131 E11.39113
G1 X2.876 Y69.656 E11.52426
G1 X2.906 Y69.418 E11.5334
G1 X3.406 Y65.945 E11.66706
G1 X3.447 Y65.696 E11.67667
G1 X4.072 Y62.269 E11.80936
G1 X4.108 Y62.086 E11.81647
G1 X4.831 Y58.661 E11.9498
G1 X4.914 Y58.312 E11.96347
G1 X5.816 Y54.937 E12.09654
G1 X5.9 Y54.649 E12.10797
G1 X6.949 Y51.325 E12.24074
G1 X7.049 Y51.032 E12.25253
G1 X8.25 Y47.757 E12.3854
G1 X8.378 Y47.433 E12.39867
G1 X9.753 Y44.209 E12.53218
G1 X9.895 Y43.898 E12.54521
G1 X11.42 Y40.771 E12.67773
G1 X11.72 Y40.223 E12.70152
G1 X13.118 Y37.924 E12.80402
G1 X13.348 Y37.571 E12.82007
G1 X14.899 Y35.346 E12.92338
G1 X15.098 Y35.075 E12.93619
G1 X16.723 Y32.975 E13.03733
G1 X16.954 Y32.692 E13.05124
G1 X18.704 Y30.667 E13.15319
G1 X18.885 Y30.466 E13.1635
G1 X20.735 Y28.491 E13.26658
G1 X20.952 Y28.269 E13.2784
G1 X22.878 Y26.394 E13.38079
G1 X23.073 Y26.212 E13.39095
G1 X25.248 Y24.257 E13.50235
M204 S625
M205 X30 Y30
G0 F6666.7 X25.841 Y24.934
M204 S500
M205 X25 Y25
G1 F1200 X27.758 Y23.255 E13.59942
G1 X27.931 Y23.109 E13.60804
G1 X30.03 Y21.41 E13.7109
G1 X32.428 Y19.549 E13.82653
G1 X34.609 Y17.903 E13.93061
G1 X36.641 Y16.39 E14.02711
G1 X36.863 Y16.232 E14.03749
G1 X38.077 Y15.413 E14.09327
G1 X40.246 Y13.904 E14.19392
G1 X40.361 Y13.826 E14.19921
G1 X41.597 Y13.009 E14.25565
G1 X42.755 Y12.23 E14.30881
G1 X43.867 Y11.497 E14.35954
G1 X45.282 Y10.611 E14.42313
G1 X46.501 Y9.86 E14.47767
G1 X47.636 Y9.174 E14.52819
G1 X47.797 Y9.08 E14.53529
G1 X49.108 Y8.345 E14.59254
G1 X50.407 Y7.63 E14.64902
G1 X51.564 Y7.015 E14.69893
G1 X52.186 Y6.73 E14.725
G1 X52.836 Y6.52 E14.75101
G1 X53.507 Y6.386 E14.77708
G1 X54.189 Y6.332 E14.80314
G1 X54.872 Y6.358 E14.82917
G1 X55.548 Y6.463 E14.85523
G1 X56.206 Y6.647 E14.88126
G1 X56.839 Y6.906 E14.90731
G1 X57.228 Y7.111 E14.92406
G1 X60.238 Y8.843 E15.05634
G1 X62.911 Y10.404 E15.17425
G1 X63.05 Y10.488 E15.18044
G1 X65.824 Y12.213 E15.30487
G1 X68.689 Y14.086 E15.43525
G1 X71.492 Y16.006 E15.56467
G1 X71.622 Y16.097 E15.57071
G1 X74.273 Y18.022 E15.6955
G1 X76.974 Y20.073 E15.82469
G1 X77.12 Y20.188 E15.83177
G1 X79.646 Y22.237 E15.95566
G1 X79.776 Y22.345 E15.9621
G1 X82.276 Y24.496 E16.08773
G1 X82.414 Y24.619 E16.09477
G1 X84.813 Y26.818 E16.21873
G1 X84.952 Y26.95 E16.22603
G1 X87.277 Y29.226 E16.34997
G1 X87.408 Y29.358 E16.35705
G1 X89.684 Y31.732 E16.48232
G1 X89.942 Y32.019 E16.49702
G1 X92.041 Y34.52 E16.6214
G1 X92.32 Y34.88 E16.63874
G1 X94.195 Y37.504 E16.76159
G1 X94.432 Y37.863 E16.77798
G1 X96.106 Y40.613 E16.90061
G1 X96.303 Y40.964 E16.91594
G1 X97.78 Y43.815 E17.03825
G1 X97.939 Y44.146 E17.05224
G1 X99.239 Y47.095 E17.175
G1 X99.354 Y47.376 E17.18656
G1 X100.504 Y50.4 E17.3098
G1 X100.613 Y50.711 E17.32235
G1 X101.588 Y53.787 E17.44527
G1 X101.66 Y54.033 E17.45503
G1 X102.509 Y57.184 E17.57934
G1 X102.56 Y57.392 E17.58749
G1 X103.286 Y60.541 E17.71059
G1 X103.336 Y60.778 E17.71982
G1 X103.935 Y63.977 E17.84379
G1 X103.965 Y64.151 E17.85052
G1 X104.465 Y67.352 E17.97392
G1 X104.908 Y70.653 E18.10079
G1 X104.929 Y70.825 E18.10739
G1 X105.155 Y73.001 E18.19072
G1 X105.342 Y75.312 E18.27904
G1 X105.476 Y77.619 E18.36707
G1 X105.579 Y79.892 E18.45374
G1 X105.636 Y82.266 E18.54419
G1 X105.66 Y84.595 E18.63291
G1 X105.633 Y86.907 E18.72098
G1 X105.55 Y89.295 E18.812
G1 X105.454 Y91.353 E18.89048
G1 X105.297 Y93.655 E18.97837
G1 X105.286 Y93.794 E18.98368
G1 X105.068 Y96.146 E19.07366
G1 X104.856 Y98.204 E19.15246
G1 X104.746 Y98.879 E19.17851
G1 X104.559 Y99.537 E19.20457
G1 X104.296 Y100.168 E19.23061
G1 X103.961 Y100.764 E19.25665
G1 X103.558 Y101.317 E19.28272
G1 X103.094 Y101.819 E19.30876
G1 X102.575 Y102.264 E19.3348
G1 X102.007 Y102.645 E19.36085
G1 X101.398 Y102.957 E19.38691
G1 X100.758 Y103.196 E19.41294
G1 X100.094 Y103.359 E19.43898
G1 X99.415 Y103.443 E19.46504
G1 X98.731 Y103.447 E19.4911
G1 X98.052 Y103.371 E19.51712
G1 X97.189 Y103.155 E19.55101
G1 X96.363 Y102.88 E19.58417
G1 X96.067 Y102.773 E19.59616
G1 X95.242 Y102.448 E19.62994
G1 X95.1 Y102.39 E19.63578
G1 X94.163 Y101.992 E19.67456
G1 X93.297 Y101.611 E19.7106
G1 X90.824 Y100.488 E19.81405
G1 X89.369 Y99.85 E19.87457
G1 X88.773 Y99.614 E19.89899
G1 X88.035 Y99.355 E19.92878
G1 X87.168 Y99.075 E19.96348
G1 X85.729 Y98.595 E20.02127
G1 X84.272 Y98.181 E20.07896
G1 X82.802 Y97.814 E20.13668
G1 X81.33 Y97.513 E20.19391
G1 X79.929 Y97.313 E20.24781
G1 X78.441 Y97.162 E20.30479
G1 X77.002 Y97.08 E20.35969
G1 X75.57 Y97.08 E20.41423
G1 X74.17 Y97.16 E20.46765
G1 X72.77 Y97.322 E20.52133
G1 X71.404 Y97.56 E20.57415
G1 X70.143 Y97.856 E20.62349
G1 X69.442 Y98.099 E20.65175
G1 X68.609 Y98.471 E20.6865
G1 X67.741 Y98.904 E20.72345
G1 X66.935 Y99.37 E20.75891
G1 X66.191 Y99.872 E20.7931
G1 X65.428 Y100.464 E20.82989
G1 X64.637 Y101.117 E20.86896
G1 X63.978 Y101.74 E20.9035
G1 X63.284 Y102.473 E20.94195
G1 X62.662 Y103.208 E20.97863
G1 X62.046 Y103.997 E21.01676
G1 X61.423 Y104.919 E21.05914
G1 X61.097 Y105.366 E21.08022
G1 X60.783 Y105.889 E21.10345
G1 X60.475 Y106.431 E21.1272
G1 X60.175 Y106.983 E21.15113
G1 X59.849 Y107.517 E21.17496
G1 X59.757 Y107.686 E21.18229
G1 X59.474 Y108.156 E21.20319
G1 X59.071 Y108.742 E21.23028
G1 X58.857 Y109.026 E21.24383
G1 X58.414 Y109.547 E21.26988
G1 X57.914 Y110.013 E21.29591
G1 X57.362 Y110.417 E21.32197
G1 X56.767 Y110.754 E21.34801
G1 X56.137 Y111.02 E21.37406
G1 X55.48 Y111.21 E21.40011
G1 X54.806 Y111.322 E21.42614
G1 X54.123 Y111.355 E21.45219
G1 X53.441 Y111.307 E21.47823
G1 X52.769 Y111.181 E21.50427
G1 X52.116 Y110.977 E21.53033
G1 X51.492 Y110.698 E21.55637
G1 X50.904 Y110.348 E21.58243
G1 X50.361 Y109.932 E21.60849
G1 X49.871 Y109.456 E21.63451
G1 X49.439 Y108.926 E21.66056
G1 X48.932 Y108.08 E21.69813
G1 X48.666 Y107.522 E21.72167
G1 X48.478 Y107.192 E21.73614
G1 X48.119 Y106.476 E21.76665
G1 X47.296 Y105.083 E21.82828
G1 X46.4 Y103.806 E21.8877
G1 X45.377 Y102.594 E21.94811
G1 X44.265 Y101.482 E22.00802
G1 X43.043 Y100.47 E22.06846
G1 X41.775 Y99.562 E22.12786
G1 X40.467 Y98.818 E22.18518
G1 X39.104 Y98.199 E22.2422
G1 X37.699 Y97.72 E22.29875
G1 X36.286 Y97.401 E22.35392
G1 X34.879 Y97.23 E22.40791
G1 X32.952 Y97.229 E22.48131
G1 X31.16 Y97.207 E22.54958
G1 X29.516 Y97.287 E22.61228
G1 X27.887 Y97.488 E22.6748
G1 X26.16 Y97.812 E22.74173
G1 X24.484 Y98.194 E22.80721
G1 X22.797 Y98.685 E22.87413
G1 X21.063 Y99.264 E22.94377
G1 X19.372 Y99.922 E23.01289
G1 X17.566 Y100.659 E23.08719
G1 X15.763 Y101.477 E23.1626
G1 X13.996 Y102.315 E23.2371
G1 X12.298 Y103.152 E23.30921
G1 X11.668 Y103.417 E23.33524
G1 X11.011 Y103.608 E23.3613
G1 X10.337 Y103.721 E23.38734
G1 X9.654 Y103.754 E23.41338
G1 X8.971 Y103.707 E23.43946
G1 X8.299 Y103.581 E23.4655
G1 X7.646 Y103.377 E23.49156
G1 X7.022 Y103.099 E23.51758
G1 X6.434 Y102.749 E23.54365
G1 X5.891 Y102.334 E23.56968
G1 X5.4 Y101.858 E23.59573
G1 X4.968 Y101.328 E23.62178
G1 X4.601 Y100.751 E23.64782
G1 X4.304 Y100.135 E23.67387
G1 X4.081 Y99.488 E23.69994
G1 X3.957 Y98.956 E23.72075
G1 X3.756 Y97.857 E23.76331
G1 X3.55 Y96.55 E23.81371
G1 X3.531 Y96.423 E23.8186
G1 X3.388 Y95.358 E23.85953
G1 X3.358 Y95.089 E23.86984
G1 X3.159 Y92.815 E23.95679
G1 X3.143 Y92.565 E23.96633
G1 X3.037 Y90.155 E24.05822
G1 X2.988 Y87.793 E24.14821
G1 X2.962 Y86.743 E24.18822
G1 X2.912 Y85.58 E24.23256
G1 X2.888 Y84.455 E24.27542
G1 X2.888 Y84.246 E24.28338
G1 X2.938 Y80.772 E24.41573
G1 X2.944 Y80.564 E24.42365
G1 X3.119 Y77.063 E24.55718
G1 X3.377 Y73.438 E24.69561
G1 X3.396 Y73.227 E24.70368
G1 X3.771 Y69.752 E24.83681
G1 X3.797 Y69.546 E24.84472
G1 X4.297 Y66.073 E24.97838
G1 X4.332 Y65.857 E24.98671
G1 X4.957 Y62.43 E25.11941
G1 X4.988 Y62.272 E25.12554
G1 X5.711 Y58.847 E25.25888
G1 X5.783 Y58.545 E25.2707
G1 X6.685 Y55.17 E25.40377
G1 X6.758 Y54.919 E25.41373
G1 X7.807 Y51.595 E25.5465
G1 X7.894 Y51.342 E25.55669
G1 X9.095 Y48.067 E25.68957
G1 X9.206 Y47.786 E25.70108
G1 X10.581 Y44.562 E25.83458
G1 X10.704 Y44.293 E25.84585
G1 X12.229 Y41.166 E25.97837
G1 X12.489 Y40.691 E25.999
G1 X13.887 Y38.392 E26.10149
G1 X14.086 Y38.086 E26.1154
G1 X15.637 Y35.861 E26.21871
G1 X15.809 Y35.626 E26.2298
G1 X17.434 Y33.526 E26.33095
G1 X17.635 Y33.281 E26.34302
G1 X19.385 Y31.256 E26.44496
G1 X19.542 Y31.082 E26.45389
G1 X21.392 Y29.107 E26.55697
G1 X21.58 Y28.914 E26.56723
G1 X23.506 Y27.039 E26.66962
G1 X23.675 Y26.881 E26.67843
G1 X25.841 Y24.934 E26.78937
M204 S625
M205 X30 Y30
G0 F6666.7 X26.434 Y25.611
M204 S500
M205 X25 Y25
G1 F1200 X28.351 Y23.932 E26.88644
G1 X28.498 Y23.808 E26.89377
