;START_OF_HEADER
;HEADER_VERSION:0.1
;FLAVOR:Griffin
;GENERATOR.NAME:Cura_SteamEngine
;GENERATOR.VERSION:4.10.0
;GENERATOR.BUILD_DATE:2021-06-29
;TARGET_MACHINE.NAME:Ultimaker 3 Extended
;EXTRUDER_TRAIN.0.INITIAL_TEMPERATURE:210
;EXTRUDER_TRAIN.0.MATERIAL.VOLUME_USED:19416
;EXTRUDER_TRAIN.0.MATERIAL.GUID:506c9f0d-e3aa-4bd4-b2d2-23e2425b1aa9
;EXTRUDER_TRAIN.0.NOZZLE.DIAMETER:0.4
;EXTRUDER_TRAIN.0.NOZZLE.NAME:AA 0.4
;BUILD_PLATE.TYPE:glass
;BUILD_PLATE.INITIAL_TEMPERATURE:60
;PRINT.TIME:6540
;PRINT.GROUPS:1
;PRINT.SIZE.MIN.X:9
;PRINT.SIZE.MIN.Y:6
;PRINT.SIZE.MIN.Z:0.27
;PRINT.SIZE.MAX.X:153.43
;PRINT.SIZE.MAX.Y:144.43
;PRINT.SIZE.MAX.Z:52.27
;END_OF_HEADER
;Generated with Cura_SteamEngine 4.10.0
T0
M82 ;absolute extrusion mode

G92 E0
M109 S210
G0 F15000 X9 Y6 Z2
G280
G1 F1500 E-6.5
;LAYER_COUNT:262
;LAYER:0
M107
M204 S625
M205 X6 Y6
G1 F600 Z2.27
G0 F4285.7 X81.44 Y72.765 Z2.27
M204 S500
M205 X5 Y5
;TYPE:SKIRT
G1 F600 Z0.27
G1 F1500 E0
G1 F1200 X81.977 Y72.25 E0.01323
G1 X82.566 Y71.795 E0.02646
G1 X83.2 Y71.406 E0.03968
G1 X83.873 Y71.087 E0.05292
G1 X84.576 Y70.842 E0.06615
G1 X85.301 Y70.674 E0.07938
G1 X86.04 Y70.585 E0.09261
G1 X86.5 Y70.57 E0.10079
G1 X146.5 Y70.57 E1.16735
G1 X147.243 Y70.61 E1.18058
G1 X147.978 Y70.729 E1.19381
G1 X148.696 Y70.927 E1.20705
G1 X149.388 Y71.2 E1.22028
G1 X150.047 Y71.546 E1.23351
G1 X150.665 Y71.961 E1.24674
G1 X151.235 Y72.44 E1.25998
G1 X151.75 Y72.977 E1.2732
G1 X152.205 Y73.566 E1.28643
G1 X152.594 Y74.2 E1.29965
G1 X152.913 Y74.873 E1.31289
G1 X153.158 Y75.576 E1.32613
G1 X153.326 Y76.301 E1.33936
G1 X153.415 Y77.04 E1.35259
G1 X153.43 Y77.5 E1.36077
G1 X153.43 Y137.5 E2.42733
G1 X153.39 Y138.243 E2.44055
G1 X153.271 Y138.978 E2.45379
G1 X153.073 Y139.696 E2.46703
G1 X152.8 Y140.388 E2.48025
G1 X152.454 Y141.047 E2.49348
G1 X152.039 Y141.665 E2.50672
G1 X151.56 Y142.235 E2.51995
G1 X151.023 Y142.75 E2.53318
G1 X150.434 Y143.205 E2.54641
G1 X149.8 Y143.594 E2.55963
G1 X149.127 Y143.913 E2.57287
G1 X148.424 Y144.158 E2.5861
G1 X147.699 Y144.326 E2.59933
G1 X146.96 Y144.415 E2.61256
G1 X146.5 Y144.43 E2.62074
G1 X86.5 Y144.43 E3.6873
G1 X85.757 Y144.39 E3.70053
G1 X85.022 Y144.271 E3.71376
G1 X84.304 Y144.073 E3.727
G1 X83.612 Y143.8 E3.74023
G1 X82.953 Y143.454 E3.75346
G1 X82.335 Y143.039 E3.76669
G1 X81.765 Y142.56 E3.77993
G1 X81.25 Y142.023 E3.79315
G1 X80.795 Y141.434 E3.80638
G1 X80.406 Y140.8 E3.8196
G1 X80.087 Y140.127 E3.83284
G1 X79.842 Y139.424 E3.84608
G1 X79.674 Y138.699 E3.85931
G1 X79.585 Y137.96 E3.87254
G1 X79.57 Y137.5 E3.88072
G1 X79.57 Y77.5 E4.94728
G1 X79.61 Y76.757 E4.9605
G1 X79.729 Y76.022 E4.97374
G1 X79.927 Y75.304 E4.98698
G1 X80.2 Y74.612 E5.0002
G1 X80.546 Y73.953 E5.01343
G1 X80.961 Y73.335 E5.02667
G1 X81.44 Y72.765 E5.0399
M204 S625
M205 X6 Y6
G0 F4285.7 X81.854 Y72.94
M204 S500
M205 X5 Y5
G1 F1200 X82.387 Y72.454 E5.05272
G1 X82.971 Y72.03 E5.06555
G1 X83.598 Y71.673 E5.07838
G1 X84.26 Y71.387 E5.0912
G1 X84.95 Y71.177 E5.10402
G1 X85.659 Y71.045 E5.11684
G1 X86.5 Y70.99 E5.13182
G1 X146.5 Y70.99 E6.19838
G1 X147.22 Y71.03 E6.2112
G1 X147.932 Y71.149 E6.22403
G1 X148.626 Y71.347 E6.23686
G1 X149.293 Y71.62 E6.24967
G1 X149.927 Y71.965 E6.2625
G1 X150.518 Y72.378 E6.27531
G1 X151.06 Y72.854 E6.28814
G1 X151.546 Y73.387 E6.30096
G1 X151.97 Y73.971 E6.31379
G1 X152.327 Y74.598 E6.32661
G1 X152.613 Y75.26 E6.33943
G1 X152.823 Y75.95 E6.35225
G1 X152.955 Y76.659 E6.36507
G1 X153.01 Y77.5 E6.38005
G1 X153.01 Y137.5 E7.44661
G1 X152.97 Y138.22 E7.45943
G1 X152.851 Y138.932 E7.47226
G1 X152.653 Y139.626 E7.48509
G1 X152.38 Y140.293 E7.4979
G1 X152.035 Y140.927 E7.51073
G1 X151.622 Y141.518 E7.52355
G1 X151.146 Y142.06 E7.53637
G1 X150.613 Y142.546 E7.5492
G1 X150.029 Y142.97 E7.56202
G1 X149.402 Y143.327 E7.57485
G1 X148.74 Y143.613 E7.58767
G1 X148.05 Y143.823 E7.60049
G1 X147.341 Y143.955 E7.61331
G1 X146.5 Y144.01 E7.62829
G1 X86.5 Y144.01 E8.69485
G1 X85.78 Y143.97 E8.70767
G1 X85.068 Y143.851 E8.7205
G1 X84.374 Y143.653 E8.73333
G1 X83.707 Y143.38 E8.74614
G1 X83.073 Y143.035 E8.75897
G1 X82.482 Y142.622 E8.77179
G1 X81.94 Y142.146 E8.78461
G1 X81.454 Y141.613 E8.79743
G1 X81.03 Y141.029 E8.81026
G1 X80.673 Y140.402 E8.82309
G1 X80.387 Y139.74 E8.8359
G1 X80.177 Y139.05 E8.84873
G1 X80.045 Y138.341 E8.86155
G1 X79.99 Y137.5 E8.87653
G1 X79.99 Y77.5 E9.94309
G1 X80.03 Y76.78 E9.9559
G1 X80.149 Y76.068 E9.96874
G1 X80.347 Y75.374 E9.98156
G1 X80.62 Y74.707 E9.99438
G1 X80.965 Y74.073 E10.00721
G1 X81.378 Y73.482 E10.02002
G1 X81.854 Y72.94 E10.03285
M204 S625
M205 X6 Y6
G0 F4285.7 X82.268 Y73.121
M204 S500
M205 X5 Y5
G1 F1200 X82.796 Y72.666 E10.04524
G1 X83.373 Y72.274 E10.05764
G1 X83.992 Y71.951 E10.07005
G1 X84.643 Y71.7 E10.08245
G1 X85.319 Y71.526 E10.09486
G1 X86.01 Y71.43 E10.10726
G1 X86.5 Y71.41 E10.11598
G1 X146.5 Y71.41 E11.18253
G1 X147.197 Y71.45 E11.19494
G1 X147.884 Y71.569 E11.20734
G1 X148.553 Y71.767 E11.21974
G1 X149.196 Y72.039 E11.23215
G1 X149.802 Y72.383 E11.24454
G1 X150.366 Y72.795 E11.25695
G1 X150.879 Y73.268 E11.26936
G1 X151.334 Y73.796 E11.28175
G1 X151.726 Y74.373 E11.29415
G1 X152.049 Y74.992 E11.30656
G1 X152.3 Y75.643 E11.31896
G1 X152.474 Y76.319 E11.33137
G1 X152.57 Y77.01 E11.34377
G1 X152.59 Y77.5 E11.35249
G1 X152.59 Y137.5 E12.41905
G1 X152.55 Y138.197 E12.43146
G1 X152.431 Y138.884 E12.44385
G1 X152.233 Y139.553 E12.45625
G1 X151.961 Y140.196 E12.46866
G1 X151.617 Y140.802 E12.48105
G1 X151.205 Y141.366 E12.49347
G1 X150.732 Y141.879 E12.50587
G1 X150.204 Y142.334 E12.51826
G1 X149.627 Y142.726 E12.53066
G1 X149.008 Y143.049 E12.54307
G1 X148.357 Y143.3 E12.55547
G1 X147.681 Y143.474 E12.56788
G1 X146.99 Y143.57 E12.58028
G1 X146.5 Y143.59 E12.589
G1 X86.5 Y143.59 E13.65556
G1 X85.803 Y143.55 E13.66797
G1 X85.116 Y143.431 E13.68036
G1 X84.447 Y143.233 E13.69276
G1 X83.804 Y142.961 E13.70518
G1 X83.198 Y142.617 E13.71756
G1 X82.634 Y142.205 E13.72998
G1 X82.121 Y141.732 E13.74238
G1 X81.666 Y141.204 E13.75477
G1 X81.274 Y140.627 E13.76717
G1 X80.951 Y140.008 E13.77958
G1 X80.7 Y139.357 E13.79199
G1 X80.526 Y138.681 E13.80439
G1 X80.43 Y137.99 E13.81679
G1 X80.41 Y137.5 E13.82551
G1 X80.41 Y77.5 E14.89207
G1 X80.45 Y76.803 E14.90448
G1 X80.569 Y76.116 E14.91687
G1 X80.767 Y75.447 E14.92928
G1 X81.039 Y74.804 E14.94169
G1 X81.383 Y74.198 E14.95407
G1 X81.795 Y73.634 E14.96649
G1 X82.268 Y73.121 E14.97889
M204 S625
M205 X6 Y6
G0 F4285.7 X82.21 Y73.792
M204 S500
M205 X5 Y5
G1 F1200 X82.68 Y73.31 E14.99086
G1 X83.204 Y72.887 E15.00283
G1 X83.774 Y72.528 E15.01481
G1 X84.382 Y72.24 E15.02677
G1 X85.02 Y72.026 E15.03873
G1 X85.68 Y71.89 E15.05071
G1 X86.5 Y71.83 E15.06532
G1 X146.5 Y71.83 E16.13188
G1 X147.172 Y71.87 E16.14385
G1 X147.835 Y71.989 E16.15582
G1 X148.478 Y72.186 E16.16777
G1 X149.094 Y72.458 E16.17974
G1 X149.673 Y72.801 E16.19171
G1 X150.208 Y73.21 E16.20368
G1 X150.69 Y73.68 E16.21565
G1 X151.113 Y74.204 E16.22762
G1 X151.472 Y74.774 E16.23959
G1 X151.76 Y75.382 E16.25155
G1 X151.974 Y76.02 E16.26351
G1 X152.11 Y76.68 E16.27549
G1 X152.17 Y77.5 E16.29011
G1 X152.17 Y137.5 E17.35666
G1 X152.13 Y138.172 E17.36863
G1 X152.011 Y138.835 E17.3806
G1 X151.814 Y139.478 E17.39256
G1 X151.542 Y140.094 E17.40453
G1 X151.199 Y140.673 E17.41649
G1 X150.79 Y141.208 E17.42846
G1 X150.32 Y141.69 E17.44043
G1 X149.796 Y142.113 E17.4524
G1 X149.226 Y142.472 E17.46437
G1 X148.618 Y142.76 E17.47633
G1 X147.98 Y142.974 E17.4883
G1 X147.32 Y143.11 E17.50027
G1 X146.5 Y143.17 E17.51489
G1 X86.5 Y143.17 E18.58145
G1 X85.828 Y143.13 E18.59341
G1 X85.165 Y143.011 E18.60539
G1 X84.522 Y142.814 E18.61734
G1 X83.906 Y142.542 E18.62931
G1 X83.327 Y142.199 E18.64128
G1 X82.792 Y141.79 E18.65325
G1 X82.31 Y141.32 E18.66521
G1 X81.887 Y140.796 E18.67718
G1 X81.528 Y140.226 E18.68916
G1 X81.24 Y139.618 E18.70112
G1 X81.026 Y138.98 E18.71308
G1 X80.89 Y138.32 E18.72506
G1 X80.83 Y137.5 E18.73967
G1 X80.83 Y77.5 E19.80623
G1 X80.87 Y76.828 E19.8182
G1 X80.989 Y76.165 E19.83017
G1 X81.186 Y75.522 E19.84213
G1 X81.458 Y74.906 E19.8541
G1 X81.801 Y74.327 E19.86606
G1 X82.21 Y73.792 E19.87803
M204 S625
M205 X6 Y6
G0 F4285.7 X82.626 Y73.957
M204 S500
M205 X5 Y5
G1 F1200 X83.092 Y73.507 E19.88955
G1 X83.609 Y73.118 E19.90105
G1 X84.171 Y72.795 E19.91257
G1 X84.768 Y72.544 E19.92408
G1 X85.392 Y72.368 E19.93561
G1 X86.032 Y72.271 E19.94711
G1 X86.5 Y72.25 E19.95544
G1 X146.5 Y72.25 E21.022
G1 X147.147 Y72.29 E21.03352
G1 X147.783 Y72.409 E21.04502
G1 X148.4 Y72.606 E21.05654
G1 X148.989 Y72.877 E21.06806
G1 X149.539 Y73.219 E21.07958
G1 X150.043 Y73.626 E21.09109
G1 X150.493 Y74.092 E21.10261
G1 X150.882 Y74.609 E21.11411
G1 X151.205 Y75.171 E21.12563
G1 X151.456 Y75.768 E21.13714
G1 X151.632 Y76.392 E21.14867
G1 X151.729 Y77.032 E21.16017
G1 X151.75 Y77.5 E21.1685
G1 X151.75 Y137.5 E22.23506
G1 X151.71 Y138.147 E22.24658
G1 X151.591 Y138.783 E22.25808
G1 X151.394 Y139.4 E22.2696
G1 X151.123 Y139.989 E22.28112
G1 X150.781 Y140.539 E22.29264
G1 X150.374 Y141.043 E22.30415
G1 X149.908 Y141.493 E22.31567
G1 X149.391 Y141.882 E22.32717
G1 X148.829 Y142.205 E22.33869
G1 X148.232 Y142.456 E22.3502
G1 X147.608 Y142.632 E22.36173
G1 X146.968 Y142.729 E22.37323
G1 X146.5 Y142.75 E22.38156
G1 X86.5 Y142.75 E23.44812
G1 X85.853 Y142.71 E23.45964
G1 X85.217 Y142.591 E23.47114
G1 X84.6 Y142.394 E23.48266
G1 X84.011 Y142.123 E23.49418
G1 X83.461 Y141.781 E23.5057
G1 X82.957 Y141.374 E23.51721
G1 X82.507 Y140.908 E23.52873
G1 X82.118 Y140.391 E23.54023
G1 X81.795 Y139.829 E23.55175
G1 X81.544 Y139.232 E23.56326
G1 X81.368 Y138.608 E23.57479
G1 X81.271 Y137.968 E23.58629
G1 X81.25 Y137.5 E23.59462
G1 X81.25 Y77.5 E24.66118
G1 X81.29 Y76.853 E24.6727
G1 X81.409 Y76.217 E24.6842
G1 X81.606 Y75.6 E24.69572
G1 X81.877 Y75.011 E24.70724
G1 X82.219 Y74.461 E24.71876
G1 X82.626 Y73.957 E24.73027
M204 S625
M205 X6 Y6
G0 F4285.7 X83.04 Y74.13
M204 S500
M205 X5 Y5
G1 F1200 X83.502 Y73.713 E24.74133
G1 X84.012 Y73.36 E24.75236
G1 X84.564 Y73.075 E24.7634
G1 X85.149 Y72.863 E24.77446
G1 X85.755 Y72.728 E24.7855
G1 X86.5 Y72.67 E24.79878
G1 X146.5 Y72.67 E25.86534
G1 X147.12 Y72.71 E25.87639
G1 X147.73 Y72.829 E25.88743
G1 X148.319 Y73.026 E25.89847
G1 X148.878 Y73.296 E25.90951
G1 X149.398 Y73.636 E25.92055
G1 X149.87 Y74.04 E25.9316
G1 X150.287 Y74.502 E25.94266
G1 X150.64 Y75.012 E25.95369
G1 X150.925 Y75.564 E25.96473
G1 X151.137 Y76.149 E25.97579
G1 X151.272 Y76.755 E25.98683
G1 X151.33 Y77.5 E26.00011
G1 X151.33 Y137.5 E27.06667
G1 X151.29 Y138.12 E27.07771
G1 X151.171 Y138.73 E27.08876
G1 X150.974 Y139.319 E27.0998
G1 X150.704 Y139.878 E27.11083
G1 X150.364 Y140.398 E27.12188
G1 X149.96 Y140.87 E27.13292
G1 X149.498 Y141.287 E27.14399
G1 X148.988 Y141.64 E27.15501
G1 X148.436 Y141.925 E27.16605
G1 X147.851 Y142.137 E27.17711
G1 X147.245 Y142.272 E27.18815
G1 X146.5 Y142.33 E27.20143
G1 X86.5 Y142.33 E28.26799
G1 X85.88 Y142.29 E28.27904
G1 X85.27 Y142.171 E28.29008
G1 X84.681 Y141.974 E28.30112
G1 X84.122 Y141.704 E28.31216
G1 X83.602 Y141.364 E28.3232
G1 X83.13 Y140.96 E28.33425
G1 X82.713 Y140.498 E28.34531
G1 X82.36 Y139.988 E28.35634
G1 X82.075 Y139.436 E28.36738
G1 X81.863 Y138.851 E28.37844
G1 X81.728 Y138.245 E28.38948
G1 X81.67 Y137.5 E28.40276
G1 X81.67 Y77.5 E29.46932
G1 X81.71 Y76.88 E29.48036
G1 X81.829 Y76.27 E29.49141
G1 X82.026 Y75.681 E29.50245
G1 X82.296 Y75.122 E29.51349
G1 X82.636 Y74.602 E29.52453
G1 X83.04 Y74.13 E29.53557
M204 S625
M205 X6 Y6
G0 F4285.7 X83.454 Y74.311
M204 S500
M205 X5 Y5
G1 F1200 X83.91 Y73.931 E29.54612
G1 X84.413 Y73.615 E29.55668
G1 X84.953 Y73.37 E29.56722
G1 X85.522 Y73.2 E29.57778
G1 X86.108 Y73.107 E29.58833
G1 X86.5 Y73.09 E29.5953
G1 X146.5 Y73.09 E30.66186
G1 X147.092 Y73.13 E30.67241
G1 X147.674 Y73.249 E30.68297
G1 X148.234 Y73.445 E30.69352
G1 X148.763 Y73.715 E30.70407
G1 X149.251 Y74.053 E30.71462
G1 X149.689 Y74.454 E30.72518
G1 X150.069 Y74.91 E30.73573
G1 X150.385 Y75.413 E30.74629
G1 X150.63 Y75.953 E30.75683
G1 X150.8 Y76.522 E30.76739
G1 X150.893 Y77.108 E30.77794
G1 X150.91 Y77.5 E30.78491
G1 X150.91 Y137.5 E31.85147
G1 X150.87 Y138.092 E31.86202
G1 X150.751 Y138.674 E31.87258
G1 X150.555 Y139.234 E31.88312
G1 X150.285 Y139.763 E31.89368
G1 X149.947 Y140.251 E31.90423
G1 X149.546 Y140.689 E31.91479
G1 X149.09 Y141.069 E31.92534
G1 X148.587 Y141.385 E31.9359
G1 X148.047 Y141.63 E31.94644
G1 X147.478 Y141.8 E31.957
G1 X146.892 Y141.893 E31.96754
G1 X146.5 Y141.91 E31.97452
G1 X86.5 Y141.91 E33.04108
G1 X85.908 Y141.87 E33.05162
G1 X85.326 Y141.751 E33.06218
G1 X84.766 Y141.555 E33.07273
G1 X84.237 Y141.285 E33.08329
G1 X83.749 Y140.947 E33.09384
G1 X83.311 Y140.546 E33.1044
G1 X82.931 Y140.09 E33.11495
G1 X82.615 Y139.587 E33.12551
G1 X82.37 Y139.047 E33.13605
G1 X82.2 Y138.478 E33.1466
G1 X82.107 Y137.892 E33.15715
G1 X82.09 Y137.5 E33.16413
G1 X82.09 Y77.5 E34.23068
G1 X82.13 Y76.908 E34.24123
G1 X82.249 Y76.326 E34.25179
G1 X82.445 Y75.766 E34.26234
G1 X82.715 Y75.237 E34.2729
G1 X83.053 Y74.749 E34.28345
G1 X83.454 Y74.311 E34.294
M204 S625
M205 X6 Y6
G0 F4285.7 X83.469 Y74.905
M204 S500
M205 X5 Y5
G1 F1200 X83.866 Y74.503 E34.30405
G1 X84.315 Y74.161 E34.31408
G1 X84.809 Y73.886 E34.32413
G1 X85.336 Y73.684 E34.33416
G1 X85.886 Y73.558 E34.34419
G1 X86.5 Y73.51 E34.35514
G1 X146.5 Y73.51 E35.4217
G1 X147.063 Y73.55 E35.43173
G1 X147.615 Y73.669 E35.44177
G1 X148.145 Y73.865 E35.45182
G1 X148.641 Y74.133 E35.46184
G1 X149.095 Y74.469 E35.47188
G1 X149.497 Y74.866 E35.48192
G1 X149.839 Y75.315 E35.49195
G1 X150.114 Y75.809 E35.502
G1 X150.316 Y76.336 E35.51204
G1 X150.442 Y76.886 E35.52207
G1 X150.49 Y77.5 E35.53301
G1 X150.49 Y137.5 E36.59957
G1 X150.45 Y138.063 E36.60961
G1 X150.331 Y138.615 E36.61964
G1 X150.135 Y139.145 E36.62969
G1 X149.867 Y139.641 E36.63971
G1 X149.531 Y140.095 E36.64975
G1 X149.134 Y140.497 E36.65979
G1 X148.685 Y140.839 E36.66983
G1 X148.191 Y141.114 E36.67988
G1 X147.664 Y141.316 E36.68991
G1 X147.114 Y141.442 E36.69994
G1 X146.5 Y141.49 E36.71089
G1 X86.5 Y141.49 E37.77745
G1 X85.937 Y141.45 E37.78748
G1 X85.385 Y141.331 E37.79752
G1 X84.855 Y141.135 E37.80756
G1 X84.359 Y140.867 E37.81758
G1 X83.905 Y140.531 E37.82762
G1 X83.503 Y140.134 E37.83767
G1 X83.161 Y139.685 E37.8477
G1 X82.886 Y139.191 E37.85775
G1 X82.684 Y138.664 E37.86778
G1 X82.558 Y138.114 E37.87781
G1 X82.51 Y137.5 E37.88876
G1 X82.51 Y77.5 E38.95532
G1 X82.55 Y76.937 E38.96535
G1 X82.669 Y76.385 E38.97539
G1 X82.865 Y75.855 E38.98543
G1 X83.133 Y75.359 E38.99546
G1 X83.469 Y74.905 E39.0055
M204 S625
M205 X6 Y6
G0 F4285.7 X83.885 Y75.07
M204 S500
M205 X5 Y5
G1 F1200 X84.276 Y74.707 E39.01498
G1 X84.718 Y74.407 E39.02448
G1 X85.199 Y74.175 E39.03397
G1 X85.71 Y74.019 E39.04347
G1 X86.5 Y73.93 E39.0576
G1 X146.5 Y73.93 E40.12416
G1 X147.033 Y73.97 E40.13366
G1 X147.553 Y74.089 E40.14314
G1 X148.05 Y74.284 E40.15263
G1 X148.513 Y74.551 E40.16213
G1 X148.93 Y74.885 E40.17163
G1 X149.293 Y75.276 E40.18111
G1 X149.593 Y75.718 E40.19061
G1 X149.825 Y76.199 E40.2001
G1 X149.981 Y76.71 E40.2096
G1 X150.07 Y77.5 E40.22373
G1 X150.07 Y137.5 E41.29029
G1 X150.03 Y138.033 E41.29979
G1 X149.911 Y138.553 E41.30927
G1 X149.716 Y139.05 E41.31876
G1 X149.449 Y139.513 E41.32826
G1 X149.115 Y139.93 E41.33776
G1 X148.724 Y140.293 E41.34724
G1 X148.282 Y140.593 E41.35674
G1 X147.801 Y140.825 E41.36623
G1 X147.29 Y140.981 E41.37573
G1 X146.5 Y141.07 E41.38986
G1 X86.5 Y141.07 E42.45642
G1 X85.967 Y141.03 E42.46592
G1 X85.447 Y140.911 E42.4754
G1 X84.95 Y140.716 E42.4849
G1 X84.487 Y140.449 E42.4944
G1 X84.07 Y140.115 E42.50389
