;START_OF_HEADER
;HEADER_VERSION:0.1
;FLAVOR:Griffin
;GENERATOR.NAME:Cura_SteamEngine
;GENERATOR.VERSION:4.10.0
;GENERATOR.BUILD_DATE:2021-06-29
;TARGET_MACHINE.NAME:Ultimaker 3 Extended
;EXTRUDER_TRAIN.0.INITIAL_TEMPERATURE:205
;EXTRUDER_TRAIN.0.MATERIAL.VOLUME_USED:5407
;EXTRUDER_TRAIN.0.MATERIAL.GUID:506c9f0d-e3aa-4bd4-b2d2-23e2425b1aa9
;EXTRUDER_TRAIN.0.NOZZLE.DIAMETER:0.8
;EXTRUDER_TRAIN.0.NOZZLE.NAME:AA 0.8
;BUILD_PLATE.TYPE:glass
;BUILD_PLATE.INITIAL_TEMPERATURE:0
;PRINT.TIME:455
;PRINT.GROUPS:1
;PRINT.SIZE.MIN.X:26.703
;PRINT.SIZE.MIN.Y:27.717
;PRINT.SIZE.MIN.Z:0.53
;PRINT.SIZE.MAX.X:55.951
;PRINT.SIZE.MAX.Y:56.965
;PRINT.SIZE.MAX.Z:30.13
;END_OF_HEADER
;Generated with Cura_SteamEngine 4.10.0
T0
M82 ;absolute extrusion mode

G92 E0
M109 S205
G280 S1
G0 Z20.001
G1 F1500 E-5
;LAYER_COUNT:75
;LAYER:0
M107
M204 S625
M205 X30 Y30
;MESH:vase.stl
G0 F3000 X42.656 Y55.728 Z0.53
M204 S500
M205 X25 Y25
;TYPE:WALL-OUTER
G1 F900 E0
G1 F1200 X43.952 Y55.536 E0.09796
G1 X45.232 Y55.215 E0.19663
G1 X46.486 Y54.765 E0.29625
G1 X47.668 Y54.205 E0.39405
G1 X48.801 Y53.527 E0.49278
G1 X49.862 Y52.74 E0.59155
G1 X50.847 Y51.845 E0.69106
G1 X51.726 Y50.876 E0.78889
G1 X52.519 Y49.806 E0.88847
G1 X53.191 Y48.682 E0.98639
G1 X53.756 Y47.489 E1.08509
G1 X54.203 Y46.235 E1.18463
G1 X54.522 Y44.966 E1.28247
G1 X54.715 Y43.648 E1.38207
G1 X54.781 Y42.341 E1.47992
G1 X54.714 Y41.012 E1.57942
G1 X54.52 Y39.705 E1.67822
G1 X54.201 Y38.436 E1.77606
G1 X53.756 Y37.192 E1.87484
G1 X53.191 Y35.999 E1.97355
G1 X52.506 Y34.857 E2.07312
G1 X51.719 Y33.798 E2.17177
G1 X50.84 Y32.828 E2.26965
G1 X49.862 Y31.942 E2.36832
G1 X48.801 Y31.155 E2.4671
G1 X47.658 Y30.472 E2.56666
G1 X46.465 Y29.908 E2.66533
G1 X45.232 Y29.467 E2.76324
G1 X43.952 Y29.146 E2.86191
G1 X42.634 Y28.953 E2.96151
G1 X41.327 Y28.887 E3.05937
G1 X39.998 Y28.954 E3.15886
G1 X38.702 Y29.146 E3.25683
G1 X37.422 Y29.467 E3.3555
G1 X36.178 Y29.912 E3.45429
G1 X34.986 Y30.477 E3.55292
G1 X33.853 Y31.155 E3.65165
G1 X32.792 Y31.942 E3.75042
G1 X31.807 Y32.837 E3.84993
G1 X30.928 Y33.806 E3.94776
G1 X30.135 Y34.876 E4.04734
G1 X29.463 Y36 E4.14526
G1 X28.894 Y37.203 E4.24476
G1 X28.453 Y38.436 E4.34268
G1 X28.132 Y39.716 E4.44135
G1 X27.939 Y41.034 E4.54095
G1 X27.873 Y42.352 E4.63962
G1 X27.939 Y43.659 E4.73747
G1 X28.132 Y44.966 E4.83626
G1 X28.453 Y46.246 E4.93493
G1 X28.898 Y47.49 E5.03372
G1 X29.463 Y48.682 E5.13235
G1 X30.141 Y49.815 E5.23108
G1 X30.935 Y50.884 E5.33065
G1 X31.814 Y51.854 E5.42853
G1 X32.792 Y52.74 E5.5272
G1 X33.862 Y53.533 E5.62678
G1 X34.986 Y54.205 E5.7247
G1 X36.179 Y54.77 E5.8234
G1 X37.433 Y55.217 E5.92295
G1 X38.702 Y55.536 E6.02078
G1 X40.02 Y55.729 E6.12038
G1 X41.327 Y55.795 E6.21823
G1 X42.656 Y55.728 E6.31773
M204 S625
M205 X30 Y30
G0 F3000 X43.051 Y55.67
G0 X42.75 Y56.821
M204 S500
M205 X25 Y25
G1 F1200 X41.314 Y56.891 E6.42523
G1 X39.905 Y56.821 E6.53072
G1 X38.484 Y56.611 E6.63812
G1 X37.114 Y56.267 E6.74374
G1 X35.744 Y55.776 E6.85256
G1 X34.467 Y55.172 E6.95818
G1 X33.241 Y54.437 E7.06506
G1 X32.093 Y53.584 E7.172
G1 X31.039 Y52.629 E7.27835
G1 X30.074 Y51.564 E7.38581
G1 X29.231 Y50.427 E7.49165
G1 X28.491 Y49.189 E7.59949
G1 X27.887 Y47.912 E7.70512
G1 X27.404 Y46.564 E7.81218
G1 X27.054 Y45.161 E7.9203
G1 X26.847 Y43.764 E8.0259
G1 X26.777 Y42.341 E8.13243
G1 X26.847 Y40.918 E8.23896
G1 X27.057 Y39.498 E8.34629
G1 X27.401 Y38.128 E8.45191
G1 X27.887 Y36.77 E8.55975
G1 X28.502 Y35.47 E8.66729
G1 X29.231 Y34.255 E8.77323
G1 X30.08 Y33.11 E8.87981
G1 X31.042 Y32.05 E8.98685
G1 X32.096 Y31.096 E9.09314
G1 X33.259 Y30.235 E9.20134
G1 X34.467 Y29.51 E9.30668
G1 X35.767 Y28.897 E9.41415
G1 X37.104 Y28.418 E9.52034
G1 X38.507 Y28.068 E9.62847
G1 X39.904 Y27.861 E9.73406
G1 X41.339 Y27.791 E9.84149
G1 X42.763 Y27.863 E9.9481
G1 X44.17 Y28.071 E10.05445
G1 X45.54 Y28.415 E10.16006
G1 X46.906 Y28.904 E10.26855
G1 X48.202 Y29.518 E10.37578
G1 X49.413 Y30.245 E10.48139
G1 X50.552 Y31.09 E10.58743
G1 X51.615 Y32.053 E10.69468
G1 X52.578 Y33.116 E10.80193
G1 X53.423 Y34.255 E10.90797
G1 X54.158 Y35.481 E11.01486
G1 X54.768 Y36.773 E11.12169
G1 X55.255 Y38.136 E11.22991
G1 X55.597 Y39.498 E11.33491
G1 X55.807 Y40.918 E11.44224
G1 X55.877 Y42.341 E11.54877
G1 X55.807 Y43.763 E11.65523
G1 X55.595 Y45.188 E11.76295
G1 X55.253 Y46.554 E11.86824
G1 X54.767 Y47.912 E11.97609
G1 X54.154 Y49.208 E12.08329
G1 X53.423 Y50.427 E12.18957
G1 X52.57 Y51.575 E12.29651
G1 X51.615 Y52.629 E12.40285
G1 X50.558 Y53.586 E12.50947
G1 X49.395 Y54.447 E12.61767
G1 X48.187 Y55.172 E12.72301
G1 X46.895 Y55.782 E12.82984
G1 X45.532 Y56.269 E12.93807
G1 X44.17 Y56.611 E13.04307
G1 X42.75 Y56.821 E13.1504
M204 S625
M205 X30 Y30
G0 F3000 X42.351 Y56.84
G0 X41.99 Y56.309
M204 S500
M205 X25 Y25
;TYPE:SKIN
G1 F1200 X41.484 Y56.334 E13.16164
G1 X39.189 Y56.16 E13.21271
G1 X37.122 Y55.683 E13.25979
G1 X35.369 Y54.991 E13.30161
G1 X34.25 Y54.402 E13.32967
M204 S625
M205 X30 Y30
G0 F3000 X33.142 Y53.825
M204 S500
M205 X25 Y25
G1 F1200 X29.839 Y50.522 E13.4752
M204 S625
M205 X30 Y30
G0 F3000 X29.265 Y49.417
M104 S200
M204 S500
M205 X25 Y25
G1 F1200 X28.675 Y48.297 E13.50115
G1 X27.982 Y46.544 E13.53978
G1 X27.506 Y44.476 E13.58327
G1 X27.332 Y42.181 E13.63044
G1 X27.57 Y39.768 E13.68013
G1 X28.28 Y37.295 E13.73286
G1 X29.325 Y35.159 E13.78159
G1 X30.647 Y33.299 E13.82836
G1 X32.521 Y31.46 E13.88217
G1 X34.753 Y29.98 E13.93706
G1 X37.394 Y28.909 E13.99546
G1 X40.068 Y28.401 E14.05124
G1 X42.738 Y28.419 E14.10597
G1 X44.671 Y28.761 E14.1462
G1 X46.205 Y29.234 E14.1791
G1 X48.189 Y30.158 E14.22395
M204 S625
M205 X30 Y30
G0 F3000 X49.155 Y30.594
M204 S500
M205 X25 Y25
G1 F1200 X50.509 Y31.947 E14.28358
M204 S625
M205 X30 Y30
G0 F3000 X51.722 Y33.16
M204 S500
M205 X25 Y25
G1 F1200 X53.072 Y34.511 E14.34309
M204 S625
M205 X30 Y30
G0 F3000 X53.509 Y35.477
M204 S500
M205 X25 Y25
G1 F1200 X54.06 Y36.559 E14.36792
G1 X54.711 Y38.271 E14.40538
G1 X55.163 Y40.313 E14.44816
G1 X55.315 Y42.588 E14.49479
G1 X55.069 Y44.993 E14.54423
G1 X54.348 Y47.453 E14.59666
G1 X53.291 Y49.578 E14.6452
G1 X51.96 Y51.43 E14.69185
G1 X50.077 Y53.259 E14.74554
G1 X47.836 Y54.73 E14.80036
G1 X45.59 Y55.666 E14.85013
G1 X43.436 Y56.164 E14.89535
G1 X42.494 Y56.283 E14.91477
M204 S625
M205 X30 Y30
G0 F3000 X42.38 Y56.094
;MESH:NONMESH
G0 F600 X42.38 Y56.094 Z0.93
G0 F3000 X42.638 Y55.655
;TIME_ELAPSED:16.756954
;LAYER:1
M106 S85
M204 S500
M205 X25 Y25
;TYPE:WALL-OUTER
;MESH:vase.stl
G1 F2847.3 X43.937 Y55.462 E14.97652
G1 X45.21 Y55.143 E15.03824
G1 X46.447 Y54.701 E15.10001
G1 X47.633 Y54.139 E15.16173
G1 X48.76 Y53.464 E15.22351
G1 X49.814 Y52.682 E15.28523
G1 X50.786 Y51.8 E15.34695
G1 X51.668 Y50.828 E15.40867
G1 X52.45 Y49.774 E15.47039
G1 X53.125 Y48.647 E15.53217
G1 X53.687 Y47.461 E15.59389
G1 X54.129 Y46.224 E15.65566
G1 X54.448 Y44.951 E15.71738
G1 X54.641 Y43.652 E15.77913
G1 X54.705 Y42.341 E15.84086
G1 X54.641 Y41.03 E15.90258
G1 X54.448 Y39.731 E15.96434
G1 X54.129 Y38.458 E16.02606
G1 X53.687 Y37.221 E16.08783
G1 X53.125 Y36.035 E16.14955
G1 X52.45 Y34.908 E16.21133
G1 X51.668 Y33.854 E16.27305
G1 X50.786 Y32.882 E16.33477
G1 X49.814 Y32 E16.39649
G1 X48.76 Y31.218 E16.45821
G1 X47.633 Y30.543 E16.51999
G1 X46.447 Y29.981 E16.58171
G1 X45.21 Y29.539 E16.64348
G1 X43.937 Y29.22 E16.70519
G1 X42.638 Y29.027 E16.76695
G1 X41.327 Y28.963 E16.82868
G1 X40.016 Y29.027 E16.8904
G1 X38.717 Y29.22 E16.95216
G1 X37.444 Y29.539 E17.01388
G1 X36.207 Y29.981 E17.07565
G1 X35.021 Y30.543 E17.13737
G1 X33.894 Y31.218 E17.19915
G1 X32.84 Y32 E17.26086
G1 X31.868 Y32.882 E17.32259
G1 X30.986 Y33.854 E17.38431
G1 X30.204 Y34.908 E17.44603
G1 X29.529 Y36.035 E17.50781
G1 X28.967 Y37.221 E17.56952
G1 X28.525 Y38.458 E17.6313
G1 X28.206 Y39.731 E17.69301
G1 X28.013 Y41.03 E17.75477
G1 X27.949 Y42.341 E17.8165
G1 X28.013 Y43.652 E17.87822
G1 X28.206 Y44.951 E17.93998
G1 X28.525 Y46.224 E18.00169
G1 X28.967 Y47.461 E18.06347
G1 X29.529 Y48.647 E18.12519
G1 X30.204 Y49.774 E18.18696
G1 X30.986 Y50.828 E18.24868
G1 X31.868 Y51.8 E18.31041
G1 X32.84 Y52.682 E18.37213
G1 X33.894 Y53.464 E18.43385
G1 X35.021 Y54.139 E18.49562
G1 X36.207 Y54.701 E18.55734
G1 X37.444 Y55.143 E18.61912
G1 X38.717 Y55.462 E18.68083
G1 X40.016 Y55.655 E18.74259
G1 X41.327 Y55.719 E18.80432
G1 X42.638 Y55.655 E18.86604
M204 S2812
M205 X30 Y30
G0 F9000 X43.033 Y55.597
G0 X42.764 Y56.895
M204 S500
M205 X25 Y25
G1 F2847.3 X41.327 Y56.965 E18.9337
G1 X39.89 Y56.895 E19.00135
G1 X38.476 Y56.685 E19.06858
G1 X37.078 Y56.335 E19.13635
G1 X35.731 Y55.852 E19.20364
G1 X34.438 Y55.241 E19.2709
G1 X33.195 Y54.496 E19.33905
G1 X32.054 Y53.65 E19.40584
G1 X30.986 Y52.682 E19.47363
G1 X30.018 Y51.614 E19.54141
G1 X29.172 Y50.473 E19.60821
G1 X28.427 Y49.23 E19.67636
G1 X27.816 Y47.937 E19.74361
G1 X27.333 Y46.59 E19.8109
G1 X26.983 Y45.192 E19.87868
G1 X26.773 Y43.778 E19.9459
G1 X26.703 Y42.341 E20.01356
G1 X26.773 Y40.904 E20.08121
G1 X26.983 Y39.49 E20.14844
G1 X27.333 Y38.092 E20.21621
G1 X27.816 Y36.745 E20.2835
G1 X28.427 Y35.452 E20.35076
G1 X29.172 Y34.209 E20.41891
G1 X30.018 Y33.068 E20.4857
G1 X30.986 Y32 E20.55349
G1 X32.054 Y31.032 E20.62127
G1 X33.195 Y30.186 E20.68807
G1 X34.438 Y29.441 E20.75622
G1 X35.731 Y28.83 E20.82347
G1 X37.078 Y28.347 E20.89076
G1 X38.476 Y27.997 E20.95853
G1 X39.89 Y27.787 E21.02576
G1 X41.327 Y27.717 E21.09342
G1 X42.764 Y27.787 E21.16107
G1 X44.178 Y27.997 E21.2283
G1 X45.576 Y28.347 E21.29607
G1 X46.923 Y28.83 E21.36336
G1 X48.216 Y29.441 E21.43062
G1 X49.459 Y30.186 E21.49876
G1 X50.6 Y31.032 E21.56556
G1 X51.668 Y32 E21.63335
G1 X52.636 Y33.068 E21.70113
G1 X53.482 Y34.209 E21.76793
G1 X54.227 Y35.452 E21.83608
G1 X54.838 Y36.745 E21.90333
G1 X55.321 Y38.092 E21.97062
G1 X55.671 Y39.49 E22.03839
G1 X55.881 Y40.904 E22.10562
G1 X55.951 Y42.341 E22.17328
G1 X55.881 Y43.778 E22.24093
G1 X55.671 Y45.192 E22.30816
G1 X55.321 Y46.59 E22.37593
G1 X54.838 Y47.937 E22.44322
G1 X54.227 Y49.23 E22.51048
G1 X53.482 Y50.473 E22.57862
G1 X52.636 Y51.614 E22.64542
G1 X51.668 Y52.682 E22.71321
G1 X50.6 Y53.65 E22.78099
G1 X49.459 Y54.496 E22.84779
G1 X48.216 Y55.241 E22.91594
G1 X46.923 Y55.852 E22.98319
G1 X45.576 Y56.335 E23.05048
G1 X44.178 Y56.685 E23.11825
G1 X42.764 Y56.895 E23.18548
M204 S2812
M205 X30 Y30
G0 F9000 X42.365 Y56.914
G0 X42.35 Y56.291
M204 S500
M205 X25 Y25
;TYPE:SKIN
G1 F5113.6 X42.937 Y56.233 E23.20916
G1 X44.901 Y55.86 E23.2894
G1 X46.506 Y55.315 E23.35744
G1 X47.46 Y54.892 E23.39932
G1 X48.737 Y54.145 E23.45871
M204 S2812
M205 X30 Y30
G0 F9000 X49.148 Y54.266
M204 S500
M205 X25 Y25
G1 F5113.6 X53.251 Y50.162 E23.59516
M204 S2812
M205 X30 Y30
G0 F9000 X53.131 Y49.752
M204 S500
M205 X25 Y25
G1 F5113.6 X53.878 Y48.474 E23.64796
G1 X54.615 Y46.677 E23.71725
G1 X55.132 Y44.568 E23.7947
G1 X55.313 Y42.266 E23.87707
G1 X55.092 Y39.836 E23.96411
G1 X54.394 Y37.352 E24.05615
G1 X53.355 Y35.209 E24.1411
G1 X52.042 Y33.34 E24.22258
G1 X50.176 Y31.493 E24.31623
G1 X47.947 Y30.009 E24.41175
G1 X45.717 Y29.058 E24.49823
G1 X43.585 Y28.539 E24.5765
G1 X41.119 Y28.353 E24.66471
G1 X38.755 Y28.596 E24.74948
G1 X36.572 Y29.188 E24.83017
G1 X34.575 Y30.123 E24.90882
M204 S2812
M205 X30 Y30
G0 F9000 X34.129 Y30.04
M204 S500
M205 X25 Y25
G1 F5113.6 X29.027 Y35.142 E25.07848
M204 S2812
M205 X30 Y30
G0 F9000 X29.11 Y35.589
M204 S500
M205 X25 Y25
G1 F5113.6 X28.555 Y36.674 E25.12157
G1 X27.926 Y38.364 E25.18533
G1 X27.475 Y40.405 E25.25924
G1 X27.341 Y42.661 E25.33915
G1 X27.6 Y45.054 E25.42426
G1 X28.324 Y47.512 E25.51487
G1 X29.589 Y49.959 E25.61227
G1 X31.233 Y52.027 E25.70569
G1 X33.228 Y53.744 E25.79876
G1 X35.23 Y54.925 E25.88095
G1 X37.531 Y55.806 E25.96807
G1 X39.746 Y56.243 E26.0479
G1 X41.792 Y56.318 E26.1203
M204 S2812
M205 X30 Y30
G0 F9000 X42.072 Y56.038
G0 X38.71 Y55.501
G0 X37.433 Y55.181
G0 X36.192 Y54.737
G0 X35.003 Y54.174
G0 X33.872 Y53.497
G0 X32.815 Y52.712
G0 X31.84 Y51.828
G0 X30.956 Y50.853
G0 X30.171 Y49.796
G0 X29.494 Y48.665
G0 X28.931 Y47.476
G0 X28.487 Y46.235
G0 X28.167 Y44.958
G0 X27.974 Y43.655
G0 X27.909 Y42.341
G0 X27.974 Y41.027
G0 X28.167 Y39.724
G0 X30.141 Y33.498
M204 S500
M205 X25 Y25
G1 F5113.6 X32.485 Y31.154 E26.19824
M204 S2812
M205 X30 Y30
G0 F9000 X32.642 Y31.368
;MESH:NONMESH
G0 F600 X32.642 Y31.368 Z1.33
G0 F9000 X30.171 Y34.886
G0 X29.494 Y36.017
G0 X28.931 Y37.206
G0 X28.487 Y38.447
G0 X28.167 Y39.724
G0 X27.974 Y41.027
G0 X27.909 Y42.341
G0 X27.974 Y43.655
G0 X28.167 Y44.958
G0 X28.487 Y46.235
G0 X28.931 Y47.476
G0 X29.494 Y48.665
G0 X30.171 Y49.796
G0 X30.956 Y50.853
G0 X31.84 Y51.828
G0 X32.815 Y52.712
G0 X33.872 Y53.497
G0 X35.003 Y54.174
G0 X36.192 Y54.737
G0 X37.433 Y55.181
G0 X38.71 Y55.501
G0 X40.013 Y55.694
G0 X42.647 Y55.754
G0 X42.638 Y55.655
;TIME_ELAPSED:22.757145
;LAYER:2
M106 S170
M204 S500
M205 X25 Y25
;TYPE:WALL-OUTER
;MESH:vase.stl
G1 F2777.8 X43.937 Y55.462 E26.26
G1 X45.21 Y55.143 E26.32171
G1 X46.447 Y54.701 E26.38349
G1 X47.633 Y54.139 E26.44521
G1 X48.76 Y53.464 E26.50698
G1 X49.814 Y52.682 E26.5687
G1 X50.786 Y51.8 E26.63042
G1 X51.668 Y50.828 E26.69215
G1 X52.45 Y49.774 E26.75387
G1 X53.125 Y48.647 E26.81564
G1 X53.687 Y47.461 E26.87736
G1 X54.129 Y46.224 E26.93913
G1 X54.448 Y44.951 E27.00085
G1 X54.641 Y43.652 E27.06261
G1 X54.705 Y42.341 E27.12433
G1 X54.641 Y41.03 E27.18606
G1 X54.448 Y39.731 E27.24782
G1 X54.129 Y38.458 E27.30953
G1 X53.687 Y37.221 E27.37131
G1 X53.125 Y36.035 E27.43302
G1 X52.45 Y34.908 E27.4948
G1 X51.668 Y33.854 E27.55652
G1 X50.786 Y32.882 E27.61824
G1 X49.814 Y32 E27.67997
G1 X48.76 Y31.218 E27.74168
G1 X47.633 Y30.543 E27.80346
G1 X46.447 Y29.981 E27.86518
G1 X45.21 Y29.539 E27.92695
G1 X43.937 Y29.22 E27.98867
G1 X42.638 Y29.027 E28.05043
G1 X41.327 Y28.963 E28.11215
G1 X40.016 Y29.027 E28.17388
G1 X38.717 Y29.22 E28.23563
G1 X37.444 Y29.539 E28.29735
G1 X36.207 Y29.981 E28.35912
G1 X35.021 Y30.543 E28.42084
G1 X33.894 Y31.218 E28.48262
G1 X32.84 Y32 E28.54434
G1 X31.868 Y32.882 E28.60606
G1 X30.986 Y33.854 E28.66778
G1 X30.204 Y34.908 E28.7295
G1 X29.529 Y36.035 E28.79128
G1 X28.967 Y37.221 E28.853
G1 X28.525 Y38.458 E28.91477
G1 X28.206 Y39.731 E28.97649
G1 X28.013 Y41.03 E29.03825
G1 X27.949 Y42.341 E29.09997
G1 X28.013 Y43.652 E29.1617
G1 X28.206 Y44.951 E29.22345
G1 X28.525 Y46.224 E29.28517
G1 X28.967 Y47.461 E29.34694
G1 X29.529 Y48.647 E29.40866
G1 X30.204 Y49.774 E29.47044
G1 X30.986 Y50.828 E29.53216
G1 X31.868 Y51.8 E29.59388
G1 X32.84 Y52.682 E29.6556
G1 X33.894 Y53.464 E29.71732
G1 X35.021 Y54.139 E29.7791
G1 X36.207 Y54.701 E29.84082
G1 X37.444 Y55.143 E29.90259
G1 X38.717 Y55.462 E29.96431
G1 X40.016 Y55.655 E30.02606
G1 X41.327 Y55.719 E30.08779
G1 X42.638 Y55.655 E30.14951
M204 S5000
M205 X30 Y30
G0 F15000 X43.033 Y55.597
G0 X42.764 Y56.895
M204 S500
M205 X25 Y25
G1 F2777.8 X41.327 Y56.965 E30.21717
G1 X39.89 Y56.895 E30.28483
G1 X38.476 Y56.685 E30.35205
G1 X37.078 Y56.335 E30.41982
G1 X35.731 Y55.852 E30.48712
G1 X34.438 Y55.241 E30.55437
G1 X33.195 Y54.496 E30.62252
G1 X32.054 Y53.65 E30.68932
G1 X30.986 Y52.682 E30.7571
G1 X30.018 Y51.614 E30.82489
G1 X29.172 Y50.473 E30.89168
G1 X28.427 Y49.23 E30.95983
G1 X27.816 Y47.937 E31.02708
G1 X27.333 Y46.59 E31.09438
G1 X26.983 Y45.192 E31.16215
G1 X26.773 Y43.778 E31.22937
G1 X26.703 Y42.341 E31.29703
G1 X26.773 Y40.904 E31.36469
G1 X26.983 Y39.49 E31.43191
G1 X27.333 Y38.092 E31.49968
G1 X27.816 Y36.745 E31.56698
G1 X28.427 Y35.452 E31.63423
G1 X29.172 Y34.209 E31.70238
G1 X30.018 Y33.068 E31.76918
G1 X30.986 Y32 E31.83696
G1 X32.054 Y31.032 E31.90474
