;START_OF_HEADER
;HEADER_VERSION:0.1
;FLAVOR:Griffin
;GENERATOR.NAME:Cura_SteamEngine
;GENERATOR.VERSION:4.10.0
;GENERATOR.BUILD_DATE:2021-06-29
;TARGET_MACHINE.NAME:Ultimaker 3 Extended
;EXTRUDER_TRAIN.0.INITIAL_TEMPERATURE:205
;EXTRUDER_TRAIN.0.MATERIAL.VOLUME_USED:5174
;EXTRUDER_TRAIN.0.MATERIAL.GUID:506c9f0d-e3aa-4bd4-b2d2-23e2425b1aa9
;EXTRUDER_TRAIN.0.NOZZLE.DIAMETER:0.4
;EXTRUDER_TRAIN.0.NOZZLE.NAME:AA 0.4
;BUILD_PLATE.TYPE:glass
;BUILD_PLATE.INITIAL_TEMPERATURE:60
;PRINT.TIME:1128
;PRINT.GROUPS:1
;PRINT.SIZE.MIN.X:4.991
;PRINT.SIZE.MIN.Y:2.661
;PRINT.SIZE.MIN.Z:0.27
;PRINT.SIZE.MAX.X:78.835
;PRINT.SIZE.MAX.Y:76.505
;PRINT.SIZE.MAX.Z:60.711
;END_OF_HEADER
;Generated with Cura_SteamEngine 4.10.0
T0
M82 ;absolute extrusion mode

G92 E0
M109 S205
G0 F15000 X9 Y6 Z2
G280
G1 F1500 E-6.5
;LAYER_COUNT:76
;LAYER:0
M107
M204 S500
M205 X5 Y5
G1 F600 Z2.27
G0 F4285.7 X16.051 Y13.229 Z2.27
;TYPE:SKIRT
G1 F600 Z0.27
G1 F1500 E0
G1 F1200 X18.233 Y11.253 E0.05233
G1 X18.756 Y10.824 E0.06435
G1 X21.122 Y9.069 E0.11672
G1 X21.69 Y8.69 E0.12886
G1 X24.216 Y7.177 E0.1812
G1 X24.817 Y6.856 E0.19331
G1 X27.478 Y5.599 E0.24562
G1 X28.104 Y5.34 E0.25766
G1 X30.872 Y4.35 E0.30992
G1 X31.521 Y4.153 E0.32198
G1 X34.381 Y3.436 E0.37439
G1 X35.05 Y3.303 E0.38651
G1 X37.958 Y2.872 E0.43877
G1 X38.636 Y2.805 E0.45088
G1 X41.581 Y2.661 E0.5033
G1 X42.26 Y2.661 E0.51537
G1 X45.199 Y2.806 E0.56767
G1 X45.874 Y2.873 E0.57973
G1 X48.782 Y3.304 E0.63199
G1 X49.452 Y3.437 E0.64413
G1 X52.306 Y4.153 E0.69643
G1 X52.957 Y4.351 E0.70853
G1 X55.737 Y5.347 E0.76102
G1 X56.361 Y5.605 E0.77303
G1 X59.021 Y6.862 E0.82532
G1 X59.622 Y7.183 E0.83744
G1 X62.142 Y8.693 E0.88966
G1 X62.71 Y9.073 E0.90181
G1 X65.075 Y10.828 E0.95416
G1 X65.597 Y11.256 E0.96616
G1 X67.778 Y13.231 E1.01846
G1 X68.263 Y13.716 E1.03065
G1 X70.239 Y15.898 E1.08298
G1 X70.666 Y16.419 E1.09495
G1 X72.421 Y18.783 E1.14729
G1 X72.802 Y19.353 E1.15948
G1 X74.319 Y21.886 E1.21196
G1 X74.639 Y22.485 E1.22403
G1 X75.894 Y25.14 E1.27624
G1 X76.155 Y25.771 E1.28837
G1 X77.148 Y28.551 E1.34085
G1 X77.343 Y29.195 E1.35281
G1 X78.058 Y32.043 E1.40501
G1 X78.192 Y32.713 E1.41715
G1 X78.624 Y35.625 E1.46948
G1 X78.691 Y36.303 E1.48159
G1 X78.835 Y39.243 E1.53392
G1 X78.835 Y39.923 E1.54601
G1 X78.69 Y42.869 E1.59844
G1 X78.623 Y43.544 E1.61049
G1 X78.191 Y46.458 E1.66286
G1 X78.057 Y47.129 E1.67502
G1 X77.342 Y49.977 E1.72722
G1 X77.147 Y50.623 E1.73922
G1 X76.156 Y53.395 E1.79154
G1 X75.895 Y54.025 E1.80367
G1 X74.633 Y56.693 E1.85613
G1 X74.313 Y57.292 E1.8682
G1 X72.803 Y59.812 E1.92042
G1 X72.423 Y60.38 E1.93257
G1 X70.664 Y62.75 E1.98504
G1 X70.235 Y63.272 E1.99705
G1 X68.264 Y65.448 E2.04924
G1 X67.779 Y65.933 E2.06143
G1 X65.592 Y67.913 E2.11387
G1 X65.07 Y68.342 E2.12588
G1 X62.704 Y70.097 E2.17825
G1 X62.137 Y70.476 E2.19037
G1 X59.617 Y71.986 E2.24259
G1 X59.015 Y72.307 E2.25472
G1 X56.348 Y73.567 E2.30715
G1 X55.719 Y73.827 E2.31925
G1 X52.945 Y74.818 E2.37161
G1 X52.301 Y75.013 E2.38358
G1 X49.453 Y75.728 E2.43577
G1 X48.782 Y75.862 E2.44794
G1 X45.868 Y76.294 E2.5003
G1 X45.19 Y76.361 E2.51241
G1 X42.245 Y76.505 E2.56482
G1 X41.567 Y76.505 E2.57688
G1 X38.634 Y76.361 E2.62908
G1 X37.957 Y76.294 E2.64117
G1 X35.037 Y75.861 E2.69364
G1 X34.367 Y75.727 E2.70579
G1 X31.519 Y75.012 E2.75799
G1 X30.869 Y74.815 E2.77006
G1 X28.089 Y73.819 E2.82255
G1 X27.466 Y73.561 E2.83454
G1 X24.811 Y72.307 E2.88673
G1 X24.209 Y71.986 E2.89886
G1 X21.684 Y70.473 E2.95119
G1 X21.115 Y70.092 E2.96336
G1 X18.744 Y68.332 E3.01585
G1 X18.223 Y67.904 E3.02783
G1 X16.046 Y65.932 E3.08005
G1 X15.561 Y65.448 E3.09223
G1 X13.586 Y63.267 E3.14453
G1 X13.157 Y62.744 E3.15656
G1 X11.399 Y60.374 E3.20901
G1 X11.02 Y59.806 E3.22115
G1 X9.507 Y57.28 E3.27349
G1 X9.187 Y56.681 E3.28556
G1 X7.931 Y54.024 E3.3378
G1 X7.67 Y53.395 E3.34991
G1 X6.679 Y50.623 E3.40224
G1 X6.483 Y49.975 E3.41427
G1 X5.766 Y47.115 E3.46668
G1 X5.633 Y46.446 E3.47881
G1 X5.202 Y43.538 E3.53107
G1 X5.135 Y42.861 E3.54316
G1 X4.991 Y39.923 E3.59545
G1 X4.991 Y39.243 E3.60754
G1 X5.136 Y36.297 E3.65997
G1 X5.203 Y35.622 E3.67202
G1 X5.634 Y32.714 E3.72428
G1 X5.767 Y32.044 E3.73642
G1 X6.483 Y29.19 E3.78873
G1 X6.679 Y28.543 E3.80075
G1 X7.67 Y25.771 E3.85308
G1 X7.931 Y25.141 E3.8652
G1 X9.193 Y22.473 E3.91766
G1 X9.513 Y21.874 E3.92973
G1 X11.023 Y19.354 E3.98195
G1 X11.403 Y18.786 E3.9941
G1 X13.158 Y16.421 E4.04645
G1 X13.588 Y15.898 E4.05849
G1 X15.568 Y13.713 E4.1109
G1 X16.051 Y13.229 E4.12306
G0 F4285.7 X16.333 Y13.541
G1 F1200 X18.515 Y11.565 E4.17539
G1 X19.007 Y11.161 E4.1867
G1 X21.373 Y9.406 E4.23907
G1 X21.906 Y9.05 E4.25046
G1 X24.432 Y7.537 E4.3028
G1 X24.996 Y7.236 E4.31417
G1 X27.657 Y5.979 E4.36648
G1 X28.246 Y5.735 E4.37781
G1 X31.014 Y4.745 E4.43007
G1 X31.623 Y4.56 E4.44138
G1 X34.483 Y3.843 E4.4938
G1 X35.112 Y3.718 E4.5052
G1 X38.02 Y3.287 E4.55745
G1 X38.656 Y3.225 E4.56881
G1 X41.601 Y3.081 E4.62123
G1 X42.24 Y3.081 E4.63259
G1 X45.179 Y3.226 E4.68489
G1 X45.812 Y3.288 E4.6962
G1 X48.72 Y3.719 E4.74846
G1 X49.35 Y3.845 E4.75988
G1 X52.204 Y4.561 E4.81218
G1 X52.816 Y4.746 E4.82355
G1 X55.596 Y5.742 E4.87604
G1 X56.181 Y5.985 E4.8873
G1 X58.841 Y7.242 E4.9396
G1 X59.406 Y7.544 E4.95099
G1 X61.926 Y9.054 E5.00321
G1 X62.459 Y9.41 E5.0146
G1 X64.824 Y11.165 E5.06695
G1 X65.315 Y11.567 E5.07823
G1 X67.496 Y13.542 E5.13053
G1 X67.951 Y13.998 E5.14199
G1 X69.927 Y16.18 E5.19431
G1 X70.329 Y16.67 E5.20558
G1 X72.084 Y19.034 E5.25792
G1 X72.442 Y19.569 E5.26936
G1 X73.959 Y22.102 E5.32184
G1 X74.26 Y22.665 E5.33319
G1 X75.515 Y25.32 E5.38539
G1 X75.76 Y25.912 E5.39678
G1 X76.753 Y28.692 E5.44926
G1 X76.936 Y29.297 E5.46049
G1 X77.651 Y32.145 E5.51269
G1 X77.777 Y32.775 E5.52411
G1 X78.209 Y35.687 E5.57644
G1 X78.271 Y36.324 E5.58782
G1 X78.415 Y39.264 E5.64014
G1 X78.415 Y39.902 E5.65148
G1 X78.27 Y42.848 E5.70392
G1 X78.208 Y43.483 E5.71526
G1 X77.776 Y46.397 E5.76762
G1 X77.65 Y47.027 E5.77904
G1 X76.935 Y49.875 E5.83124
G1 X76.751 Y50.482 E5.84251
G1 X75.76 Y53.254 E5.89484
G1 X75.515 Y53.846 E5.90623
G1 X74.253 Y56.514 E5.9587
G1 X73.952 Y57.076 E5.97003
G1 X72.442 Y59.596 E6.02225
G1 X72.086 Y60.13 E6.03366
G1 X70.327 Y62.5 E6.08612
G1 X69.924 Y62.99 E6.0974
G1 X67.953 Y65.166 E6.14959
G1 X67.497 Y65.622 E6.16106
G1 X65.31 Y67.602 E6.2135
G1 X64.819 Y68.005 E6.22479
G1 X62.453 Y69.76 E6.27715
G1 X61.921 Y70.115 E6.28852
G1 X59.401 Y71.625 E6.34074
G1 X58.836 Y71.927 E6.35213
G1 X56.169 Y73.187 E6.40457
G1 X55.578 Y73.432 E6.41594
G1 X52.804 Y74.423 E6.4683
G1 X52.199 Y74.606 E6.47954
G1 X49.351 Y75.321 E6.53173
G1 X48.721 Y75.447 E6.54315
G1 X45.807 Y75.879 E6.59552
G1 X45.17 Y75.941 E6.6069
G1 X42.225 Y76.085 E6.65931
G1 X41.588 Y76.085 E6.67063
G1 X38.655 Y75.941 E6.72283
G1 X38.019 Y75.879 E6.73419
G1 X35.099 Y75.446 E6.78666
G1 X34.469 Y75.32 E6.79809
G1 X31.621 Y74.605 E6.85028
G1 X31.01 Y74.42 E6.86163
G1 X28.23 Y73.424 E6.91412
G1 X27.646 Y73.181 E6.92537
G1 X24.991 Y71.927 E6.97756
G1 X24.425 Y71.625 E6.98897
G1 X21.9 Y70.112 E7.04129
G1 X21.366 Y69.755 E7.05271
G1 X18.995 Y67.995 E7.1052
G1 X18.505 Y67.593 E7.11647
G1 X16.328 Y65.621 E7.16868
G1 X15.872 Y65.166 E7.18013
G1 X13.897 Y62.985 E7.23243
G1 X13.494 Y62.493 E7.24374
G1 X11.736 Y60.123 E7.29619
G1 X11.38 Y59.59 E7.30759
G1 X9.867 Y57.064 E7.35993
G1 X9.566 Y56.501 E7.37128
G1 X8.31 Y53.844 E7.42352
G1 X8.066 Y53.254 E7.43487
G1 X7.075 Y50.482 E7.4872
G1 X6.89 Y49.873 E7.49851
G1 X6.173 Y47.013 E7.55092
G1 X6.048 Y46.384 E7.56232
G1 X5.617 Y43.476 E7.61458
G1 X5.555 Y42.841 E7.62592
G1 X5.411 Y39.903 E7.67821
G1 X5.411 Y39.264 E7.68957
G1 X5.556 Y36.318 E7.742
G1 X5.618 Y35.684 E7.75332
G1 X6.049 Y32.776 E7.80558
G1 X6.175 Y32.146 E7.817
G1 X6.891 Y29.292 E7.86931
G1 X7.075 Y28.684 E7.8806
G1 X8.066 Y25.912 E7.93293
G1 X8.311 Y25.32 E7.94432
G1 X9.573 Y22.652 E7.99678
G1 X9.874 Y22.09 E8.00811
G1 X11.384 Y19.57 E8.06034
G1 X11.74 Y19.037 E8.07173
G1 X13.495 Y16.672 E8.12408
G1 X13.899 Y16.18 E8.1354
G1 X15.879 Y13.995 E8.18781
G1 X16.333 Y13.541 E8.19923
G0 F4285.7 X16.615 Y13.852
G1 F1200 X18.797 Y11.876 E8.25155
G1 X19.257 Y11.499 E8.26213
G1 X21.623 Y9.744 E8.31449
G1 X22.122 Y9.41 E8.32516
G1 X24.648 Y7.897 E8.37751
G1 X25.176 Y7.615 E8.38815
G1 X27.837 Y6.358 E8.44046
G1 X28.387 Y6.131 E8.45104
G1 X31.155 Y5.141 E8.50329
G1 X31.725 Y4.968 E8.51388
G1 X34.585 Y4.251 E8.56629
G1 X35.173 Y4.134 E8.57695
G1 X38.081 Y3.703 E8.62921
G1 X38.677 Y3.644 E8.63985
G1 X41.622 Y3.5 E8.69227
G1 X42.219 Y3.5 E8.70288
G1 X45.158 Y3.645 E8.75519
G1 X45.751 Y3.704 E8.76578
G1 X48.659 Y4.135 E8.81804
G1 X49.248 Y4.252 E8.82871
G1 X52.102 Y4.968 E8.88102
G1 X52.674 Y5.142 E8.89164
G1 X55.454 Y6.138 E8.94414
G1 X56.002 Y6.365 E8.95468
G1 X58.662 Y7.622 E9.00698
G1 X59.19 Y7.904 E9.01762
G1 X61.71 Y9.414 E9.06984
G1 X62.209 Y9.747 E9.08051
G1 X64.574 Y11.502 E9.13286
G1 X65.033 Y11.879 E9.14341
G1 X67.214 Y13.854 E9.19572
G1 X67.64 Y14.28 E9.20643
G1 X69.616 Y16.462 E9.25876
G1 X69.992 Y16.92 E9.26929
G1 X71.747 Y19.284 E9.32163
G1 X72.082 Y19.785 E9.33234
G1 X73.599 Y22.318 E9.38482
G1 X73.88 Y22.844 E9.39542
G1 X75.135 Y25.499 E9.44763
G1 X75.364 Y26.053 E9.45828
G1 X76.357 Y28.833 E9.51076
G1 X76.529 Y29.399 E9.52127
G1 X77.244 Y32.247 E9.57347
G1 X77.361 Y32.836 E9.58414
G1 X77.793 Y35.748 E9.63647
G1 X77.852 Y36.344 E9.64712
G1 X77.996 Y39.284 E9.69944
G1 X77.996 Y39.881 E9.71006
G1 X77.851 Y42.827 E9.76249
G1 X77.792 Y43.421 E9.7731
G1 X77.36 Y46.335 E9.82546
G1 X77.243 Y46.925 E9.83616
G1 X76.528 Y49.773 E9.88835
G1 X76.356 Y50.34 E9.89889
G1 X75.365 Y53.112 E9.95122
G1 X75.135 Y53.666 E9.96188
G1 X73.873 Y56.334 E10.01434
G1 X73.592 Y56.86 E10.02494
G1 X72.082 Y59.38 E10.07716
G1 X71.748 Y59.88 E10.08785
G1 X69.989 Y62.25 E10.14032
G1 X69.613 Y62.708 E10.15085
G1 X67.642 Y64.884 E10.20304
G1 X67.215 Y65.311 E10.21378
G1 X65.028 Y67.291 E10.26622
G1 X64.569 Y67.667 E10.27676
G1 X62.203 Y69.422 E10.32913
G1 X61.705 Y69.755 E10.33978
G1 X59.185 Y71.265 E10.392
G1 X58.656 Y71.547 E10.40266
G1 X55.989 Y72.807 E10.45509
G1 X55.437 Y73.036 E10.46571
G1 X52.663 Y74.027 E10.51808
G1 X52.097 Y74.199 E10.52859
G1 X49.249 Y74.914 E10.58079
G1 X48.659 Y75.031 E10.59148
G1 X45.745 Y75.463 E10.64385
G1 X45.149 Y75.522 E10.65449
G1 X42.204 Y75.666 E10.7069
G1 X41.608 Y75.666 E10.7175
G1 X38.675 Y75.522 E10.7697
G1 X38.081 Y75.463 E10.78031
G1 X35.161 Y75.03 E10.83278
G1 X34.571 Y74.913 E10.84348
G1 X31.723 Y74.198 E10.89567
G1 X31.152 Y74.024 E10.90628
G1 X28.372 Y73.028 E10.95878
G1 X27.825 Y72.802 E10.9693
G1 X25.17 Y71.548 E11.02149
G1 X24.641 Y71.265 E11.03216
G1 X22.116 Y69.752 E11.08448
G1 X21.616 Y69.418 E11.09517
G1 X19.245 Y67.658 E11.14766
G1 X18.786 Y67.282 E11.15821
G1 X16.609 Y65.31 E11.21042
G1 X16.184 Y64.884 E11.22112
G1 X14.209 Y62.703 E11.27342
G1 X13.832 Y62.243 E11.28399
G1 X12.074 Y59.873 E11.33645
G1 X11.74 Y59.374 E11.34712
G1 X10.227 Y56.848 E11.39946
G1 X9.946 Y56.322 E11.41006
G1 X8.69 Y53.665 E11.4623
G1 X8.461 Y53.112 E11.47294
G1 X7.47 Y50.34 E11.52527
G1 X7.298 Y49.771 E11.53584
G1 X6.581 Y46.911 E11.58825
G1 X6.464 Y46.323 E11.59891
G1 X6.033 Y43.415 E11.65117
G1 X5.974 Y42.82 E11.6618
G1 X5.83 Y39.882 E11.71408
G1 X5.83 Y39.285 E11.7247
G1 X5.975 Y36.339 E11.77713
G1 X6.034 Y35.745 E11.78774
G1 X6.465 Y32.837 E11.84
G1 X6.582 Y32.248 E11.85067
G1 X7.298 Y29.394 E11.90298
G1 X7.47 Y28.826 E11.91353
G1 X8.461 Y26.054 E11.96585
G1 X8.691 Y25.5 E11.97652
G1 X9.953 Y22.832 E12.02898
G1 X10.234 Y22.306 E12.03958
G1 X11.744 Y19.786 E12.0918
G1 X12.077 Y19.287 E12.10247
G1 X13.832 Y16.922 E12.15482
G1 X14.21 Y16.462 E12.1654
G1 X16.19 Y14.277 E12.21782
G1 X16.615 Y13.852 E12.2285
G0 F4285.7 X16.897 Y14.163
G1 F1200 X19.079 Y12.187 E12.28083
G1 X19.507 Y11.836 E12.29067
G1 X21.873 Y10.081 E12.34303
G1 X22.337 Y9.771 E12.35295
G1 X24.863 Y8.258 E12.40529
G1 X25.355 Y7.995 E12.41521
G1 X28.016 Y6.738 E12.46753
G1 X28.529 Y6.526 E12.47739
G1 X31.297 Y5.536 E12.52965
G1 X31.827 Y5.375 E12.5395
G1 X34.687 Y4.658 E12.59191
G1 X35.235 Y4.549 E12.60184
G1 X38.143 Y4.118 E12.6541
G1 X38.697 Y4.064 E12.66399
G1 X41.642 Y3.92 E12.7164
G1 X42.198 Y3.92 E12.72629
G1 X45.137 Y4.065 E12.7786
G1 X45.689 Y4.119 E12.78845
G1 X48.597 Y4.55 E12.84071
G1 X49.146 Y4.659 E12.85066
G1 X52 Y5.375 E12.90297
G1 X52.532 Y5.537 E12.91285
G1 X55.312 Y6.533 E12.96534
G1 X55.823 Y6.745 E12.97518
G1 X58.483 Y8.002 E13.02748
G1 X58.974 Y8.264 E13.03737
G1 X61.494 Y9.774 E13.08959
G1 X61.959 Y10.085 E13.09954
G1 X64.324 Y11.84 E13.15189
G1 X64.751 Y12.19 E13.1617
G1 X66.932 Y14.165 E13.214
G1 X67.329 Y14.562 E13.22398
G1 X69.305 Y16.744 E13.27631
G1 X69.655 Y17.17 E13.28611
G1 X71.41 Y19.534 E13.33845
G1 X71.721 Y20.001 E13.34842
G1 X73.238 Y22.534 E13.40091
G1 X73.5 Y23.024 E13.41078
G1 X74.755 Y25.679 E13.46299
G1 X74.969 Y26.195 E13.47292
G1 X75.962 Y28.975 E13.52539
G1 X76.121 Y29.501 E13.53516
G1 X76.836 Y32.349 E13.58736
G1 X76.946 Y32.898 E13.59731
G1 X77.378 Y35.81 E13.64964
G1 X77.432 Y36.365 E13.65955
G1 X77.576 Y39.305 E13.71188
G1 X77.576 Y39.861 E13.72176
G1 X77.431 Y42.807 E13.77419
G1 X77.377 Y43.359 E13.78405
G1 X76.945 Y46.273 E13.83642
G1 X76.835 Y46.823 E13.84639
G1 X76.12 Y49.671 E13.89858
G1 X75.96 Y50.199 E13.90839
G1 X74.969 Y52.971 E13.96072
G1 X74.756 Y53.486 E13.97063
G1 X73.494 Y56.154 E14.02309
G1 X73.232 Y56.644 E14.03297
G1 X71.722 Y59.164 E14.08519
G1 X71.411 Y59.629 E14.09513
G1 X69.652 Y61.999 E14.1476
G1 X69.301 Y62.426 E14.15742
G1 X67.33 Y64.602 E14.20961
G1 X66.933 Y64.999 E14.21959
G1 X64.746 Y66.979 E14.27203
G1 X64.319 Y67.33 E14.28186
G1 X61.953 Y69.085 E14.33423
G1 X61.489 Y69.395 E14.34415
G1 X58.969 Y70.905 E14.39637
G1 X58.477 Y71.168 E14.40628
G1 X55.81 Y72.428 E14.45872
G1 X55.296 Y72.641 E14.46861
G1 X52.522 Y73.632 E14.52097
G1 X51.995 Y73.791 E14.53075
G1 X49.147 Y74.506 E14.58295
G1 X48.597 Y74.616 E14.59292
G1 X45.683 Y75.048 E14.64529
G1 X45.129 Y75.102 E14.65518
G1 X42.184 Y75.246 E14.70759
G1 X41.629 Y75.246 E14.71746
G1 X38.696 Y75.102 E14.76966
G1 X38.142 Y75.048 E14.77955
G1 X35.222 Y74.615 E14.83203
G1 X34.673 Y74.505 E14.84198
G1 X31.825 Y73.79 E14.89418
G1 X31.294 Y73.629 E14.90404
G1 X28.514 Y72.633 E14.95653
G1 X28.004 Y72.422 E14.96635
G1 X25.349 Y71.168 E15.01854
G1 X24.857 Y70.905 E15.02846
G1 X22.332 Y69.392 E15.08078
G1 X21.866 Y69.081 E15.09074
G1 X19.495 Y67.321 E15.14323
G1 X19.068 Y66.97 E15.15306
G1 X16.891 Y64.998 E15.20527
G1 X16.495 Y64.602 E15.21523
G1 X14.52 Y62.421 E15.26753
G1 X14.169 Y61.993 E15.27737
G1 X12.411 Y59.623 E15.32982
G1 X12.101 Y59.159 E15.33974
G1 X10.588 Y56.633 E15.39208
G1 X10.326 Y56.142 E15.40198
G1 X9.07 Y53.485 E15.45422
G1 X8.857 Y52.971 E15.46411
G1 X7.866 Y50.199 E15.51644
G1 X7.705 Y49.669 E15.52628
G1 X6.988 Y46.809 E15.5787
G1 X6.879 Y46.261 E15.58863
G1 X6.448 Y43.353 E15.64089
G1 X6.394 Y42.8 E15.65076
G1 X6.25 Y39.862 E15.70305
G1 X6.25 Y39.305 E15.71295
G1 X6.395 Y36.359 E15.76538
G1 X6.449 Y35.807 E15.77524
G1 X6.88 Y32.899 E15.8275
G1 X6.989 Y32.35 E15.83745
G1 X7.705 Y29.496 E15.88975
G1 X7.866 Y28.967 E15.89958
G1 X8.857 Y26.195 E15.95191
G1 X9.07 Y25.68 E15.96182
G1 X10.332 Y23.012 E16.01428
G1 X10.594 Y22.522 E16.02416
G1 X12.104 Y20.002 E16.07638
G1 X12.415 Y19.537 E16.08633
G1 X14.17 Y17.172 E16.13868
G1 X14.521 Y16.744 E16.14852
G1 X16.501 Y14.559 E16.20093
G1 X16.897 Y14.163 E16.21089
G0 F4285.7 X17.179 Y14.475
G1 F1200 X19.361 Y12.499 E16.26322
G1 X19.757 Y12.173 E16.27233
G1 X22.123 Y10.418 E16.3247
G1 X22.553 Y10.131 E16.33389
G1 X25.079 Y8.618 E16.38623
G1 X25.535 Y8.375 E16.39541
