;START_OF_HEADER
;HEADER_VERSION:0.1
;FLAVOR:Griffin
;GENERATOR.NAME:Cura_SteamEngine
;GENERATOR.VERSION:4.10.0
;GENERATOR.BUILD_DATE:2021-06-29
;TARGET_MACHINE.NAME:Ultimaker 3 Extended
;EXTRUDER_TRAIN.0.INITIAL_TEMPERATURE:205
;EXTRUDER_TRAIN.0.MATERIAL.VOLUME_USED:6992
;EXTRUDER_TRAIN.0.MATERIAL.GUID:506c9f0d-e3aa-4bd4-b2d2-23e2425b1aa9
;EXTRUDER_TRAIN.0.NOZZLE.DIAMETER:0.4
;EXTRUDER_TRAIN.0.NOZZLE.NAME:AA 0.4
;BUILD_PLATE.TYPE:glass
;BUILD_PLATE.INITIAL_TEMPERATURE:60
;PRINT.TIME:1397
;PRINT.GROUPS:1
;PRINT.SIZE.MIN.X:9
;PRINT.SIZE.MIN.Y:6
;PRINT.SIZE.MIN.Z:0.27
;PRINT.SIZE.MAX.X:77.009
;PRINT.SIZE.MAX.Y:84.513
;PRINT.SIZE.MAX.Z:61.52
;END_OF_HEADER
;Generated with Cura_SteamEngine 4.10.0
T0
M82 ;absolute extrusion mode

G92 E0
M109 S205
G0 F15000 X9 Y6 Z2
G280
G1 F1500 E-6.5
;LAYER_COUNT:77
;LAYER:0
M107
M204 S500
M205 X5 Y5
G1 F600 Z2.27
G0 F4285.7 X36.417 Y38.259 Z2.27
;TYPE:SKIRT
G1 F600 Z0.27
G1 F1500 E0
G1 F1200 X36.835 Y37.906 E0.00973
G1 X37.033 Y37.746 E0.01425
G1 X37.453 Y37.417 E0.02373
G1 X37.699 Y37.232 E0.02921
G1 X38.122 Y36.93 E0.03844
G1 X38.361 Y36.767 E0.04359
G1 X38.79 Y36.487 E0.05269
G1 X39.242 Y36.21 E0.06212
G1 X39.701 Y35.945 E0.07154
G1 X40.422 Y35.563 E0.08604
G1 X41.082 Y35.248 E0.09904
G1 X41.794 Y34.942 E0.11282
G1 X42.484 Y34.68 E0.12594
G1 X43.185 Y34.445 E0.13908
G1 X43.849 Y34.251 E0.15138
G1 X44.458 Y34.094 E0.16256
G1 X45.127 Y33.942 E0.17475
G1 X45.838 Y33.803 E0.18763
G1 X46.903 Y33.607 E0.20688
G1 X47.435 Y33.497 E0.21654
G1 X48.331 Y33.253 E0.23304
G1 X48.94 Y33.077 E0.24431
G1 X49.499 Y32.936 E0.25456
G1 X50.143 Y32.801 E0.26626
G1 X50.951 Y32.679 E0.28078
G1 X51.55 Y32.627 E0.29147
G1 X51.853 Y32.621 E0.29686
G1 X52.546 Y32.612 E0.30918
G1 X52.829 Y32.628 E0.31422
G1 X53.388 Y32.669 E0.32418
G1 X53.757 Y32.713 E0.33079
G1 X54.253 Y32.79 E0.33971
G1 X55.009 Y32.942 E0.35342
G1 X55.71 Y33.114 E0.36625
G1 X56.383 Y33.297 E0.37864
G1 X56.919 Y33.451 E0.38856
G1 X58.288 Y33.854 E0.41392
G1 X59.229 Y34.153 E0.43148
G1 X59.738 Y34.325 E0.44103
G1 X60.307 Y34.532 E0.45179
G1 X60.831 Y34.732 E0.46176
G1 X61.378 Y34.955 E0.47226
G1 X61.991 Y35.222 E0.48415
G1 X62.52 Y35.463 E0.49448
G1 X63.093 Y35.741 E0.5058
G1 X63.637 Y36.015 E0.51663
G1 X64.273 Y36.354 E0.52944
G1 X64.823 Y36.665 E0.54067
G1 X65.265 Y36.925 E0.54979
G1 X65.432 Y37.027 E0.55326
G1 X65.974 Y37.369 E0.56466
G1 X66.572 Y37.771 E0.57747
G1 X67.048 Y38.112 E0.58787
G1 X67.706 Y38.618 E0.60263
G1 X68.092 Y38.936 E0.61152
G1 X68.579 Y39.358 E0.62297
G1 X69.138 Y39.881 E0.63658
G1 X69.796 Y40.548 E0.65324
G1 X70.376 Y41.188 E0.66859
G1 X70.747 Y41.627 E0.67881
G1 X71.233 Y42.237 E0.69267
G1 X71.812 Y43.021 E0.71
G1 X71.921 Y43.176 E0.71336
G1 X72.301 Y43.733 E0.72535
G1 X72.46 Y43.973 E0.73047
G1 X72.807 Y44.518 E0.74195
G1 X73.066 Y44.94 E0.75075
G1 X73.33 Y45.386 E0.75997
G1 X73.74 Y46.115 E0.77484
G1 X74.058 Y46.717 E0.78694
G1 X74.364 Y47.341 E0.79929
G1 X74.595 Y47.843 E0.80911
G1 X74.883 Y48.527 E0.82231
G1 X75.089 Y49.058 E0.83243
G1 X75.336 Y49.775 E0.84591
G1 X75.524 Y50.381 E0.85719
G1 X75.697 Y51.001 E0.86863
G1 X75.751 Y51.213 E0.87252
G1 X75.912 Y51.881 E0.88474
G1 X76.075 Y52.59 E0.89767
G1 X76.166 Y53 E0.90513
G1 X76.326 Y53.679 E0.91753
G1 X76.536 Y54.522 E0.93298
G1 X76.662 Y55.064 E0.94287
G1 X76.799 Y55.739 E0.95511
G1 X76.913 Y56.478 E0.9684
G1 X76.993 Y57.327 E0.98356
G1 X77.009 Y57.698 E0.99016
G1 X77.009 Y58.28 E1.00051
G1 X76.994 Y58.647 E1.00704
G1 X76.943 Y59.249 E1.01778
G1 X76.829 Y60.053 E1.03221
G1 X76.807 Y60.18 E1.0345
G1 X76.682 Y60.795 E1.04566
G1 X76.518 Y61.466 E1.05794
G1 X76.38 Y61.98 E1.0674
G1 X76.326 Y62.17 E1.07091
G1 X76.083 Y63.097 E1.08795
G1 X75.762 Y64.441 E1.11251
G1 X75.595 Y65.096 E1.12452
G1 X75.447 Y65.636 E1.13448
G1 X75.282 Y66.186 E1.14468
G1 X75.072 Y66.823 E1.15661
G1 X74.834 Y67.48 E1.16903
G1 X74.575 Y68.129 E1.18145
G1 X74.3 Y68.76 E1.19369
G1 X74.012 Y69.37 E1.20568
G1 X73.683 Y70.021 E1.21864
G1 X73.442 Y70.465 E1.22762
G1 X73.158 Y70.956 E1.23771
G1 X72.706 Y71.68 E1.25288
G1 X72.404 Y72.129 E1.2625
G1 X72.007 Y72.683 E1.27461
G1 X71.675 Y73.118 E1.28434
G1 X71.359 Y73.512 E1.29332
G1 X71.02 Y73.914 E1.30266
G1 X70.626 Y74.362 E1.31327
G1 X70.513 Y74.487 E1.31627
G1 X70.019 Y75.019 E1.32917
G1 X69.504 Y75.553 E1.34236
G1 X68.999 Y76.061 E1.35509
G1 X68.45 Y76.594 E1.36869
G1 X67.885 Y77.123 E1.38245
G1 X67.495 Y77.473 E1.39177
G1 X67.346 Y77.602 E1.39527
G1 X66.914 Y77.968 E1.40533
G1 X66.749 Y78.103 E1.40912
G1 X66.318 Y78.446 E1.41892
G1 X66.142 Y78.582 E1.42287
G1 X65.711 Y78.903 E1.43242
G1 X65.501 Y79.054 E1.43702
G1 X65.068 Y79.352 E1.44636
G1 X64.853 Y79.493 E1.45093
G1 X64.423 Y79.766 E1.45999
G1 X63.748 Y80.164 E1.47392
G1 X63.053 Y80.534 E1.48791
G1 X62.32 Y80.882 E1.50234
G1 X61.578 Y81.19 E1.51662
G1 X60.776 Y81.473 E1.53174
G1 X60.057 Y81.688 E1.54508
G1 X59.534 Y81.824 E1.55468
G1 X59.089 Y81.925 E1.56279
G1 X58.449 Y82.054 E1.5744
G1 X58.053 Y82.13 E1.58157
G1 X57.232 Y82.273 E1.59638
G1 X56.667 Y82.385 E1.60662
G1 X56.184 Y82.501 E1.61545
G1 X55.522 Y82.67 E1.62759
G1 X54.881 Y82.821 E1.6393
G1 X53.957 Y82.997 E1.65602
G1 X53.17 Y83.094 E1.67012
G1 X52.811 Y83.122 E1.67652
G1 X52.228 Y83.143 E1.68689
G1 X51.914 Y83.132 E1.69247
G1 X51.397 Y83.124 E1.70166
G1 X50.649 Y83.059 E1.71501
G1 X49.9 Y82.957 E1.72845
G1 X49.271 Y82.844 E1.73981
G1 X48.243 Y82.629 E1.75848
G1 X47.848 Y82.547 E1.76565
G1 X46.313 Y82.244 E1.79346
G1 X45.566 Y82.085 E1.80704
G1 X44.662 Y81.868 E1.82356
G1 X44.113 Y81.722 E1.83366
G1 X43.49 Y81.536 E1.84522
G1 X42.9 Y81.344 E1.85625
G1 X42.318 Y81.139 E1.86722
G1 X42.077 Y81.049 E1.87179
G1 X41.591 Y80.856 E1.88108
G1 X41.026 Y80.616 E1.892
G1 X40.786 Y80.507 E1.89668
G1 X40.141 Y80.199 E1.90939
G1 X39.635 Y79.937 E1.91952
G1 X39.482 Y79.853 E1.92262
G1 X39.044 Y79.606 E1.93156
G1 X38.541 Y79.305 E1.94198
G1 X38.187 Y79.081 E1.94942
G1 X37.716 Y78.769 E1.95947
G1 X37.103 Y78.336 E1.97281
G1 X36.697 Y78.033 E1.98181
G1 X36.37 Y77.78 E1.98916
G1 X35.804 Y77.323 E2.00209
G1 X35.371 Y76.957 E2.01217
G1 X35.222 Y76.827 E2.01569
G1 X34.744 Y76.399 E2.02709
G1 X34.165 Y75.859 E2.04117
G1 X33.662 Y75.364 E2.05371
G1 X33.09 Y74.77 E2.06837
G1 X32.842 Y74.501 E2.07487
G1 X32.443 Y74.053 E2.08554
G1 X32.308 Y73.897 E2.08921
G1 X31.934 Y73.451 E2.09955
G1 X31.78 Y73.261 E2.1039
G1 X31.432 Y72.815 E2.11396
G1 X31.273 Y72.603 E2.11867
G1 X30.951 Y72.156 E2.12846
G1 X30.595 Y71.632 E2.13972
G1 X30.083 Y70.809 E2.15695
G1 X29.933 Y70.55 E2.16227
G1 X29.686 Y70.101 E2.17138
G1 X29.407 Y69.556 E2.18226
G1 X29.009 Y68.691 E2.19919
G1 X28.811 Y68.215 E2.20835
G1 X28.594 Y67.635 E2.21936
G1 X28.392 Y67.044 E2.23046
G1 X28.235 Y66.539 E2.23986
G1 X28.064 Y65.924 E2.25121
G1 X27.902 Y65.262 E2.26333
G1 X27.735 Y64.502 E2.27716
G1 X27.488 Y63.261 E2.29965
G1 X27.362 Y62.671 E2.31038
G1 X27.166 Y61.898 E2.32455
G1 X26.983 Y61.222 E2.337
G1 X26.846 Y60.687 E2.34682
G1 X26.708 Y60.056 E2.3583
G1 X26.575 Y59.222 E2.37331
G1 X26.536 Y58.865 E2.37969
G1 X26.498 Y58.308 E2.38962
G1 X26.488 Y57.955 E2.3959
G1 X26.5 Y57.308 E2.4074
G1 X26.523 Y56.955 E2.41369
G1 X26.578 Y56.423 E2.42319
G1 X26.682 Y55.751 E2.43528
G1 X26.847 Y54.984 E2.44923
G1 X27.021 Y54.309 E2.46162
G1 X27.173 Y53.767 E2.47163
G1 X27.302 Y53.271 E2.48074
G1 X27.401 Y52.776 E2.48971
G1 X27.514 Y52.115 E2.50163
G1 X27.637 Y51.431 E2.51398
G1 X27.74 Y50.906 E2.52349
G1 X27.896 Y50.22 E2.536
G1 X28.083 Y49.53 E2.54871
G1 X28.35 Y48.701 E2.56419
G1 X28.625 Y47.988 E2.57777
G1 X28.959 Y47.235 E2.59242
G1 X29.33 Y46.502 E2.60702
G1 X29.727 Y45.806 E2.62126
G1 X30.114 Y45.189 E2.63421
G1 X30.395 Y44.769 E2.64319
G1 X30.529 Y44.577 E2.64736
G1 X30.831 Y44.157 E2.65655
G1 X30.983 Y43.953 E2.66107
G1 X31.306 Y43.537 E2.67043
G1 X31.428 Y43.385 E2.6739
G1 X31.771 Y42.968 E2.6835
G1 X31.89 Y42.827 E2.68678
G1 X32.252 Y42.41 E2.69659
G1 X32.364 Y42.284 E2.69959
G1 X32.885 Y41.715 E2.7133
G1 X33.355 Y41.221 E2.72542
G1 X33.858 Y40.708 E2.7382
G1 X34.789 Y39.778 E2.76159
G1 X35.284 Y39.297 E2.77386
G1 X35.741 Y38.864 E2.78505
G1 X35.885 Y38.731 E2.78853
G1 X36.266 Y38.39 E2.79762
G1 X36.417 Y38.259 E2.80118
G0 F4285.7 X36.688 Y38.58
G1 F1200 X37.106 Y38.227 E2.8109
G1 X37.292 Y38.076 E2.81516
G1 X37.712 Y37.747 E2.82464
G1 X37.943 Y37.574 E2.82977
G1 X38.366 Y37.272 E2.83901
G1 X38.591 Y37.118 E2.84386
G1 X39.02 Y36.838 E2.85297
G1 X39.458 Y36.57 E2.86209
G1 X39.902 Y36.314 E2.8712
G1 X40.605 Y35.941 E2.88535
G1 X41.251 Y35.633 E2.89807
G1 X41.946 Y35.334 E2.91152
G1 X42.621 Y35.077 E2.92436
G1 X43.305 Y34.847 E2.93719
G1 X43.956 Y34.657 E2.94924
G1 X44.554 Y34.503 E2.96022
G1 X45.208 Y34.354 E2.97214
G1 X45.914 Y34.216 E2.98493
G1 X46.977 Y34.021 E3.00414
G1 X47.513 Y33.911 E3.01387
G1 X48.042 Y33.776 E3.02357
G1 X48.673 Y33.588 E3.03528
G1 X49.262 Y33.427 E3.04613
G1 X49.875 Y33.282 E3.05733
G1 X50.66 Y33.141 E3.07151
G1 X51.005 Y33.096 E3.07769
G1 X51.568 Y33.047 E3.08774
G1 X51.871 Y33.04 E3.09312
G1 X52.526 Y33.032 E3.10477
G1 X52.734 Y33.042 E3.10847
G1 X53.338 Y33.086 E3.11923
G1 X54.173 Y33.203 E3.13422
G1 X54.907 Y33.349 E3.14753
G1 X55.611 Y33.522 E3.16041
G1 X56.267 Y33.701 E3.1725
G1 X56.799 Y33.853 E3.18233
G1 X58.164 Y34.256 E3.20763
G1 X59.1 Y34.552 E3.22509
G1 X59.603 Y34.722 E3.23452
G1 X60.162 Y34.926 E3.2451
G1 X60.675 Y35.122 E3.25486
G1 X61.21 Y35.34 E3.26513
G1 X61.819 Y35.605 E3.27694
G1 X62.337 Y35.841 E3.28706
G1 X62.905 Y36.117 E3.29828
G1 X63.439 Y36.386 E3.30891
G1 X64.075 Y36.725 E3.32172
G1 X64.615 Y37.03 E3.33275
G1 X65.052 Y37.287 E3.34176
G1 X65.746 Y37.721 E3.35631
G1 X66.335 Y38.118 E3.36894
G1 X66.796 Y38.448 E3.37901
G1 X67.446 Y38.948 E3.39359
G1 X68.171 Y39.558 E3.41043
G1 X68.85 Y40.186 E3.42687
G1 X69.494 Y40.84 E3.44319
G1 X70.062 Y41.467 E3.45823
G1 X70.421 Y41.893 E3.46813
G1 X70.902 Y42.496 E3.48184
G1 X71.472 Y43.268 E3.4989
G1 X71.574 Y43.413 E3.50205
G1 X71.952 Y43.966 E3.51396
G1 X72.106 Y44.199 E3.51892
G1 X72.449 Y44.738 E3.53028
G1 X72.704 Y45.154 E3.53895
G1 X72.968 Y45.6 E3.54817
G1 X73.304 Y46.195 E3.56031
G1 X73.591 Y46.728 E3.57107
G1 X73.9 Y47.343 E3.58331
G1 X73.983 Y47.517 E3.58674
G1 X74.214 Y48.019 E3.59656
G1 X74.495 Y48.686 E3.60943
G1 X74.697 Y49.208 E3.61937
G1 X74.938 Y49.909 E3.63255
G1 X75.122 Y50.504 E3.64362
G1 X75.292 Y51.112 E3.65484
G1 X75.343 Y51.311 E3.6585
G1 X75.503 Y51.975 E3.67064
G1 X75.665 Y52.681 E3.68351
G1 X75.772 Y53.161 E3.69226
G1 X75.921 Y53.793 E3.7038
G1 X76.127 Y54.618 E3.71891
G1 X76.251 Y55.151 E3.72864
G1 X76.385 Y55.809 E3.74058
G1 X76.496 Y56.525 E3.75346
G1 X76.573 Y57.346 E3.76812
G1 X76.589 Y57.717 E3.77472
G1 X76.59 Y58.263 E3.78442
G1 X76.575 Y58.63 E3.79095
G1 X76.527 Y59.196 E3.80105
G1 X76.416 Y59.976 E3.81505
G1 X76.392 Y60.115 E3.81756
G1 X76.275 Y60.692 E3.82803
G1 X76.148 Y61.204 E3.8374
G1 X76.011 Y61.726 E3.847
G1 X75.732 Y62.775 E3.86629
G1 X75.671 Y63.013 E3.87066
G1 X75.355 Y64.338 E3.89487
G1 X75.19 Y64.986 E3.90676
G1 X75.044 Y65.516 E3.91653
G1 X74.882 Y66.057 E3.92657
G1 X74.677 Y66.682 E3.93826
G1 X74.443 Y67.326 E3.95044
G1 X74.189 Y67.963 E3.96263
G1 X73.92 Y68.583 E3.97465
G1 X73.637 Y69.182 E3.98642
G1 X73.313 Y69.821 E3.99916
G1 X73.072 Y70.265 E4.00814
G1 X72.796 Y70.743 E4.01795
G1 X72.352 Y71.455 E4.03287
G1 X72.06 Y71.887 E4.04214
G1 X71.673 Y72.429 E4.05397
G1 X71.341 Y72.864 E4.0637
G1 X70.939 Y73.361 E4.07506
G1 X70.311 Y74.084 E4.09209
G1 X70.205 Y74.202 E4.09491
G1 X69.716 Y74.728 E4.10767
G1 X69.205 Y75.257 E4.12075
G1 X68.706 Y75.76 E4.13334
G1 X68.162 Y76.288 E4.14682
G1 X67.604 Y76.81 E4.1604
G1 X67.214 Y77.16 E4.16972
G1 X67.074 Y77.282 E4.17302
G1 X66.642 Y77.648 E4.18308
G1 X66.488 Y77.775 E4.18663
G1 X66.057 Y78.118 E4.19642
G1 X65.892 Y78.245 E4.20012
G1 X65.461 Y78.566 E4.20968
G1 X65.263 Y78.708 E4.21401
G1 X64.83 Y79.006 E4.22335
G1 X64.628 Y79.139 E4.22765
G1 X64.198 Y79.412 E4.2367
G1 X63.538 Y79.801 E4.25032
G1 X62.859 Y80.162 E4.26399
G1 X62.144 Y80.5 E4.27805
G1 X61.421 Y80.801 E4.29197
G1 X60.642 Y81.075 E4.30665
G1 X59.941 Y81.285 E4.31966
G1 X59.432 Y81.417 E4.32901
G1 X59.005 Y81.514 E4.33679
G1 X58.495 Y81.618 E4.34604
G1 X57.981 Y81.716 E4.35534
G1 X57.15 Y81.861 E4.37034
G1 X56.569 Y81.977 E4.38087
G1 X56.033 Y82.106 E4.39067
G1 X55.424 Y82.262 E4.40185
G1 X54.796 Y82.409 E4.41331
G1 X53.898 Y82.581 E4.42956
G1 X53.137 Y82.675 E4.44319
G1 X52.778 Y82.703 E4.44959
G1 X52.231 Y82.723 E4.45932
G1 X51.428 Y82.705 E4.4736
G1 X50.703 Y82.643 E4.48654
G1 X49.972 Y82.543 E4.49965
G1 X49.356 Y82.432 E4.51078
G1 X47.942 Y82.137 E4.53646
G1 X46.399 Y81.833 E4.56441
G1 X45.824 Y81.712 E4.57486
G1 X45.228 Y81.575 E4.58573
G1 X44.626 Y81.425 E4.59675
G1 X44.027 Y81.26 E4.6078
G1 X43.466 Y81.088 E4.61823
G1 X42.892 Y80.897 E4.62898
G1 X42.232 Y80.658 E4.64146
G1 X41.746 Y80.465 E4.65076
G1 X41.192 Y80.23 E4.66145
G1 X40.966 Y80.128 E4.66586
G1 X40.484 Y79.899 E4.67535
G1 X39.96 Y79.634 E4.68579
G1 X39.688 Y79.487 E4.69128
G1 X39.25 Y79.24 E4.70022
G1 X38.763 Y78.949 E4.7103
G1 X38.419 Y78.731 E4.71754
G1 X37.948 Y78.419 E4.72759
G1 X37.348 Y77.994 E4.74066
G1 X36.752 Y77.546 E4.75391
G1 X36.2 Y77.104 E4.76648
G1 X36.075 Y77.002 E4.76935
G1 X35.642 Y76.636 E4.77943
G1 X35.502 Y76.514 E4.78273
G1 X35.024 Y76.086 E4.79413
G1 X34.535 Y75.631 E4.80601
G1 X33.958 Y75.066 E4.82036
G1 X33.394 Y74.481 E4.83481
G1 X33.156 Y74.222 E4.84106
G1 X32.757 Y73.774 E4.85172
G1 X32.63 Y73.627 E4.85518
G1 X32.256 Y73.181 E4.86552
G1 X32.112 Y73.003 E4.86959
G1 X31.764 Y72.557 E4.87965
G1 X31.614 Y72.357 E4.88409
G1 X31.292 Y71.91 E4.89389
G1 X30.948 Y71.404 E4.90476
G1 X30.442 Y70.591 E4.92178
G1 X30.301 Y70.348 E4.92678
G1 X30.054 Y69.899 E4.93589
G1 X29.785 Y69.373 E4.94639
G1 X29.392 Y68.52 E4.96308
G1 X29.065 Y67.704 E4.97871
G1 X28.897 Y67.225 E4.98773
G1 X28.726 Y66.711 E4.99736
G1 X28.469 Y65.813 E5.01397
G1 X28.311 Y65.164 E5.02584
G1 X28.174 Y64.547 E5.03708
G1 X28.147 Y64.42 E5.03938
G1 X27.9 Y63.179 E5.06188
G1 X27.774 Y62.585 E5.07267
G1 X27.708 Y62.309 E5.07771
G1 X27.574 Y61.798 E5.08711
G1 X27.33 Y60.897 E5.1037
G1 X27.197 Y60.343 E5.11383
G1 X27.056 Y59.62 E5.12692
G1 X26.954 Y58.819 E5.14127
G1 X26.918 Y58.296 E5.15059
G1 X26.908 Y57.943 E5.15687
G1 X26.919 Y57.336 E5.16766
G1 X26.942 Y56.983 E5.17395
G1 X26.994 Y56.483 E5.18289
G1 X27.094 Y55.83 E5.19463
G1 X27.256 Y55.077 E5.20832
G1 X27.427 Y54.417 E5.22044
G1 X27.586 Y53.851 E5.23089
G1 X27.733 Y53.255 E5.2418
G1 X27.816 Y52.844 E5.24926
G1 X27.928 Y52.19 E5.26105
G1 X28.07 Y51.405 E5.27523
G1 X28.194 Y50.79 E5.28638
G1 X28.412 Y49.91 E5.3025
G1 X28.613 Y49.231 E5.31509
G1 X28.899 Y48.432 E5.33017
G1 X29.191 Y47.734 E5.34362
G1 X29.542 Y47.002 E5.35805
G1 X29.932 Y46.286 E5.37255
G1 X30.342 Y45.612 E5.38657
G1 X30.463 Y45.423 E5.39056
G1 X30.744 Y45.003 E5.39954
G1 X30.87 Y44.822 E5.40346
G1 X31.172 Y44.402 E5.41266
G1 X31.315 Y44.211 E5.4169
G1 X31.638 Y43.795 E5.42626
G1 X31.752 Y43.652 E5.42951
G1 X32.095 Y43.235 E5.43911
G1 X32.207 Y43.102 E5.4422
G1 X32.569 Y42.685 E5.45202
G1 X33.099 Y42.102 E5.46602
G1 X33.59 Y41.583 E5.47872
G1 X34.154 Y41.005 E5.49308
G1 X35.082 Y40.079 E5.51638
G1 X35.572 Y39.602 E5.52854
G1 X36.029 Y39.169 E5.53973
G1 X36.165 Y39.044 E5.54301
G1 X36.546 Y38.703 E5.5521
G1 X36.688 Y38.58 E5.55544
G0 F4285.7 X36.959 Y38.901
G1 F1200 X37.377 Y38.548 E5.56517
G1 X37.551 Y38.407 E5.56915
G1 X37.971 Y38.078 E5.57863
G1 X38.187 Y37.916 E5.58343
G1 X38.61 Y37.614 E5.59267
G1 X38.82 Y37.47 E5.5972
G1 X39.249 Y37.19 E5.6063
G1 X39.749 Y36.886 E5.6167
G1 X40.535 Y36.448 E5.6327
G1 X41.22 Y36.11 E5.64628
