;START_OF_HEADER
;HEADER_VERSION:0.1
;FLAVOR:Griffin
;GENERATOR.NAME:Cura_SteamEngine
;GENERATOR.VERSION:4.12.0
;GENERATOR.BUILD_DATE:2021-11-09
;TARGET_MACHINE.NAME:Ultimaker 3 Extended
;EXTRUDER_TRAIN.0.INITIAL_TEMPERATURE:215
;EXTRUDER_TRAIN.0.MATERIAL.VOLUME_USED:11282
;EXTRUDER_TRAIN.0.MATERIAL.GUID:506c9f0d-e3aa-4bd4-b2d2-23e2425b1aa9
;EXTRUDER_TRAIN.0.NOZZLE.DIAMETER:0.8
;EXTRUDER_TRAIN.0.NOZZLE.NAME:AA 0.8
;BUILD_PLATE.TYPE:glass
;BUILD_PLATE.INITIAL_TEMPERATURE:60
;PRINT.TIME:910
;PRINT.GROUPS:1
;PRINT.SIZE.MIN.X:9
;PRINT.SIZE.MIN.Y:6
;PRINT.SIZE.MIN.Z:0.27
;PRINT.SIZE.MAX.X:80.441
;PRINT.SIZE.MAX.Y:70.642
;PRINT.SIZE.MAX.Z:102.303
;END_OF_HEADER
;Generated with Cura_SteamEngine 4.12.0
T0
M82 ;absolute extrusion mode

G92 E0
M109 S215
G0 F15000 X9 Y6 Z2
G280
G1 F1500 E-5
;LAYER_COUNT:128
;LAYER:0
M107
M204 S500
M205 X25 Y25
G1 F600 Z2.27
G0 F6666.7 X38.319 Y32.204 Z2.27
;TYPE:SKIRT
G1 F600 Z0.27
G1 F900 E0
G1 F1200 X39.683 Y30.654 E0.07865
G1 X40.182 Y30.129 E0.10624
G1 X40.515 Y29.818 E0.12359
G1 X41.892 Y28.614 E0.19327
G1 X42.207 Y28.349 E0.20895
G1 X42.768 Y27.933 E0.23555
G1 X44.497 Y26.782 E0.31467
G1 X45.005 Y26.469 E0.3374
G1 X45.492 Y26.204 E0.35852
G1 X47.159 Y25.384 E0.42928
G1 X47.491 Y25.228 E0.44326
G1 X48.159 Y24.96 E0.47067
G1 X50.129 Y24.291 E0.54992
G1 X50.738 Y24.111 E0.57411
G1 X51.236 Y23.992 E0.59361
G1 X53.059 Y23.63 E0.66441
G1 X53.456 Y23.56 E0.67977
G1 X54.142 Y23.48 E0.70607
G1 X56.222 Y23.343 E0.78548
G1 X56.815 Y23.325 E0.80807
G1 X57.358 Y23.338 E0.82876
G1 X59.193 Y23.457 E0.89881
G1 X59.622 Y23.495 E0.91521
G1 X60.299 Y23.593 E0.94127
G1 X62.342 Y23.997 E1.0206
G1 X62.931 Y24.136 E1.04365
G1 X63.455 Y24.29 E1.06445
G1 X65.187 Y24.877 E1.13411
G1 X65.548 Y25.007 E1.14873
G1 X66.226 Y25.295 E1.17679
G1 X68.092 Y26.213 E1.256
G1 X68.614 Y26.493 E1.27857
G1 X69.087 Y26.78 E1.29964
G1 X70.61 Y27.792 E1.36929
G1 X70.981 Y28.052 E1.38655
G1 X71.512 Y28.471 E1.41232
G1 X73.066 Y29.83 E1.49095
G1 X73.519 Y30.255 E1.51461
G1 X73.901 Y30.655 E1.53568
G1 X75.098 Y32.013 E1.60464
G1 X75.373 Y32.339 E1.62088
G1 X75.793 Y32.898 E1.64752
G1 X76.938 Y34.602 E1.72572
G1 X77.219 Y35.074 E1.74664
G1 X77.55 Y35.647 E1.77185
G1 X78.337 Y37.232 E1.83925
G1 X78.525 Y37.631 E1.85605
G1 X78.789 Y38.287 E1.88299
G1 X79.451 Y40.217 E1.96071
G1 X79.606 Y40.763 E1.98233
G1 X79.78 Y41.412 E2.00792
G1 X80.12 Y43.087 E2.07303
G1 X80.212 Y43.607 E2.09314
G1 X80.292 Y44.28 E2.11896
G1 X80.43 Y46.298 E2.19601
G1 X80.437 Y46.832 E2.21635
G1 X80.441 Y47.576 E2.24469
G1 X80.34 Y49.198 E2.30659
G1 X80.292 Y49.761 E2.32812
G1 X80.194 Y50.451 E2.35466
G1 X79.809 Y52.42 E2.43109
G1 X79.662 Y53 E2.45388
G1 X79.476 Y53.706 E2.48169
G1 X78.975 Y55.194 E2.5415
G1 X78.783 Y55.729 E2.56315
G1 X78.496 Y56.404 E2.59109
G1 X77.618 Y58.192 E2.66696
G1 X77.316 Y58.731 E2.6905
G1 X76.954 Y59.365 E2.71831
G1 X76.086 Y60.671 E2.77804
G1 X75.759 Y61.14 E2.79982
G1 X75.314 Y61.708 E2.8273
G1 X74.015 Y63.194 E2.90248
G1 X73.574 Y63.646 E2.92654
G1 X73.047 Y64.179 E2.95509
G1 X71.883 Y65.205 E3.01419
G1 X71.437 Y65.58 E3.03639
G1 X70.869 Y66.006 E3.06343
G1 X69.234 Y67.102 E3.13841
G1 X68.648 Y67.45 E3.16437
G1 X68.024 Y67.813 E3.19187
G1 X66.653 Y68.492 E3.25015
G1 X66.114 Y68.744 E3.27281
G1 X65.456 Y69.008 E3.29982
G1 X63.603 Y69.64 E3.37439
G1 X62.917 Y69.833 E3.40154
G1 X62.231 Y70.018 E3.4286
G1 X60.773 Y70.31 E3.48524
G1 X60.135 Y70.421 E3.50991
G1 X59.449 Y70.502 E3.53622
G1 X57.496 Y70.632 E3.61078
G1 X56.798 Y70.641 E3.63737
G1 X56.062 Y70.642 E3.66541
G1 X54.629 Y70.548 E3.72011
G1 X53.965 Y70.489 E3.7455
G1 X53.257 Y70.387 E3.77275
G1 X51.334 Y70.004 E3.84744
G1 X50.668 Y69.834 E3.87362
G1 X49.953 Y69.643 E3.90181
G1 X48.583 Y69.177 E3.95693
G1 X47.971 Y68.954 E3.98174
G1 X47.309 Y68.67 E4.00918
G1 X45.543 Y67.797 E4.08422
G1 X44.968 Y67.473 E4.10936
G1 X44.318 Y67.099 E4.13793
G1 X43.059 Y66.255 E4.19566
G1 X42.574 Y65.915 E4.21822
G1 X42.004 Y65.465 E4.24589
G1 X40.523 Y64.161 E4.32105
G1 X40.083 Y63.729 E4.34454
G1 X39.538 Y63.185 E4.37387
G1 X38.505 Y62.002 E4.43369
G1 X38.144 Y61.57 E4.45514
G1 X37.724 Y61.005 E4.48196
G1 X36.621 Y59.347 E4.55781
G1 X36.299 Y58.801 E4.58196
G1 X35.941 Y58.178 E4.60933
G1 X35.23 Y56.729 E4.67081
G1 X35.011 Y56.259 E4.69056
G1 X34.744 Y55.59 E4.71799
G1 X34.103 Y53.693 E4.79427
G1 X33.934 Y53.085 E4.81831
G1 X33.756 Y52.408 E4.84497
G1 X33.441 Y50.8 E4.90738
G1 X33.35 Y50.272 E4.92779
G1 X33.271 Y49.583 E4.95421
G1 X33.143 Y47.566 E5.0312
G1 X33.138 Y47.025 E5.0518
G1 X33.138 Y46.289 E5.07984
G1 X33.249 Y44.639 E5.14283
G1 X33.299 Y44.09 E5.16383
G1 X33.4 Y43.413 E5.1899
G1 X33.801 Y41.415 E5.26753
G1 X33.933 Y40.901 E5.28774
G1 X34.122 Y40.204 E5.31525
G1 X34.674 Y38.592 E5.38015
G1 X34.843 Y38.131 E5.39886
G1 X35.124 Y37.481 E5.42583
G1 X36.036 Y35.642 E5.50402
G1 X36.39 Y34.988 E5.53235
G1 X36.639 Y34.589 E5.55026
G1 X37.63 Y33.114 E5.61795
G1 X37.886 Y32.749 E5.63493
G1 X38.319 Y32.204 E5.66145
G0 F6666.7 X38.994 Y32.798
G1 F1200 X40.358 Y31.248 E5.7401
G1 X40.839 Y30.762 E5.76614
G1 X41.107 Y30.495 E5.78055
G1 X42.484 Y29.291 E5.85023
G1 X42.781 Y29.043 E5.86497
G1 X43.266 Y28.682 E5.888
G1 X44.995 Y27.531 E5.96711
G1 X45.468 Y27.241 E5.98825
G1 X45.889 Y27.012 E6.0065
G1 X47.678 Y26.133 E6.08243
G1 X47.87 Y26.044 E6.09049
G1 X48.449 Y25.813 E6.11424
G1 X50.419 Y25.144 E6.19349
G1 X50.979 Y24.978 E6.21573
G1 X51.412 Y24.875 E6.23269
G1 X53.235 Y24.513 E6.30348
G1 X53.607 Y24.448 E6.31787
G1 X54.202 Y24.378 E6.34069
G1 X56.282 Y24.241 E6.42009
G1 X56.829 Y24.225 E6.44094
G1 X57.3 Y24.236 E6.45888
G1 X59.135 Y24.355 E6.52893
G1 X59.538 Y24.391 E6.54434
G1 X60.125 Y24.476 E6.56693
G1 X62.168 Y24.88 E6.64626
G1 X62.712 Y25.009 E6.66756
G1 X63.166 Y25.143 E6.68559
G1 X65.015 Y25.771 E6.75997
G1 X65.241 Y25.853 E6.76913
G1 X65.828 Y26.103 E6.79343
G1 X67.694 Y27.021 E6.87264
G1 X68.179 Y27.281 E6.89361
G1 X68.589 Y27.53 E6.91188
G1 X70.112 Y28.542 E6.98153
G1 X70.459 Y28.785 E6.99767
G1 X70.919 Y29.148 E7.01999
G1 X72.473 Y30.507 E7.09862
G1 X72.894 Y30.904 E7.12067
G1 X73.226 Y31.25 E7.13893
G1 X74.423 Y32.608 E7.20789
G1 X74.682 Y32.916 E7.22322
G1 X75.046 Y33.4 E7.24628
G1 X76.191 Y35.104 E7.32448
G1 X76.538 Y35.693 E7.35052
G1 X76.744 Y36.047 E7.36612
G1 X77.531 Y37.632 E7.43353
G1 X77.709 Y38.01 E7.44945
G1 X77.938 Y38.579 E7.47281
G1 X78.6 Y40.509 E7.55053
G1 X78.783 Y41.168 E7.57658
G1 X78.898 Y41.591 E7.59328
G1 X79.238 Y43.266 E7.65839
G1 X79.325 Y43.758 E7.67742
G1 X79.394 Y44.342 E7.69982
G1 X79.532 Y46.36 E7.77687
G1 X79.539 Y47.044 E7.80292
G1 X79.543 Y47.52 E7.82105
G1 X79.442 Y49.142 E7.88296
G1 X79.395 Y49.68 E7.90353
G1 X79.31 Y50.279 E7.92657
G1 X78.925 Y52.248 E8.003
G1 X78.755 Y52.91 E8.02903
G1 X78.623 Y53.419 E8.04906
G1 X78.078 Y55.034 E8.11399
G1 X77.937 Y55.423 E8.12975
G1 X77.688 Y56.008 E8.15397
G1 X76.81 Y57.796 E8.22984
G1 X76.473 Y58.391 E8.25589
G1 X76.459 Y58.41 E8.25679
G1 X76.204 Y58.867 E8.27672
G1 X75.336 Y60.173 E8.33645
G1 X75.022 Y60.624 E8.35739
G1 X74.636 Y61.116 E8.38121
G1 X73.337 Y62.602 E8.45639
G1 X72.858 Y63.09 E8.48244
G1 X72.833 Y63.11 E8.48366
G1 X72.452 Y63.504 E8.50453
G1 X71.288 Y64.53 E8.56364
G1 X70.86 Y64.89 E8.58494
G1 X70.368 Y65.258 E8.60834
G1 X68.733 Y66.354 E8.68332
G1 X68.144 Y66.701 E8.70936
G1 X68.102 Y66.719 E8.7111
G1 X67.624 Y67.006 E8.73234
G1 X66.253 Y67.685 E8.79062
G1 X65.736 Y67.927 E8.81236
G1 X65.165 Y68.156 E8.83579
G1 X63.312 Y68.788 E8.91037
G1 X62.653 Y68.97 E8.93641
G1 X62.606 Y68.977 E8.93822
G1 X62.054 Y69.135 E8.96009
G1 X60.596 Y69.427 E9.01673
G1 X59.984 Y69.534 E9.0404
G1 X59.39 Y69.604 E9.06318
G1 X57.437 Y69.734 E9.13774
G1 X56.753 Y69.74 E9.16379
G1 X56.698 Y69.734 E9.1659
G1 X56.121 Y69.743 E9.18788
G1 X54.542 Y69.638 E9.24816
G1 X54.046 Y69.593 E9.26713
G1 X53.432 Y69.504 E9.29077
G1 X51.509 Y69.121 E9.36545
G1 X50.848 Y68.949 E9.39147
G1 X50.812 Y68.935 E9.39294
G1 X50.243 Y68.791 E9.4153
G1 X48.739 Y68.278 E9.47583
G1 X48.282 Y68.11 E9.49438
G1 X47.708 Y67.863 E9.51818
G1 X45.942 Y66.99 E9.59322
G1 X45.347 Y66.652 E9.61929
G1 X45.313 Y66.627 E9.62089
G1 X44.82 Y66.351 E9.64241
G1 X43.561 Y65.507 E9.70015
G1 X43.093 Y65.179 E9.72192
G1 X42.599 Y64.79 E9.74587
G1 X41.118 Y63.486 E9.82104
G1 X40.632 Y63.005 E9.84708
G1 X40.604 Y62.97 E9.84879
G1 X40.216 Y62.593 E9.8694
G1 X39.082 Y61.292 E9.93514
G1 X38.837 Y60.996 E9.94977
G1 X38.473 Y60.506 E9.97302
G1 X37.37 Y58.848 E10.04888
G1 X37.026 Y58.258 E10.07489
G1 X37.008 Y58.218 E10.07656
G1 X36.749 Y57.782 E10.09588
G1 X36.038 Y56.333 E10.15736
G1 X35.828 Y55.882 E10.17631
G1 X35.597 Y55.302 E10.20009
G1 X34.956 Y53.405 E10.27637
G1 X34.775 Y52.745 E10.30243
G1 X34.639 Y52.235 E10.32254
G1 X34.324 Y50.627 E10.38495
G1 X34.237 Y50.123 E10.40444
G1 X34.169 Y49.526 E10.42732
G1 X34.041 Y47.509 E10.50431
G1 X34.037 Y46.826 E10.53033
G1 X34.036 Y46.349 E10.5485
G1 X34.147 Y44.699 E10.61149
G1 X34.195 Y44.177 E10.63146
G1 X34.282 Y43.59 E10.65406
G1 X34.683 Y41.592 E10.73168
G1 X34.857 Y40.93 E10.75776
G1 X34.973 Y40.496 E10.77487
G1 X35.525 Y38.884 E10.83977
G1 X35.687 Y38.444 E10.85763
G1 X35.93 Y37.881 E10.88099
G1 X36.842 Y36.042 E10.95918
G1 X37.181 Y35.448 E10.98523
G1 X37.386 Y35.091 E11.00091
G1 X38.377 Y33.616 E11.0686
G1 X38.62 Y33.271 E11.08468
G1 X38.994 Y32.798 E11.10765
G0 F6666.7 X39.67 Y33.393
G1 F1200 X41.034 Y31.843 E11.18629
G1 X41.7 Y31.173 E11.22228
G1 X43.181 Y29.88 E11.29717
G1 X43.354 Y29.737 E11.30572
G1 X43.765 Y29.432 E11.32521
G1 X45.494 Y28.281 E11.40433
G1 X45.93 Y28.013 E11.42382
G1 X46.286 Y27.819 E11.43927
G1 X48.056 Y26.95 E11.51438
G1 X48.248 Y26.861 E11.52244
G1 X48.738 Y26.665 E11.54254
G1 X50.708 Y25.996 E11.62179
G1 X51.221 Y25.845 E11.64216
G1 X51.587 Y25.758 E11.65649
G1 X53.41 Y25.396 E11.72729
G1 X53.757 Y25.335 E11.74071
G1 X54.261 Y25.276 E11.76003
G1 X56.341 Y25.139 E11.83944
G1 X56.843 Y25.125 E11.85857
G1 X57.241 Y25.134 E11.87373
G1 X59.076 Y25.253 E11.94377
G1 X59.453 Y25.287 E11.95819
G1 X59.95 Y25.359 E11.97732
G1 X61.993 Y25.763 E12.05665
G1 X62.493 Y25.882 E12.07623
G1 X62.877 Y25.995 E12.09148
G1 X64.708 Y26.617 E12.16513
G1 X64.934 Y26.699 E12.17429
G1 X65.431 Y26.91 E12.19486
G1 X67.297 Y27.828 E12.27407
G1 X67.744 Y28.069 E12.29342
G1 X68.091 Y28.279 E12.30887
G1 X69.614 Y29.291 E12.37852
G1 X70.327 Y29.826 E12.41247
G1 X71.881 Y31.185 E12.49111
G1 X72.27 Y31.552 E12.51148
G1 X72.55 Y31.845 E12.52692
G1 X73.835 Y33.305 E12.60101
G1 X73.991 Y33.492 E12.61028
G1 X74.299 Y33.902 E12.62982
G1 X75.444 Y35.606 E12.70802
G1 X75.938 Y36.448 E12.7452
G1 X76.725 Y38.033 E12.81261
G1 X76.892 Y38.39 E12.82762
G1 X77.086 Y38.871 E12.84738
G1 X77.748 Y40.801 E12.9251
G1 X78.016 Y41.77 E12.96339
G1 X78.356 Y43.445 E13.0285
G1 X78.496 Y44.403 E13.06538
G1 X78.634 Y46.421 E13.14243
G1 X78.644 Y47.464 E13.18216
G1 X78.543 Y49.086 E13.24406
G1 X78.499 Y49.599 E13.26367
G1 X78.427 Y50.106 E13.28318
G1 X78.042 Y52.075 E13.3596
G1 X77.945 Y52.46 E13.37473
G1 X77.77 Y53.132 E13.40118
G1 X77.232 Y54.727 E13.4653
G1 X77.091 Y55.116 E13.48106
G1 X76.88 Y55.611 E13.50155
G1 X76.002 Y57.399 E13.57743
G1 X75.786 Y57.79 E13.59444
G1 X75.455 Y58.369 E13.61985
G1 X74.587 Y59.675 E13.67958
G1 X74.285 Y60.107 E13.69966
G1 X73.959 Y60.524 E13.71982
G1 X72.66 Y62.01 E13.795
G1 X72.338 Y62.341 E13.81259
G1 X71.857 Y62.828 E13.83867
G1 X70.593 Y63.941 E13.90282
G1 X70.284 Y64.199 E13.91815
G1 X69.867 Y64.511 E13.93799
G1 X68.232 Y65.607 E14.01297
G1 X67.225 Y66.2 E14.05748
G1 X65.854 Y66.879 E14.11576
G1 X65.357 Y67.111 E14.13665
G1 X64.875 Y67.304 E14.15643
G1 X63.022 Y67.936 E14.23101
G1 X61.877 Y68.253 E14.27626
G1 X60.419 Y68.545 E14.3329
G1 X59.833 Y68.647 E14.35556
G1 X59.33 Y68.706 E14.37485
G1 X57.377 Y68.836 E14.44941
G1 X56.18 Y68.845 E14.495
G1 X54.624 Y68.742 E14.5544
G1 X54.128 Y68.697 E14.57337
G1 X53.608 Y68.622 E14.59339
G1 X51.685 Y68.239 E14.66807
G1 X51.206 Y68.117 E14.6869
G1 X50.533 Y67.939 E14.71342
G1 X49.049 Y67.433 E14.77314
G1 X48.592 Y67.265 E14.79169
G1 X48.106 Y67.056 E14.81184
G1 X46.34 Y66.183 E14.88688
G1 X45.925 Y65.95 E14.90501
G1 X45.321 Y65.604 E14.93152
G1 X44.062 Y64.76 E14.98926
G1 X43.612 Y64.444 E15.01021
G1 X43.194 Y64.114 E15.03049
G1 X41.713 Y62.81 E15.10566
G1 X40.893 Y62.001 E15.14953
G1 X39.86 Y60.818 E15.20936
G1 X39.531 Y60.422 E15.22897
G1 X39.223 Y60.008 E15.24862
G1 X38.12 Y58.35 E15.32448
G1 X37.557 Y57.386 E15.367
G1 X36.846 Y55.937 E15.42848
G1 X36.645 Y55.504 E15.44667
G1 X36.449 Y55.014 E15.46677
G1 X35.808 Y53.117 E15.54304
G1 X35.522 Y52.062 E15.58468
G1 X35.207 Y50.454 E15.64709
G1 X35.125 Y49.974 E15.66564
G1 X35.067 Y49.469 E15.68501
G1 X34.939 Y47.452 E15.76199
G1 X34.934 Y46.41 E15.80168
G1 X35.045 Y44.76 E15.86468
G1 X35.091 Y44.264 E15.88365
G1 X35.165 Y43.767 E15.90279
G1 X35.566 Y41.769 E15.98041
G1 X35.825 Y40.787 E16.0191
G1 X36.419 Y39.056 E16.08881
G1 X36.53 Y38.757 E16.10096
G1 X36.736 Y38.281 E16.12071
G1 X37.648 Y36.442 E16.19891
G1 X38.133 Y35.592 E16.23618
G1 X39.124 Y34.117 E16.30387
G1 X39.353 Y33.793 E16.31898
G1 X39.67 Y33.393 E16.33843
G0 F6666.7 X40.346 Y33.987
G1 F1200 X41.71 Y32.437 E16.41707
G1 X42.292 Y31.85 E16.44856
G1 X43.669 Y30.646 E16.51823
G1 X44.264 Y30.181 E16.547
G1 X45.993 Y29.03 E16.62612
G1 X46.683 Y28.627 E16.65656
G1 X48.35 Y27.807 E16.72732
G1 X49.028 Y27.517 E16.75541
G1 X50.998 Y26.848 E16.83466
G1 X51.762 Y26.641 E16.86481
G1 X53.696 Y26.258 E16.93991
G1 X54.32 Y26.174 E16.96389
G1 X56.4 Y26.037 E17.04329
G1 X57.183 Y26.032 E17.07312
G1 X59.018 Y26.151 E17.14316
G1 X59.776 Y26.242 E17.17225
G1 X61.819 Y26.646 E17.25157
G1 X62.588 Y26.847 E17.28185
G1 X64.401 Y27.463 E17.35479
G1 X65.034 Y27.718 E17.38078
G1 X66.9 Y28.636 E17.46
G1 X67.592 Y29.029 E17.49031
G1 X69.115 Y30.041 E17.55996
G1 X69.734 Y30.503 E17.58938
G1 X71.288 Y31.862 E17.66802
G1 X71.875 Y32.44 E17.6994
G1 X73.072 Y33.798 E17.76835
G1 X73.552 Y34.404 E17.7978
G1 X74.697 Y36.108 E17.876
G1 X75.131 Y36.848 E17.90868
G1 X75.963 Y38.526 E17.98002
G1 X76.235 Y39.163 E18.00641
G1 X76.897 Y41.093 E18.08413
G1 X77.134 Y41.949 E18.11796
G1 X77.474 Y43.624 E18.18306
G1 X77.599 Y44.465 E18.21545
G1 X77.737 Y46.483 E18.2925
G1 X77.746 Y47.408 E18.32773
G1 X77.637 Y49.141 E18.39388
G1 X77.544 Y49.933 E18.42425
G1 X77.159 Y51.902 E18.50068
G1 X77.039 Y52.401 E18.52022
G1 X76.917 Y52.844 E18.53773
G1 X76.386 Y54.42 E18.60108
G1 X76.072 Y55.214 E18.6336
G1 X75.194 Y57.002 E18.70947
G1 X74.927 Y57.494 E18.7308
G1 X74.705 Y57.871 E18.74746
G1 X73.837 Y59.177 E18.8072
G1 X73.548 Y59.591 E18.82643
G1 X73.281 Y59.931 E18.84289
G1 X71.982 Y61.417 E18.91808
G1 X71.584 Y61.836 E18.94009
G1 X71.262 Y62.153 E18.9573
G1 X70.016 Y63.25 E19.02054
G1 X69.366 Y63.763 E19.05208
G1 X67.731 Y64.859 E19.12706
G1 X67.225 Y65.166 E19.1496
G1 X66.825 Y65.393 E19.16712
G1 X65.359 Y66.118 E19.22942
G1 X64.584 Y66.452 E19.26156
G1 X62.731 Y67.084 E19.33614
G1 X62.15 Y67.253 E19.35919
G1 X61.7 Y67.37 E19.3769
G1 X60.242 Y67.662 E19.43354
G1 X59.681 Y67.759 E19.45522
G1 X59.27 Y67.808 E19.47099
G1 X57.317 Y67.938 E19.54555
G1 X56.707 Y67.951 E19.56879
G1 X56.239 Y67.947 E19.58662
G1 X54.705 Y67.845 E19.64518
G1 X53.784 Y67.739 E19.68049
G1 X51.861 Y67.356 E19.75518
G1 X51.267 Y67.211 E19.77847
G1 X50.823 Y67.087 E19.79603
G1 X49.36 Y66.588 E19.85491
G1 X48.505 Y66.25 E19.88993
G1 X46.739 Y65.377 E19.96497
G1 X46.219 Y65.091 E19.98758
G1 X45.822 Y64.856 E20.00515
G1 X44.563 Y64.012 E20.06289
G1 X44.131 Y63.708 E20.08301
G1 X43.789 Y63.439 E20.09958
G1 X42.308 Y62.135 E20.17475
G1 X41.906 Y61.749 E20.19597
G1 X41.571 Y61.409 E20.21416
G1 X40.538 Y60.226 E20.27398
G1 X39.972 Y59.509 E20.30877
G1 X38.869 Y57.851 E20.38463
G1 X38.593 Y57.393 E20.405
G1 X38.365 Y56.989 E20.42267
G1 X37.613 Y55.454 E20.48778
G1 X37.302 Y54.725 E20.51797
G1 X36.661 Y52.828 E20.59424
G1 X36.406 Y51.889 E20.6313
G1 X36.071 Y50.172 E20.69794
G1 X35.965 Y49.412 E20.72717
G1 X35.837 Y47.395 E20.80416
G1 X35.832 Y46.47 E20.83939
G1 X35.943 Y44.82 E20.90238
G1 X36.047 Y43.944 E20.93599
G1 X36.448 Y41.946 E21.01361
G1 X36.676 Y41.079 E21.04776
G1 X37.263 Y39.369 E21.11662
G1 X37.543 Y38.681 E21.14492
