DEF Bulba ( )

;FOLD INI;%{PE}
;FOLD BASISTECH INI
GLOBAL INTERRUPT DECL 3 WHEN $STOPMESS==TRUE DO IR_STOPM ( )
INTERRUPT ON 3 
BAS (#INITMOV,0 )
;ENDFOLD (BASISTECH INI)
;FOLD USER INI
;ENDFOLD (USER INI)
;ENDFOLD (INI)

$ADVANCE=5
$OUT[16]=FALSE
;FOLD PTP HOME  Vel= 100% DEFAULT
$BWDSTART= FALSE
FDAT_ACT= {TOOL_NO 11, BASE_NO 1, IPO_FRAME #BASE}
BAS(#PTP_PARAMS,100 )
$H_POS=XHOME
PTP XHOME
;ENDFOLD

PTP {X 9.0,Y 6.0,Z 22.0,A 0,B 135,C 0}
$VEL.CP = 0.09
WAIT FOR ($IN[10])
$OUT[16]=TRUE
LIN {X 9.0,Y 6.0,Z 2.0} C_VEL
LIN {X 9.0,Y 6.0,Z 2.0} C_VEL
LIN {X 9.0,Y 6.0,Z 2.4} C_VEL
LIN {X 30.635,Y 33.996,Z 0.4} C_VEL
LIN {X 30.635,Y 33.996,Z 0.4} C_VEL
LIN {X 31.24,Y 33.539,Z 0.4} C_VEL
LIN {X 31.89,Y 33.148,Z 0.4} C_VEL
LIN {X 32.578,Y 32.827,Z 0.4} C_VEL
LIN {X 33.295,Y 32.581,Z 0.4} C_VEL
LIN {X 34.035,Y 32.411,Z 0.4} C_VEL
LIN {X 34.788,Y 32.32,Z 0.4} C_VEL
LIN {X 35.547,Y 32.309,Z 0.4} C_VEL
LIN {X 36.302,Y 32.378,Z 0.4} C_VEL
LIN {X 36.369,Y 32.391,Z 0.4} C_VEL
LIN {X 36.454,Y 32.326,Z 0.4} C_VEL
LIN {X 37.102,Y 31.93,Z 0.4} C_VEL
LIN {X 37.787,Y 31.605,Z 0.4} C_VEL
LIN {X 38.503,Y 31.353,Z 0.4} C_VEL
LIN {X 39.241,Y 31.179,Z 0.4} C_VEL
LIN {X 39.994,Y 31.083,Z 0.4} C_VEL
LIN {X 41.093,Y 31.085,Z 0.4} C_VEL
LIN {X 41.258,Y 31.098,Z 0.4} C_VEL
LIN {X 42.01,Y 31.198,Z 0.4} C_VEL
LIN {X 42.747,Y 31.376,Z 0.4} C_VEL
LIN {X 43.462,Y 31.63,Z 0.4} C_VEL
LIN {X 44.146,Y 31.958,Z 0.4} C_VEL
LIN {X 44.431,Y 32.134,Z 0.4} C_VEL
LIN {X 44.837,Y 32.104,Z 0.4} C_VEL
LIN {X 45.654,Y 32.134,Z 0.4} C_VEL
LIN {X 45.75,Y 32.143,Z 0.4} C_VEL
LIN {X 46.501,Y 32.254,Z 0.4} C_VEL
LIN {X 47.235,Y 32.443,Z 0.4} C_VEL
LIN {X 47.946,Y 32.708,Z 0.4} C_VEL
LIN {X 48.625,Y 33.046,Z 0.4} C_VEL
LIN {X 49.265,Y 33.455,Z 0.4} C_VEL
LIN {X 49.858,Y 33.928,Z 0.4} C_VEL
LIN {X 50.398,Y 34.46,Z 0.4} C_VEL
LIN {X 50.879,Y 35.047,Z 0.4} C_VEL
LIN {X 51.296,Y 35.681,Z 0.4} C_VEL
LIN {X 51.643,Y 36.356,Z 0.4} C_VEL
LIN {X 51.918,Y 37.063,Z 0.4} C_VEL
LIN {X 52.116,Y 37.795,Z 0.4} C_VEL
LIN {X 52.237,Y 38.544,Z 0.4} C_VEL
LIN {X 52.276,Y 39.139,Z 0.4} C_VEL
LIN {X 52.356,Y 42.446,Z 0.4} C_VEL
LIN {X 54.135,Y 42.452,Z 0.4} C_VEL
LIN {X 54.433,Y 42.387,Z 0.4} C_VEL
LIN {X 55.187,Y 42.303,Z 0.4} C_VEL
LIN {X 55.945,Y 42.299,Z 0.4} C_VEL
LIN {X 56.7,Y 42.375,Z 0.4} C_VEL
LIN {X 57.069,Y 42.452,Z 0.4} C_VEL
LIN {X 58.853,Y 42.446,Z 0.4} C_VEL
LIN {X 58.932,Y 39.139,Z 0.4} C_VEL
LIN {X 58.99,Y 38.383,Z 0.4} C_VEL
LIN {X 59.127,Y 37.636,Z 0.4} C_VEL
LIN {X 59.343,Y 36.909,Z 0.4} C_VEL
LIN {X 59.633,Y 36.208,Z 0.4} C_VEL
LIN {X 59.996,Y 35.542,Z 0.4} C_VEL
LIN {X 60.426,Y 34.917,Z 0.4} C_VEL
LIN {X 60.92,Y 34.341,Z 0.4} C_VEL
LIN {X 61.472,Y 33.821,Z 0.4} C_VEL
LIN {X 62.076,Y 33.361,Z 0.4} C_VEL
LIN {X 62.724,Y 32.967,Z 0.4} C_VEL
LIN {X 63.411,Y 32.644,Z 0.4} C_VEL
LIN {X 64.127,Y 32.395,Z 0.4} C_VEL
LIN {X 64.866,Y 32.223,Z 0.4} C_VEL
LIN {X 65.617,Y 32.129,Z 0.4} C_VEL
LIN {X 65.715,Y 32.122,Z 0.4} C_VEL
LIN {X 66.474,Y 32.108,Z 0.4} C_VEL
LIN {X 66.778,Y 32.135,Z 0.4} C_VEL
LIN {X 67.164,Y 31.904,Z 0.4} C_VEL
LIN {X 67.853,Y 31.587,Z 0.4} C_VEL
LIN {X 68.571,Y 31.343,Z 0.4} C_VEL
LIN {X 69.312,Y 31.177,Z 0.4} C_VEL
LIN {X 70.04,Y 31.091,Z 0.4} C_VEL
LIN {X 70.205,Y 31.08,Z 0.4} C_VEL
LIN {X 70.964,Y 31.069,Z 0.4} C_VEL
LIN {X 71.719,Y 31.139,Z 0.4} C_VEL
LIN {X 72.463,Y 31.287,Z 0.4} C_VEL
LIN {X 73.187,Y 31.513,Z 0.4} C_VEL
LIN {X 73.884,Y 31.814,Z 0.4} C_VEL
LIN {X 74.545,Y 32.187,Z 0.4} C_VEL
LIN {X 74.84,Y 32.397,Z 0.4} C_VEL
LIN {X 75.124,Y 32.35,Z 0.4} C_VEL
LIN {X 75.881,Y 32.304,Z 0.4} C_VEL
LIN {X 76.639,Y 32.338,Z 0.4} C_VEL
LIN {X 77.389,Y 32.452,Z 0.4} C_VEL
LIN {X 78.123,Y 32.644,Z 0.4} C_VEL
LIN {X 78.833,Y 32.912,Z 0.4} C_VEL
LIN {X 79.51,Y 33.253,Z 0.4} C_VEL
LIN {X 80.148,Y 33.664,Z 0.4} C_VEL
LIN {X 80.739,Y 34.14,Z 0.4} C_VEL
LIN {X 81.277,Y 34.675,Z 0.4} C_VEL
LIN {X 81.756,Y 35.263,Z 0.4} C_VEL
LIN {X 82.17,Y 35.899,Z 0.4} C_VEL
LIN {X 82.514,Y 36.575,Z 0.4} C_VEL
LIN {X 82.715,Y 37.076,Z 0.4} C_VEL
LIN {X 84.145,Y 41.066,Z 0.4} C_VEL
LIN {X 84.442,Y 41.584,Z 0.4} C_VEL
LIN {X 84.748,Y 42.278,Z 0.4} C_VEL
LIN {X 84.947,Y 42.881,Z 0.4} C_VEL
LIN {X 88.519,Y 55.557,Z 0.4} C_VEL
LIN {X 88.686,Y 56.297,Z 0.4} C_VEL
LIN {X 88.774,Y 57.051,Z 0.4} C_VEL
LIN {X 88.783,Y 57.809,Z 0.4} C_VEL
LIN {X 88.711,Y 58.565,Z 0.4} C_VEL
LIN {X 88.561,Y 59.308,Z 0.4} C_VEL
LIN {X 88.333,Y 60.032,Z 0.4} C_VEL
LIN {X 88.03,Y 60.728,Z 0.4} C_VEL
LIN {X 87.685,Y 61.335,Z 0.4} C_VEL
LIN {X 88.336,Y 61.629,Z 0.4} C_VEL
LIN {X 88.448,Y 61.69,Z 0.4} C_VEL
LIN {X 89.094,Y 62.087,Z 0.4} C_VEL
LIN {X 89.695,Y 62.551,Z 0.4} C_VEL
LIN {X 90.244,Y 63.075,Z 0.4} C_VEL
LIN {X 90.5,Y 63.377,Z 0.4} C_VEL
LIN {X 91.119,Y 63.454,Z 0.4} C_VEL
LIN {X 91.858,Y 63.626,Z 0.4} C_VEL
LIN {X 92.575,Y 63.875,Z 0.4} C_VEL
LIN {X 93.261,Y 64.198,Z 0.4} C_VEL
LIN {X 93.717,Y 64.465,Z 0.4} C_VEL
LIN {X 93.802,Y 64.519,Z 0.4} C_VEL
LIN {X 94.42,Y 64.959,Z 0.4} C_VEL
LIN {X 94.988,Y 65.461,Z 0.4} C_VEL
LIN {X 95.501,Y 66.021,Z 0.4} C_VEL
LIN {X 95.951,Y 66.631,Z 0.4} C_VEL
LIN {X 96.335,Y 67.286,Z 0.4} C_VEL
LIN {X 96.648,Y 67.977,Z 0.4} C_VEL
LIN {X 96.886,Y 68.697,Z 0.4} C_VEL
LIN {X 97.047,Y 69.439,Z 0.4} C_VEL
LIN {X 97.13,Y 70.193,Z 0.4} C_VEL
LIN {X 97.132,Y 70.951,Z 0.4} C_VEL
LIN {X 97.055,Y 71.706,Z 0.4} C_VEL
LIN {X 96.82,Y 72.722,Z 0.4} C_VEL
LIN {X 93.266,Y 84.222,Z 0.4} C_VEL
LIN {X 93.175,Y 84.786,Z 0.4} C_VEL
LIN {X 92.976,Y 85.518,Z 0.4} C_VEL
LIN {X 92.701,Y 86.225,Z 0.4} C_VEL
LIN {X 92.352,Y 86.899,Z 0.4} C_VEL
LIN {X 91.935,Y 87.533,Z 0.4} C_VEL
LIN {X 91.454,Y 88.119,Z 0.4} C_VEL
LIN {X 90.913,Y 88.651,Z 0.4} C_VEL
LIN {X 90.192,Y 89.213,Z 0.4} C_VEL
LIN {X 75.201,Y 99.427,Z 0.4} C_VEL
LIN {X 74.552,Y 99.821,Z 0.4} C_VEL
LIN {X 74.028,Y 100.076,Z 0.4} C_VEL
LIN {X 73.76,Y 100.193,Z 0.4} C_VEL
LIN {X 73.049,Y 100.459,Z 0.4} C_VEL
LIN {X 72.315,Y 100.649,Z 0.4} C_VEL
LIN {X 71.565,Y 100.761,Z 0.4} C_VEL
LIN {X 70.807,Y 100.794,Z 0.4} C_VEL
LIN {X 70.049,Y 100.746,Z 0.4} C_VEL
LIN {X 68.991,Y 100.542,Z 0.4} C_VEL
LIN {X 55.605,Y 96.905,Z 0.4} C_VEL
LIN {X 42.218,Y 100.542,Z 0.4} C_VEL
LIN {X 41.476,Y 100.702,Z 0.4} C_VEL
LIN {X 40.722,Y 100.783,Z 0.4} C_VEL
LIN {X 39.963,Y 100.785,Z 0.4} C_VEL
LIN {X 39.208,Y 100.706,Z 0.4} C_VEL
LIN {X 38.466,Y 100.549,Z 0.4} C_VEL
LIN {X 37.449,Y 100.193,Z 0.4} C_VEL
LIN {X 37.181,Y 100.076,Z 0.4} C_VEL
LIN {X 36.503,Y 99.736,Z 0.4} C_VEL
LIN {X 35.928,Y 99.372,Z 0.4} C_VEL
LIN {X 35.825,Y 99.3,Z 0.4} C_VEL
LIN {X 21.019,Y 89.214,Z 0.4} C_VEL
LIN {X 20.415,Y 88.754,Z 0.4} C_VEL
LIN {X 19.863,Y 88.233,Z 0.4} C_VEL
LIN {X 19.369,Y 87.658,Z 0.4} C_VEL
LIN {X 18.938,Y 87.033,Z 0.4} C_VEL
LIN {X 18.575,Y 86.367,Z 0.4} C_VEL
LIN {X 18.285,Y 85.666,Z 0.4} C_VEL
LIN {X 18.07,Y 84.938,Z 0.4} C_VEL
LIN {X 17.947,Y 84.238,Z 0.4} C_VEL
LIN {X 14.388,Y 72.721,Z 0.4} C_VEL
LIN {X 14.202,Y 71.985,Z 0.4} C_VEL
LIN {X 14.095,Y 71.234,Z 0.4} C_VEL
LIN {X 14.068,Y 70.476,Z 0.4} C_VEL
LIN {X 14.12,Y 69.719,Z 0.4} C_VEL
LIN {X 14.252,Y 68.972,Z 0.4} C_VEL
LIN {X 14.462,Y 68.243,Z 0.4} C_VEL
LIN {X 14.747,Y 67.54,Z 0.4} C_VEL
LIN {X 15.105,Y 66.871,Z 0.4} C_VEL
LIN {X 15.531,Y 66.243,Z 0.4} C_VEL
LIN {X 16.021,Y 65.664,Z 0.4} C_VEL
LIN {X 16.569,Y 65.139,Z 0.4} C_VEL
LIN {X 17.169,Y 64.675,Z 0.4} C_VEL
LIN {X 17.628,Y 64.382,Z 0.4} C_VEL
LIN {X 18.297,Y 64.024,Z 0.4} C_VEL
LIN {X 19.0,Y 63.739,Z 0.4} C_VEL
LIN {X 19.729,Y 63.529,Z 0.4} C_VEL
LIN {X 20.476,Y 63.397,Z 0.4} C_VEL
LIN {X 20.703,Y 63.381,Z 0.4} C_VEL
LIN {X 20.972,Y 63.065,Z 0.4} C_VEL
LIN {X 21.521,Y 62.542,Z 0.4} C_VEL
LIN {X 22.123,Y 62.08,Z 0.4} C_VEL
LIN {X 22.916,Y 61.605,Z 0.4} C_VEL
LIN {X 23.029,Y 61.547,Z 0.4} C_VEL
LIN {X 23.517,Y 61.329,Z 0.4} C_VEL
LIN {X 23.494,Y 61.296,Z 0.4} C_VEL
LIN {X 23.13,Y 60.63,Z 0.4} C_VEL
LIN {X 22.838,Y 59.93,Z 0.4} C_VEL
LIN {X 22.621,Y 59.203,Z 0.4} C_VEL
LIN {X 22.481,Y 58.457,Z 0.4} C_VEL
LIN {X 22.422,Y 57.701,Z 0.4} C_VEL
LIN {X 22.441,Y 56.943,Z 0.4} C_VEL
LIN {X 22.541,Y 56.19,Z 0.4} C_VEL
LIN {X 22.689,Y 55.558,Z 0.4} C_VEL
LIN {X 26.262,Y 42.881,Z 0.4} C_VEL
LIN {X 26.506,Y 42.162,Z 0.4} C_VEL
LIN {X 26.824,Y 41.474,Z 0.4} C_VEL
LIN {X 27.061,Y 41.076,Z 0.4} C_VEL
LIN {X 28.494,Y 37.076,Z 0.4} C_VEL
LIN {X 28.787,Y 36.377,Z 0.4} C_VEL
LIN {X 29.152,Y 35.711,Z 0.4} C_VEL
LIN {X 29.585,Y 35.089,Z 0.4} C_VEL
LIN {X 30.081,Y 34.515,Z 0.4} C_VEL
LIN {X 30.514,Y 34.109,Z 0.4} C_VEL
LIN {X 32.024,Y 34.176,Z 0.4} C_VEL
LIN {X 32.647,Y 33.843,Z 0.4} C_VEL
LIN {X 33.304,Y 33.583,Z 0.4} C_VEL
LIN {X 33.985,Y 33.398,Z 0.4} C_VEL
LIN {X 34.683,Y 33.292,Z 0.4} C_VEL
LIN {X 35.389,Y 33.265,Z 0.4} C_VEL
LIN {X 36.093,Y 33.318,Z 0.4} C_VEL
LIN {X 36.601,Y 33.415,Z 0.4} C_VEL
LIN {X 36.626,Y 33.393,Z 0.4} C_VEL
LIN {X 37.201,Y 32.983,Z 0.4} C_VEL
LIN {X 37.819,Y 32.641,Z 0.4} C_VEL
LIN {X 38.472,Y 32.371,Z 0.4} C_VEL
LIN {X 39.151,Y 32.177,Z 0.4} C_VEL
LIN {X 39.847,Y 32.06,Z 0.4} C_VEL
LIN {X 40.553,Y 32.023,Z 0.4} C_VEL
LIN {X 41.182,Y 32.055,Z 0.4} C_VEL
LIN {X 41.882,Y 32.151,Z 0.4} C_VEL
LIN {X 42.566,Y 32.324,Z 0.4} C_VEL
LIN {X 43.227,Y 32.574,Z 0.4} C_VEL
LIN {X 43.855,Y 32.897,Z 0.4} C_VEL
LIN {X 44.193,Y 33.122,Z 0.4} C_VEL
LIN {X 44.444,Y 33.086,Z 0.4} C_VEL
LIN {X 45.149,Y 33.065,Z 0.4} C_VEL
LIN {X 45.66,Y 33.099,Z 0.4} C_VEL
LIN {X 46.359,Y 33.205,Z 0.4} C_VEL
LIN {X 47.041,Y 33.389,Z 0.4} C_VEL
LIN {X 47.697,Y 33.648,Z 0.4} C_VEL
LIN {X 48.321,Y 33.981,Z 0.4} C_VEL
LIN {X 48.902,Y 34.381,Z 0.4} C_VEL
LIN {X 49.435,Y 34.845,Z 0.4} C_VEL
LIN {X 49.912,Y 35.366,Z 0.4} C_VEL
LIN {X 50.327,Y 35.937,Z 0.4} C_VEL
LIN {X 50.675,Y 36.552,Z 0.4} C_VEL
LIN {X 50.951,Y 37.202,Z 0.4} C_VEL
LIN {X 51.151,Y 37.879,Z 0.4} C_VEL
LIN {X 51.274,Y 38.575,Z 0.4} C_VEL
LIN {X 51.316,Y 39.162,Z 0.4} C_VEL
LIN {X 51.418,Y 43.402,Z 0.4} C_VEL
LIN {X 54.228,Y 43.413,Z 0.4} C_VEL
LIN {X 54.734,Y 43.312,Z 0.4} C_VEL
LIN {X 55.438,Y 43.253,Z 0.4} C_VEL
LIN {X 56.143,Y 43.274,Z 0.4} C_VEL
LIN {X 56.843,Y 43.375,Z 0.4} C_VEL
LIN {X 56.985,Y 43.412,Z 0.4} C_VEL
LIN {X 59.791,Y 43.402,Z 0.4} C_VEL
LIN {X 59.892,Y 39.162,Z 0.4} C_VEL
LIN {X 59.949,Y 38.458,Z 0.4} C_VEL
LIN {X 60.085,Y 37.765,Z 0.4} C_VEL
LIN {X 60.298,Y 37.092,Z 0.4} C_VEL
LIN {X 60.586,Y 36.447,Z 0.4} C_VEL
LIN {X 60.945,Y 35.839,Z 0.4} C_VEL
LIN {X 61.371,Y 35.275,Z 0.4} C_VEL
LIN {X 61.857,Y 34.763,Z 0.4} C_VEL
LIN {X 62.399,Y 34.31,Z 0.4} C_VEL
LIN {X 62.988,Y 33.92,Z 0.4} C_VEL
LIN {X 63.617,Y 33.599,Z 0.4} C_VEL
LIN {X 64.279,Y 33.352,Z 0.4} C_VEL
LIN {X 64.964,Y 33.181,Z 0.4} C_VEL
LIN {X 65.685,Y 33.087,Z 0.4} C_VEL
LIN {X 65.783,Y 33.08,Z 0.4} C_VEL
LIN {X 66.49,Y 33.069,Z 0.4} C_VEL
LIN {X 67.018,Y 33.122,Z 0.4} C_VEL
LIN {X 67.293,Y 32.933,Z 0.4} C_VEL
LIN {X 67.918,Y 32.603,Z 0.4} C_VEL
LIN {X 68.575,Y 32.345,Z 0.4} C_VEL
LIN {X 69.258,Y 32.164,Z 0.4} C_VEL
LIN {X 70.104,Y 32.049,Z 0.4} C_VEL
LIN {X 70.269,Y 32.038,Z 0.4} C_VEL
LIN {X 70.975,Y 32.031,Z 0.4} C_VEL
LIN {X 71.678,Y 32.104,Z 0.4} C_VEL
LIN {X 72.367,Y 32.255,Z 0.4} C_VEL
LIN {X 73.036,Y 32.484,Z 0.4} C_VEL
LIN {X 73.674,Y 32.787,Z 0.4} C_VEL
LIN {X 74.273,Y 33.16,Z 0.4} C_VEL
LIN {X 74.596,Y 33.416,Z 0.4} C_VEL
LIN {X 74.727,Y 33.382,Z 0.4} C_VEL
LIN {X 75.426,Y 33.285,Z 0.4} C_VEL
LIN {X 76.132,Y 33.267,Z 0.4} C_VEL
LIN {X 76.836,Y 33.329,Z 0.4} C_VEL
LIN {X 77.528,Y 33.47,Z 0.4} C_VEL
LIN {X 78.2,Y 33.689,Z 0.4} C_VEL
LIN {X 78.842,Y 33.982,Z 0.4} C_VEL
LIN {X 79.448,Y 34.345,Z 0.4} C_VEL
LIN {X 80.008,Y 34.775,Z 0.4} C_VEL
LIN {X 80.516,Y 35.265,Z 0.4} C_VEL
LIN {X 80.966,Y 35.81,Z 0.4} C_VEL
LIN {X 81.351,Y 36.402,Z 0.4} C_VEL
LIN {X 81.667,Y 37.034,Z 0.4} C_VEL
LIN {X 81.811,Y 37.399,Z 0.4} C_VEL
LIN {X 83.276,Y 41.489,Z 0.4} C_VEL
LIN {X 83.361,Y 41.613,Z 0.4} C_VEL
LIN {X 83.691,Y 42.238,Z 0.4} C_VEL
LIN {X 84.023,Y 43.142,Z 0.4} C_VEL
LIN {X 87.595,Y 55.818,Z 0.4} C_VEL
LIN {X 87.748,Y 56.507,Z 0.4} C_VEL
LIN {X 87.822,Y 57.209,Z 0.4} C_VEL
LIN {X 87.816,Y 57.916,Z 0.4} C_VEL
LIN {X 87.73,Y 58.617,Z 0.4} C_VEL
LIN {X 87.566,Y 59.304,Z 0.4} C_VEL
LIN {X 87.325,Y 59.967,Z 0.4} C_VEL
LIN {X 87.01,Y 60.6,Z 0.4} C_VEL
LIN {X 86.626,Y 61.193,Z 0.4} C_VEL
LIN {X 86.178,Y 61.738,Z 0.4} C_VEL
LIN {X 86.084,Y 61.829,Z 0.4} C_VEL
LIN {X 86.724,Y 61.987,Z 0.4} C_VEL
LIN {X 87.386,Y 62.232,Z 0.4} C_VEL
LIN {X 87.877,Y 62.472,Z 0.4} C_VEL
LIN {X 87.989,Y 62.533,Z 0.4} C_VEL
LIN {X 88.589,Y 62.905,Z 0.4} C_VEL
LIN {X 89.143,Y 63.343,Z 0.4} C_VEL
LIN {X 89.644,Y 63.841,Z 0.4} C_VEL
LIN {X 90.023,Y 64.313,Z 0.4} C_VEL
LIN {X 90.493,Y 64.335,Z 0.4} C_VEL
LIN {X 91.19,Y 64.446,Z 0.4} C_VEL
LIN {X 91.871,Y 64.636,Z 0.4} C_VEL
LIN {X 92.525,Y 64.902,Z 0.4} C_VEL
LIN {X 93.202,Y 65.275,Z 0.4} C_VEL
LIN {X 93.287,Y 65.329,Z 0.4} C_VEL
LIN {X 93.861,Y 65.741,Z 0.4} C_VEL
LIN {X 94.384,Y 66.215,Z 0.4} C_VEL
LIN {X 94.851,Y 66.745,Z 0.4} C_VEL
LIN {X 95.255,Y 67.325,Z 0.4} C_VEL
LIN {X 95.59,Y 67.946,Z 0.4} C_VEL
LIN {X 95.854,Y 68.601,Z 0.4} C_VEL
LIN {X 96.041,Y 69.282,Z 0.4} C_VEL
LIN {X 96.151,Y 69.98,Z 0.4} C_VEL
LIN {X 96.18,Y 70.686,Z 0.4} C_VEL
LIN {X 96.13,Y 71.39,Z 0.4} C_VEL
LIN {X 96.001,Y 72.084,Z 0.4} C_VEL
LIN {X 95.903,Y 72.438,Z 0.4} C_VEL
LIN {X 92.332,Y 83.993,Z 0.4} C_VEL
LIN {X 92.226,Y 84.63,Z 0.4} C_VEL
LIN {X 92.033,Y 85.31,Z 0.4} C_VEL
LIN {X 91.764,Y 85.963,Z 0.4} C_VEL
LIN {X 91.423,Y 86.581,Z 0.4} C_VEL
LIN {X 91.014,Y 87.157,Z 0.4} C_VEL
LIN {X 90.543,Y 87.683,Z 0.4} C_VEL
LIN {X 90.015,Y 88.152,Z 0.4} C_VEL
LIN {X 89.652,Y 88.42,Z 0.4} C_VEL
LIN {X 74.661,Y 98.634,Z 0.4} C_VEL
LIN {X 74.055,Y 98.998,Z 0.4} C_VEL
LIN {X 73.376,Y 99.313,Z 0.4} C_VEL
LIN {X 72.713,Y 99.558,Z 0.4} C_VEL
LIN {X 72.028,Y 99.727,Z 0.4} C_VEL
LIN {X 71.327,Y 99.818,Z 0.4} C_VEL
LIN {X 70.621,Y 99.829,Z 0.4} C_VEL
LIN {X 69.918,Y 99.76,Z 0.4} C_VEL
LIN {X 69.243,Y 99.616,Z 0.4} C_VEL
LIN {X 55.605,Y 95.91,Z 0.4} C_VEL
LIN {X 41.966,Y 99.616,Z 0.4} C_VEL
LIN {X 41.275,Y 99.762,Z 0.4} C_VEL
LIN {X 40.572,Y 99.829,Z 0.4} C_VEL
LIN {X 39.866,Y 99.817,Z 0.4} C_VEL
LIN {X 39.166,Y 99.724,Z 0.4} C_VEL
LIN {X 38.48,Y 99.554,Z 0.4} C_VEL
LIN {X 37.833,Y 99.313,Z 0.4} C_VEL
LIN {X 37.565,Y 99.196,Z 0.4} C_VEL
LIN {X 36.935,Y 98.877,Z 0.4} C_VEL
LIN {X 36.479,Y 98.586,Z 0.4} C_VEL
LIN {X 36.335,Y 98.485,Z 0.4} C_VEL
LIN {X 21.559,Y 88.42,Z 0.4} C_VEL
LIN {X 20.999,Y 87.99,Z 0.4} C_VEL
LIN {X 20.491,Y 87.5,Z 0.4} C_VEL
LIN {X 20.041,Y 86.955,Z 0.4} C_VEL
LIN {X 19.656,Y 86.363,Z 0.4} C_VEL
LIN {X 19.341,Y 85.731,Z 0.4} C_VEL
LIN {X 19.099,Y 85.067,Z 0.4} C_VEL
LIN {X 18.933,Y 84.381,Z 0.4} C_VEL
LIN {X 18.875,Y 83.99,Z 0.4} C_VEL
LIN {X 15.305,Y 72.437,Z 0.4} C_VEL
LIN {X 15.135,Y 71.752,Z 0.4} C_VEL
LIN {X 15.044,Y 71.052,Z 0.4} C_VEL
LIN {X 15.032,Y 70.345,Z 0.4} C_VEL
LIN {X 15.1,Y 69.642,Z 0.4} C_VEL
LIN {X 15.247,Y 68.952,Z 0.4} C_VEL
LIN {X 15.472,Y 68.282,Z 0.4} C_VEL
LIN {X 15.77,Y 67.642,Z 0.4} C_VEL
LIN {X 16.139,Y 67.04,Z 0.4} C_VEL
LIN {X 16.574,Y 66.483,Z 0.4} C_VEL
LIN {X 17.068,Y 65.979,Z 0.4} C_VEL
LIN {X 17.617,Y 65.534,Z 0.4} C_VEL
LIN {X 18.038,Y 65.255,Z 0.4} C_VEL
LIN {X 18.124,Y 65.203,Z 0.4} C_VEL
LIN {X 18.748,Y 64.873,Z 0.4} C_VEL
LIN {X 19.406,Y 64.615,Z 0.4} C_VEL
LIN {X 20.088,Y 64.433,Z 0.4} C_VEL
LIN {X 20.787,Y 64.329,Z 0.4} C_VEL
LIN {X 21.188,Y 64.315,Z 0.4} C_VEL
LIN {X 21.364,Y 64.072,Z 0.4} C_VEL
LIN {X 21.84,Y 63.551,Z 0.4} C_VEL
LIN {X 22.372,Y 63.086,Z 0.4} C_VEL
LIN {X 22.953,Y 62.685,Z 0.4} C_VEL
LIN {X 23.468,Y 62.402,Z 0.4} C_VEL
LIN {X 24.113,Y 62.115,Z 0.4} C_VEL
LIN {X 24.787,Y 61.903,Z 0.4} C_VEL
LIN {X 25.133,Y 61.836,Z 0.4} C_VEL
LIN {X 24.982,Y 61.686,Z 0.4} C_VEL
LIN {X 24.54,Y 61.136,Z 0.4} C_VEL
LIN {X 24.163,Y 60.539,Z 0.4} C_VEL
LIN {X 23.855,Y 59.903,Z 0.4} C_VEL
LIN {X 23.622,Y 59.236,Z 0.4} C_VEL
LIN {X 23.466,Y 58.547,Z 0.4} C_VEL
LIN {X 23.388,Y 57.845,Z 0.4} C_VEL
LIN {X 23.39,Y 57.139,Z 0.4} C_VEL
LIN {X 23.472,Y 56.438,Z 0.4} C_VEL
LIN {X 23.613,Y 55.818,Z 0.4} C_VEL
LIN {X 27.186,Y 43.141,Z 0.4} C_VEL
LIN {X 27.416,Y 42.473,Z 0.4} C_VEL
LIN {X 27.72,Y 41.836,Z 0.4} C_VEL
LIN {X 27.928,Y 41.502,Z 0.4} C_VEL
LIN {X 29.397,Y 37.4,Z 0.4} C_VEL
LIN {X 29.673,Y 36.75,Z 0.4} C_VEL
LIN {X 30.02,Y 36.135,Z 0.4} C_VEL
LIN {X 30.434,Y 35.563,Z 0.4} C_VEL
LIN {X 30.911,Y 35.041,Z 0.4} C_VEL
LIN {X 31.318,Y 34.686,Z 0.4} C_VEL
LIN {X 32.242,Y 35.18,Z 0.4} C_VEL
LIN {X 32.795,Y 34.841,Z 0.4} C_VEL
LIN {X 33.387,Y 34.572,Z 0.4} C_VEL
LIN {X 34.007,Y 34.378,Z 0.4} C_VEL
LIN {X 34.646,Y 34.261,Z 0.4} C_VEL
LIN {X 35.294,Y 34.224,Z 0.4} C_VEL
LIN {X 35.943,Y 34.267,Z 0.4} C_VEL
LIN {X 36.581,Y 34.389,Z 0.4} C_VEL
LIN {X 36.852,Y 34.476,Z 0.4} C_VEL
LIN {X 36.893,Y 34.432,Z 0.4} C_VEL
LIN {X 37.391,Y 34.015,Z 0.4} C_VEL
LIN {X 37.937,Y 33.662,Z 0.4} C_VEL
LIN {X 38.521,Y 33.379,Z 0.4} C_VEL
LIN {X 39.136,Y 33.169,Z 0.4} C_VEL
LIN {X 39.772,Y 33.037,Z 0.4} C_VEL
LIN {X 40.42,Y 32.984,Z 0.4} C_VEL
LIN {X 40.942,Y 32.999,Z 0.4} C_VEL
LIN {X 41.107,Y 33.012,Z 0.4} C_VEL
LIN {X 41.75,Y 33.103,Z 0.4} C_VEL
LIN {X 42.377,Y 33.272,Z 0.4} C_VEL
LIN {X 42.979,Y 33.517,Z 0.4} C_VEL
LIN {X 43.546,Y 33.834,Z 0.4} C_VEL
LIN {X 43.954,Y 34.133,Z 0.4} C_VEL
LIN {X 44.14,Y 34.091,Z 0.4} C_VEL
LIN {X 44.786,Y 34.027,Z 0.4} C_VEL
LIN {X 45.475,Y 34.046,Z 0.4} C_VEL
LIN {X 45.571,Y 34.055,Z 0.4} C_VEL
LIN {X 46.213,Y 34.155,Z 0.4} C_VEL
LIN {X 46.837,Y 34.334,Z 0.4} C_VEL
LIN {X 47.435,Y 34.587,Z 0.4} C_VEL
LIN {X 47.998,Y 34.913,Z 0.4} C_VEL
LIN {X 48.516,Y 35.305,Z 0.4} C_VEL
LIN {X 48.982,Y 35.757,Z 0.4} C_VEL
LIN {X 49.389,Y 36.263,Z 0.4} C_VEL
LIN {X 49.731,Y 36.816,Z 0.4} C_VEL
LIN {X 50.002,Y 37.406,Z 0.4} C_VEL
LIN {X 50.199,Y 38.025,Z 0.4} C_VEL
LIN {X 50.318,Y 38.664,Z 0.4} C_VEL
LIN {X 50.356,Y 39.185,Z 0.4} C_VEL
LIN {X 50.481,Y 44.358,Z 0.4} C_VEL
LIN {X 54.32,Y 44.373,Z 0.4} C_VEL
LIN {X 54.383,Y 44.354,Z 0.4} C_VEL
LIN {X 55.023,Y 44.243,Z 0.4} C_VEL
LIN {X 55.672,Y 44.211,Z 0.4} C_VEL
LIN {X 56.32,Y 44.26,Z 0.4} C_VEL
LIN {X 56.885,Y 44.373,Z 0.4} C_VEL
LIN {X 60.728,Y 44.359,Z 0.4} C_VEL
LIN {X 60.852,Y 39.185,Z 0.4} C_VEL
LIN {X 60.907,Y 38.538,Z 0.4} C_VEL
LIN {X 61.041,Y 37.902,Z 0.4} C_VEL
LIN {X 61.253,Y 37.288,Z 0.4} C_VEL
LIN {X 61.538,Y 36.704,Z 0.4} C_VEL
LIN {X 61.893,Y 36.16,Z 0.4} C_VEL
LIN {X 62.312,Y 35.664,Z 0.4} C_VEL
LIN {X 62.789,Y 35.222,Z 0.4} C_VEL
LIN {X 63.316,Y 34.843,Z 0.4} C_VEL
LIN {X 63.886,Y 34.531,Z 0.4} C_VEL
LIN {X 64.49,Y 34.292,Z 0.4} C_VEL
LIN {X 65.119,Y 34.129,Z 0.4} C_VEL
LIN {X 65.754,Y 34.044,Z 0.4} C_VEL
LIN {X 65.852,Y 34.037,Z 0.4} C_VEL
LIN {X 66.501,Y 34.031,Z 0.4} C_VEL
LIN {X 67.147,Y 34.105,Z 0.4} C_VEL
LIN {X 67.261,Y 34.133,Z 0.4} C_VEL
LIN {X 67.507,Y 33.939,Z 0.4} C_VEL
LIN {X 68.062,Y 33.602,Z 0.4} C_VEL
LIN {X 68.654,Y 33.335,Z 0.4} C_VEL
LIN {X 69.275,Y 33.144,Z 0.4} C_VEL
LIN {X 70.168,Y 33.007,Z 0.4} C_VEL
LIN {X 70.333,Y 32.996,Z 0.4} C_VEL
LIN {X 70.982,Y 32.992,Z 0.4} C_VEL
LIN {X 71.627,Y 33.069,Z 0.4} C_VEL
LIN {X 72.258,Y 33.224,Z 0.4} C_VEL
LIN {X 72.865,Y 33.456,Z 0.4} C_VEL
LIN {X 73.439,Y 33.76,Z 0.4} C_VEL
LIN {X 73.971,Y 34.132,Z 0.4} C_VEL
LIN {X 74.35,Y 34.473,Z 0.4} C_VEL
LIN {X 74.434,Y 34.442,Z 0.4} C_VEL
LIN {X 75.067,Y 34.296,Z 0.4} C_VEL
LIN {X 75.713,Y 34.229,Z 0.4} C_VEL
LIN {X 76.362,Y 34.241,Z 0.4} C_VEL
LIN {X 77.005,Y 34.333,Z 0.4} C_VEL
LIN {X 77.632,Y 34.504,Z 0.4} C_VEL
LIN {X 78.234,Y 34.75,Z 0.4} C_VEL
LIN {X 78.8,Y 35.068,Z 0.4} C_VEL
LIN {X 79.323,Y 35.453,Z 0.4} C_VEL
LIN {X 79.795,Y 35.899,Z 0.4} C_VEL
LIN {X 80.208,Y 36.4,Z 0.4} C_VEL
LIN {X 80.557,Y 36.948,Z 0.4} C_VEL
LIN {X 80.908,Y 37.723,Z 0.4} C_VEL
LIN {X 82.414,Y 41.927,Z 0.4} C_VEL
LIN {X 82.643,Y 42.289,Z 0.4} C_VEL
LIN {X 82.921,Y 42.876,Z 0.4} C_VEL
LIN {X 83.099,Y 43.402,Z 0.4} C_VEL
LIN {X 86.671,Y 56.078,Z 0.4} C_VEL
LIN {X 86.808,Y 56.713,Z 0.4} C_VEL
LIN {X 86.867,Y 57.36,Z 0.4} C_VEL
LIN {X 86.845,Y 58.009,Z 0.4} C_VEL
LIN {X 86.744,Y 58.651,Z 0.4} C_VEL
LIN {X 86.565,Y 59.275,Z 0.4} C_VEL
LIN {X 86.311,Y 59.873,Z 0.4} C_VEL
LIN {X 85.985,Y 60.435,Z 0.4} C_VEL
LIN {X 85.592,Y 60.953,Z 0.4} C_VEL
LIN {X 85.139,Y 61.418,Z 0.4} C_VEL
LIN {X 84.633,Y 61.825,Z 0.4} C_VEL
LIN {X 84.08,Y 62.166,Z 0.4} C_VEL
LIN {X 83.208,Y 62.579,Z 0.4} C_VEL
LIN {X 83.494,Y 62.866,Z 0.4} C_VEL
LIN {X 83.593,Y 62.834,Z 0.4} C_VEL
LIN {X 84.232,Y 62.713,Z 0.4} C_VEL
LIN {X 84.88,Y 62.672,Z 0.4} C_VEL
LIN {X 85.528,Y 62.71,Z 0.4} C_VEL
LIN {X 86.167,Y 62.828,Z 0.4} C_VEL
LIN {X 86.787,Y 63.024,Z 0.4} C_VEL
LIN {X 87.417,Y 63.315,Z 0.4} C_VEL
LIN {X 87.529,Y 63.376,Z 0.4} C_VEL
LIN {X 88.08,Y 63.721,Z 0.4} C_VEL
LIN {X 88.583,Y 64.132,Z 0.4} C_VEL
LIN {X 89.033,Y 64.6,Z 0.4} C_VEL
LIN {X 89.422,Y 65.121,Z 0.4} C_VEL
LIN {X 89.514,Y 65.282,Z 0.4} C_VEL
LIN {X 89.954,Y 65.263,Z 0.4} C_VEL
LIN {X 90.602,Y 65.315,Z 0.4} C_VEL
LIN {X 91.238,Y 65.446,Z 0.4} C_VEL
LIN {X 91.853,Y 65.654,Z 0.4} C_VEL
LIN {X 92.687,Y 66.085,Z 0.4} C_VEL
LIN {X 92.772,Y 66.139,Z 0.4} C_VEL
LIN {X 93.298,Y 66.521,Z 0.4} C_VEL
LIN {X 93.773,Y 66.964,Z 0.4} C_VEL
LIN {X 94.19,Y 67.462,Z 0.4} C_VEL
LIN {X 94.543,Y 68.007,Z 0.4} C_VEL
LIN {X 94.826,Y 68.592,Z 0.4} C_VEL
LIN {X 95.035,Y 69.207,Z 0.4} C_VEL
LIN {X 95.167,Y 69.843,Z 0.4} C_VEL
LIN {X 95.22,Y 70.491,Z 0.4} C_VEL
LIN {X 95.193,Y 71.14,Z 0.4} C_VEL
LIN {X 95.086,Y 71.781,Z 0.4} C_VEL
LIN {X 94.986,Y 72.155,Z 0.4} C_VEL
LIN {X 91.392,Y 83.785,Z 0.4} C_VEL
LIN {X 91.387,Y 83.831,Z 0.4} C_VEL
LIN {X 91.278,Y 84.471,Z 0.4} C_VEL
LIN {X 91.091,Y 85.093,Z 0.4} C_VEL
LIN {X 90.829,Y 85.687,Z 0.4} C_VEL
LIN {X 90.495,Y 86.245,Z 0.4} C_VEL
LIN {X 90.096,Y 86.757,Z 0.4} C_VEL
LIN {X 89.637,Y 87.217,Z 0.4} C_VEL
LIN {X 89.111,Y 87.626,Z 0.4} C_VEL
LIN {X 74.12,Y 97.84,Z 0.4} C_VEL
LIN {X 73.562,Y 98.173,Z 0.4} C_VEL
LIN {X 72.992,Y 98.433,Z 0.4} C_VEL
LIN {X 72.381,Y 98.656,Z 0.4} C_VEL
LIN {X 71.748,Y 98.802,Z 0.4} C_VEL
LIN {X 71.102,Y 98.869,Z 0.4} C_VEL
LIN {X 70.453,Y 98.857,Z 0.4} C_VEL
LIN {X 69.495,Y 98.689,Z 0.4} C_VEL
LIN {X 55.605,Y 94.915,Z 0.4} C_VEL
LIN {X 41.714,Y 98.689,Z 0.4} C_VEL
LIN {X 41.078,Y 98.821,Z 0.4} C_VEL
LIN {X 40.431,Y 98.873,Z 0.4} C_VEL
LIN {X 39.782,Y 98.845,Z 0.4} C_VEL
LIN {X 39.141,Y 98.738,Z 0.4} C_VEL
LIN {X 38.217,Y 98.433,Z 0.4} C_VEL
LIN {X 37.949,Y 98.316,Z 0.4} C_VEL
LIN {X 37.371,Y 98.02,Z 0.4} C_VEL
LIN {X 36.926,Y 97.727,Z 0.4} C_VEL
LIN {X 22.099,Y 87.627,Z 0.4} C_VEL
LIN {X 21.586,Y 87.229,Z 0.4} C_VEL
LIN {X 21.125,Y 86.771,Z 0.4} C_VEL
LIN {X 20.725,Y 86.259,Z 0.4} C_VEL
LIN {X 20.39,Y 85.703,Z 0.4} C_VEL
LIN {X 20.125,Y 85.109,Z 0.4} C_VEL
LIN {X 19.936,Y 84.488,Z 0.4} C_VEL
LIN {X 19.825,Y 83.848,Z 0.4} C_VEL
LIN {X 19.819,Y 83.793,Z 0.4} C_VEL
LIN {X 16.222,Y 72.154,Z 0.4} C_VEL
LIN {X 16.069,Y 71.523,Z 0.4} C_VEL
LIN {X 15.995,Y 70.877,Z 0.4} C_VEL
LIN {X 16.0,Y 70.228,Z 0.4} C_VEL
LIN {X 16.085,Y 69.584,Z 0.4} C_VEL
LIN {X 16.248,Y 68.955,Z 0.4} C_VEL
LIN {X 16.488,Y 68.351,Z 0.4} C_VEL
LIN {X 16.799,Y 67.781,Z 0.4} C_VEL
LIN {X 17.179,Y 67.254,Z 0.4} C_VEL
LIN {X 17.62,Y 66.777,Z 0.4} C_VEL
LIN {X 18.116,Y 66.358,Z 0.4} C_VEL
LIN {X 18.535,Y 66.077,Z 0.4} C_VEL
LIN {X 18.621,Y 66.025,Z 0.4} C_VEL
LIN {X 19.197,Y 65.723,Z 0.4} C_VEL
LIN {X 19.805,Y 65.495,Z 0.4} C_VEL
LIN {X 20.436,Y 65.343,Z 0.4} C_VEL
LIN {X 21.082,Y 65.27,Z 0.4} C_VEL
LIN {X 21.699,Y 65.277,Z 0.4} C_VEL
LIN {X 21.845,Y 65.032,Z 0.4} C_VEL
LIN {X 22.244,Y 64.519,Z 0.4} C_VEL
LIN {X 22.702,Y 64.059,Z 0.4} C_VEL
LIN {X 23.214,Y 63.659,Z 0.4} C_VEL
LIN {X 23.793,Y 63.314,Z 0.4} C_VEL
LIN {X 23.906,Y 63.256,Z 0.4} C_VEL
LIN {X 24.501,Y 62.995,Z 0.4} C_VEL
LIN {X 25.124,Y 62.81,Z 0.4} C_VEL
LIN {X 25.764,Y 62.702,Z 0.4} C_VEL
LIN {X 26.413,Y 62.674,Z 0.4} C_VEL
LIN {X 27.061,Y 62.726,Z 0.4} C_VEL
LIN {X 27.697,Y 62.857,Z 0.4} C_VEL
LIN {X 27.998,Y 62.578,Z 0.4} C_VEL
LIN {X 27.478,Y 62.331,Z 0.4} C_VEL
LIN {X 27.051,Y 62.125,Z 0.4} C_VEL
LIN {X 26.504,Y 61.774,Z 0.4} C_VEL
LIN {X 26.004,Y 61.36,Z 0.4} C_VEL
LIN {X 25.559,Y 60.886,Z 0.4} C_VEL
LIN {X 25.175,Y 60.362,Z 0.4} C_VEL
LIN {X 24.859,Y 59.795,Z 0.4} C_VEL
LIN {X 24.614,Y 59.193,Z 0.4} C_VEL
LIN {X 24.445,Y 58.566,Z 0.4} C_VEL
LIN {X 24.355,Y 57.923,Z 0.4} C_VEL
LIN {X 24.344,Y 57.273,Z 0.4} C_VEL
LIN {X 24.414,Y 56.627,Z 0.4} C_VEL
LIN {X 24.537,Y 56.079,Z 0.4} C_VEL
LIN {X 28.11,Y 43.402,Z 0.4} C_VEL
LIN {X 28.324,Y 42.788,Z 0.4} C_VEL
LIN {X 28.612,Y 42.206,Z 0.4} C_VEL
LIN {X 28.795,Y 41.929,Z 0.4} C_VEL
LIN {X 30.301,Y 37.724,Z 0.4} C_VEL
LIN {X 30.557,Y 37.127,Z 0.4} C_VEL
LIN {X 30.885,Y 36.566,Z 0.4} C_VEL
LIN {X 31.279,Y 36.049,Z 0.4} C_VEL
LIN {X 31.618,Y 35.703,Z 0.4} C_VEL
LIN {X 33.028,Y 35.813,Z 0.4} C_VEL
LIN {X 33.549,Y 35.542,Z 0.4} C_VEL
LIN {X 34.103,Y 35.345,Z 0.4} C_VEL
LIN {X 34.678,Y 35.225,Z 0.4} C_VEL
LIN {X 35.264,Y 35.184,Z 0.4} C_VEL
LIN {X 35.85,Y 35.223,Z 0.4} C_VEL
LIN {X 36.426,Y 35.341,Z 0.4} C_VEL
LIN {X 36.98,Y 35.536,Z 0.4} C_VEL
LIN {X 37.128,Y 35.612,Z 0.4} C_VEL
LIN {X 37.264,Y 35.432,Z 0.4} C_VEL
LIN {X 37.678,Y 35.015,Z 0.4} C_VEL
LIN {X 38.146,Y 34.659,Z 0.4} C_VEL
LIN {X 38.657,Y 34.369,Z 0.4} C_VEL
LIN {X 39.202,Y 34.151,Z 0.4} C_VEL
LIN {X 39.772,Y 34.009,Z 0.4} C_VEL
LIN {X 40.357,Y 33.946,Z 0.4} C_VEL
LIN {X 40.866,Y 33.956,Z 0.4} C_VEL
LIN {X 41.031,Y 33.969,Z 0.4} C_VEL
LIN {X 41.613,Y 34.055,Z 0.4} C_VEL
LIN {X 42.177,Y 34.219,Z 0.4} C_VEL
LIN {X 42.713,Y 34.458,Z 0.4} C_VEL
LIN {X 43.213,Y 34.768,Z 0.4} C_VEL
LIN {X 43.666,Y 35.142,Z 0.4} C_VEL
LIN {X 43.706,Y 35.186,Z 0.4} C_VEL
LIN {X 43.937,Y 35.111,Z 0.4} C_VEL
LIN {X 44.516,Y 35.008,Z 0.4} C_VEL
LIN {X 45.385,Y 35.002,Z 0.4} C_VEL
LIN {X 45.481,Y 35.011,Z 0.4} C_VEL
LIN {X 46.061,Y 35.105,Z 0.4} C_VEL
LIN {X 46.623,Y 35.278,Z 0.4} C_VEL
LIN {X 47.156,Y 35.525,Z 0.4} C_VEL
LIN {X 47.651,Y 35.842,Z 0.4} C_VEL
LIN {X 48.098,Y 36.223,Z 0.4} C_VEL
LIN {X 48.489,Y 36.661,Z 0.4} C_VEL
LIN {X 48.817,Y 37.148,Z 0.4} C_VEL
LIN {X 49.076,Y 37.676,Z 0.4} C_VEL
LIN {X 49.261,Y 38.233,Z 0.4} C_VEL
LIN {X 49.369,Y 38.811,Z 0.4} C_VEL
LIN {X 49.397,Y 39.208,Z 0.4} C_VEL
LIN {X 49.545,Y 45.33,Z 0.4} C_VEL
LIN {X 49.865,Y 45.316,Z 0.4} C_VEL
LIN {X 54.468,Y 45.334,Z 0.4} C_VEL
LIN {X 54.715,Y 45.264,Z 0.4} C_VEL
LIN {X 55.296,Y 45.182,Z 0.4} C_VEL
LIN {X 55.884,Y 45.18,Z 0.4} C_VEL
LIN {X 56.466,Y 45.258,Z 0.4} C_VEL
LIN {X 56.739,Y 45.333,Z 0.4} C_VEL
LIN {X 61.345,Y 45.317,Z 0.4} C_VEL
LIN {X 61.665,Y 45.338,Z 0.4} C_VEL
LIN {X 61.811,Y 39.208,Z 0.4} C_VEL
LIN {X 61.865,Y 38.623,Z 0.4} C_VEL
LIN {X 61.998,Y 38.05,Z 0.4} C_VEL
LIN {X 62.207,Y 37.501,Z 0.4} C_VEL
LIN {X 62.489,Y 36.986,Z 0.4} C_VEL
LIN {X 62.838,Y 36.513,Z 0.4} C_VEL
LIN {X 63.248,Y 36.093,Z 0.4} C_VEL
LIN {X 63.712,Y 35.731,Z 0.4} C_VEL
LIN {X 64.22,Y 35.436,Z 0.4} C_VEL
LIN {X 64.763,Y 35.213,Z 0.4} C_VEL
LIN {X 65.332,Y 35.065,Z 0.4} C_VEL
LIN {X 65.92,Y 34.995,Z 0.4} C_VEL
LIN {X 66.508,Y 34.993,Z 0.4} C_VEL
LIN {X 67.09,Y 35.071,Z 0.4} C_VEL
LIN {X 67.51,Y 35.187,Z 0.4} C_VEL
LIN {X 67.808,Y 34.911,Z 0.4} C_VEL
LIN {X 68.29,Y 34.574,Z 0.4} C_VEL
LIN {X 68.813,Y 34.306,Z 0.4} C_VEL
LIN {X 69.367,Y 34.111,Z 0.4} C_VEL
LIN {X 70.232,Y 33.965,Z 0.4} C_VEL
LIN {X 70.397,Y 33.954,Z 0.4} C_VEL
LIN {X 70.984,Y 33.954,Z 0.4} C_VEL
LIN {X 71.566,Y 34.035,Z 0.4} C_VEL
LIN {X 72.132,Y 34.194,Z 0.4} C_VEL
LIN {X 72.671,Y 34.428,Z 0.4} C_VEL
LIN {X 73.173,Y 34.733,Z 0.4} C_VEL
LIN {X 73.629,Y 35.103,Z 0.4} C_VEL
LIN {X 74.031,Y 35.532,Z 0.4} C_VEL
LIN {X 74.086,Y 35.61,Z 0.4} C_VEL
LIN {X 74.26,Y 35.523,Z 0.4} C_VEL
LIN {X 74.815,Y 35.332,Z 0.4} C_VEL
LIN {X 75.392,Y 35.219,Z 0.4} C_VEL
LIN {X 75.978,Y 35.184,Z 0.4} C_VEL
LIN {X 76.564,Y 35.23,Z 0.4} C_VEL
LIN {X 77.138,Y 35.354,Z 0.4} C_VEL
LIN {X 77.69,Y 35.556,Z 0.4} C_VEL
LIN {X 78.21,Y 35.83,Z 0.4} C_VEL
LIN {X 78.687,Y 36.172,Z 0.4} C_VEL
LIN {X 79.114,Y 36.576,Z 0.4} C_VEL
LIN {X 79.482,Y 37.035,Z 0.4} C_VEL
LIN {X 79.784,Y 37.538,Z 0.4} C_VEL
LIN {X 80.004,Y 38.047,Z 0.4} C_VEL
LIN {X 81.547,Y 42.354,Z 0.4} C_VEL
LIN {X 81.614,Y 42.441,Z 0.4} C_VEL
LIN {X 81.905,Y 42.951,Z 0.4} C_VEL
LIN {X 82.175,Y 43.662,Z 0.4} C_VEL
LIN {X 85.747,Y 56.338,Z 0.4} C_VEL
LIN {X 85.868,Y 56.913,Z 0.4} C_VEL
LIN {X 85.909,Y 57.499,Z 0.4} C_VEL
LIN {X 85.87,Y 58.086,Z 0.4} C_VEL
LIN {X 85.753,Y 58.661,Z 0.4} C_VEL
LIN {X 85.558,Y 59.216,Z 0.4} C_VEL
LIN {X 85.29,Y 59.738,Z 0.4} C_VEL
LIN {X 84.953,Y 60.22,Z 0.4} C_VEL
LIN {X 84.554,Y 60.651,Z 0.4} C_VEL
LIN {X 84.101,Y 61.025,Z 0.4} C_VEL
LIN {X 83.601,Y 61.333,Z 0.4} C_VEL
LIN {X 83.226,Y 61.508,Z 0.4} C_VEL
LIN {X 81.219,Y 62.459,Z 0.4} C_VEL
LIN {X 81.731,Y 62.694,Z 0.4} C_VEL
LIN {X 82.226,Y 63.01,Z 0.4} C_VEL
LIN {X 82.674,Y 63.39,Z 0.4} C_VEL
LIN {X 83.067,Y 63.827,Z 0.4} C_VEL
LIN {X 83.175,Y 63.998,Z 0.4} C_VEL
LIN {X 83.376,Y 63.907,Z 0.4} C_VEL
LIN {X 83.939,Y 63.739,Z 0.4} C_VEL
LIN {X 84.519,Y 63.648,Z 0.4} C_VEL
LIN {X 85.107,Y 63.637,Z 0.4} C_VEL
LIN {X 85.69,Y 63.706,Z 0.4} C_VEL
LIN {X 86.259,Y 63.854,Z 0.4} C_VEL
LIN {X 86.958,Y 64.158,Z 0.4} C_VEL
LIN {X 87.07,Y 64.219,Z 0.4} C_VEL
LIN {X 87.566,Y 64.535,Z 0.4} C_VEL
LIN {X 88.014,Y 64.914,Z 0.4} C_VEL
LIN {X 88.407,Y 65.352,Z 0.4} C_VEL
LIN {X 88.736,Y 65.838,Z 0.4} C_VEL
LIN {X 88.973,Y 66.316,Z 0.4} C_VEL
LIN {X 89.517,Y 66.235,Z 0.4} C_VEL
LIN {X 90.105,Y 66.229,Z 0.4} C_VEL
LIN {X 90.688,Y 66.303,Z 0.4} C_VEL
LIN {X 91.255,Y 66.455,Z 0.4} C_VEL
LIN {X 91.797,Y 66.683,Z 0.4} C_VEL
LIN {X 92.258,Y 66.95,Z 0.4} C_VEL
LIN {X 92.731,Y 67.298,Z 0.4} C_VEL
LIN {X 93.153,Y 67.707,Z 0.4} C_VEL
LIN {X 93.515,Y 68.169,Z 0.4} C_VEL
LIN {X 93.811,Y 68.677,Z 0.4} C_VEL
LIN {X 94.036,Y 69.22,Z 0.4} C_VEL
LIN {X 94.185,Y 69.788,Z 0.4} C_VEL
LIN {X 94.255,Y 70.371,Z 0.4} C_VEL
LIN {X 94.246,Y 70.959,Z 0.4} C_VEL
LIN {X 94.157,Y 71.539,Z 0.4} C_VEL
LIN {X 94.068,Y 71.872,Z 0.4} C_VEL
LIN {X 90.448,Y 83.585,Z 0.4} C_VEL
LIN {X 90.433,Y 83.727,Z 0.4} C_VEL
LIN {X 90.33,Y 84.306,Z 0.4} C_VEL
LIN {X 90.15,Y 84.865,Z 0.4} C_VEL
LIN {X 89.895,Y 85.395,Z 0.4} C_VEL
LIN {X 89.572,Y 85.885,Z 0.4} C_VEL
LIN {X 89.184,Y 86.326,Z 0.4} C_VEL
LIN {X 88.57,Y 86.833,Z 0.4} C_VEL
LIN {X 73.579,Y 97.047,Z 0.4} C_VEL
LIN {X 72.875,Y 97.436,Z 0.4} C_VEL
LIN {X 72.607,Y 97.553,Z 0.4} C_VEL
LIN {X 72.054,Y 97.751,Z 0.4} C_VEL
LIN {X 71.479,Y 97.872,Z 0.4} C_VEL
LIN {X 70.893,Y 97.914,Z 0.4} C_VEL
LIN {X 70.307,Y 97.876,Z 0.4} C_VEL
LIN {X 69.746,Y 97.763,Z 0.4} C_VEL
LIN {X 55.605,Y 93.921,Z 0.4} C_VEL
LIN {X 41.463,Y 97.763,Z 0.4} C_VEL
LIN {X 40.886,Y 97.878,Z 0.4} C_VEL
LIN {X 40.3,Y 97.914,Z 0.4} C_VEL
LIN {X 39.714,Y 97.87,Z 0.4} C_VEL
LIN {X 39.14,Y 97.747,Z 0.4} C_VEL
LIN {X 38.602,Y 97.553,Z 0.4} C_VEL
LIN {X 38.334,Y 97.436,Z 0.4} C_VEL
LIN {X 37.581,Y 97.014,Z 0.4} C_VEL
LIN {X 37.437,Y 96.913,Z 0.4} C_VEL
LIN {X 22.64,Y 86.833,Z 0.4} C_VEL
LIN {X 22.178,Y 86.47,Z 0.4} C_VEL
LIN {X 21.77,Y 86.048,Z 0.4} C_VEL
LIN {X 21.422,Y 85.574,Z 0.4} C_VEL
LIN {X 21.142,Y 85.057,Z 0.4} C_VEL
LIN {X 20.935,Y 84.508,Z 0.4} C_VEL
LIN {X 20.779,Y 83.742,Z 0.4} C_VEL
LIN {X 20.762,Y 83.593,Z 0.4} C_VEL
LIN {X 17.14,Y 71.871,Z 0.4} C_VEL
LIN {X 17.005,Y 71.299,Z 0.4} C_VEL
LIN {X 16.949,Y 70.714,Z 0.4} C_VEL
LIN {X 16.972,Y 70.127,Z 0.4} C_VEL
LIN {X 17.076,Y 69.548,Z 0.4} C_VEL
LIN {X 17.256,Y 68.989,Z 0.4} C_VEL
LIN {X 17.511,Y 68.46,Z 0.4} C_VEL
LIN {X 17.836,Y 67.97,Z 0.4} C_VEL
LIN {X 18.224,Y 67.529,Z 0.4} C_VEL
LIN {X 18.668,Y 67.144,Z 0.4} C_VEL
LIN {X 19.118,Y 66.846,Z 0.4} C_VEL
LIN {X 19.64,Y 66.577,Z 0.4} C_VEL
LIN {X 20.194,Y 66.381,Z 0.4} C_VEL
LIN {X 20.769,Y 66.263,Z 0.4} C_VEL
LIN {X 21.356,Y 66.223,Z 0.4} C_VEL
LIN {X 21.942,Y 66.263,Z 0.4} C_VEL
LIN {X 22.236,Y 66.324,Z 0.4} C_VEL
LIN {X 22.418,Y 65.931,Z 0.4} C_VEL
LIN {X 22.735,Y 65.436,Z 0.4} C_VEL
LIN {X 23.116,Y 64.989,Z 0.4} C_VEL
LIN {X 23.555,Y 64.598,Z 0.4} C_VEL
LIN {X 24.231,Y 64.168,Z 0.4} C_VEL
LIN {X 24.344,Y 64.11,Z 0.4} C_VEL
LIN {X 24.884,Y 63.878,Z 0.4} C_VEL
LIN {X 25.45,Y 63.721,Z 0.4} C_VEL
LIN {X 26.033,Y 63.642,Z 0.4} C_VEL
LIN {X 26.62,Y 63.644,Z 0.4} C_VEL
LIN {X 27.202,Y 63.725,Z 0.4} C_VEL
LIN {X 27.768,Y 63.884,Z 0.4} C_VEL
LIN {X 28.022,Y 63.997,Z 0.4} C_VEL
LIN {X 28.336,Y 63.595,Z 0.4} C_VEL
LIN {X 28.758,Y 63.187,Z 0.4} C_VEL
LIN {X 29.232,Y 62.839,Z 0.4} C_VEL
LIN {X 29.748,Y 62.559,Z 0.4} C_VEL
LIN {X 30.0,Y 62.464,Z 0.4} C_VEL
LIN {X 27.889,Y 61.463,Z 0.4} C_VEL
LIN {X 27.469,Y 61.258,Z 0.4} C_VEL
LIN {X 26.981,Y 60.932,Z 0.4} C_VEL
LIN {X 26.541,Y 60.542,Z 0.4} C_VEL
LIN {X 26.158,Y 60.096,Z 0.4} C_VEL
LIN {X 25.839,Y 59.603,Z 0.4} C_VEL
LIN {X 25.59,Y 59.071,Z 0.4} C_VEL
LIN {X 25.416,Y 58.51,Z 0.4} C_VEL
LIN {X 25.319,Y 57.93,Z 0.4} C_VEL
LIN {X 25.302,Y 57.343,Z 0.4} C_VEL
LIN {X 25.365,Y 56.759,Z 0.4} C_VEL
LIN {X 25.461,Y 56.339,Z 0.4} C_VEL
LIN {X 29.034,Y 43.662,Z 0.4} C_VEL
LIN {X 29.231,Y 43.109,Z 0.4} C_VEL
LIN {X 29.502,Y 42.587,Z 0.4} C_VEL
LIN {X 29.658,Y 42.366,Z 0.4} C_VEL
LIN {X 31.205,Y 38.047,Z 0.4} C_VEL
LIN {X 31.44,Y 37.509,Z 0.4} C_VEL
LIN {X 31.746,Y 37.008,Z 0.4} C_VEL
LIN {X 32.118,Y 36.552,Z 0.4} C_VEL
LIN {X 32.426,Y 36.265,Z 0.4} C_VEL
LIN {X 33.349,Y 36.749,Z 0.4} C_VEL
LIN {X 33.795,Y 36.486,Z 0.4} C_VEL
LIN {X 34.276,Y 36.295,Z 0.4} C_VEL
LIN {X 34.782,Y 36.18,Z 0.4} C_VEL
LIN {X 35.298,Y 36.144,Z 0.4} C_VEL
LIN {X 35.815,Y 36.188,Z 0.4} C_VEL
LIN {X 36.318,Y 36.311,Z 0.4} C_VEL
LIN {X 36.984,Y 36.613,Z 0.4} C_VEL
LIN {X 37.458,Y 36.894,Z 0.4} C_VEL
LIN {X 37.491,Y 36.824,Z 0.4} C_VEL
LIN {X 37.748,Y 36.375,Z 0.4} C_VEL
LIN {X 38.071,Y 35.97,Z 0.4} C_VEL
LIN {X 38.453,Y 35.62,Z 0.4} C_VEL
LIN {X 38.884,Y 35.332,Z 0.4} C_VEL
LIN {X 39.354,Y 35.114,Z 0.4} C_VEL
LIN {X 39.852,Y 34.971,Z 0.4} C_VEL
LIN {X 40.366,Y 34.907,Z 0.4} C_VEL
LIN {X 40.956,Y 34.926,Z 0.4} C_VEL
LIN {X 41.468,Y 35.007,Z 0.4} C_VEL
LIN {X 41.961,Y 35.165,Z 0.4} C_VEL
LIN {X 42.424,Y 35.397,Z 0.4} C_VEL
LIN {X 42.846,Y 35.697,Z 0.4} C_VEL
LIN {X 43.217,Y 36.059,Z 0.4} C_VEL
LIN {X 43.421,Y 36.332,Z 0.4} C_VEL
LIN {X 43.849,Y 36.14,Z 0.4} C_VEL
LIN {X 44.349,Y 36.003,Z 0.4} C_VEL
LIN {X 44.864,Y 35.945,Z 0.4} C_VEL
LIN {X 45.392,Y 35.967,Z 0.4} C_VEL
LIN {X 45.902,Y 36.055,Z 0.4} C_VEL
LIN {X 46.393,Y 36.22,Z 0.4} C_VEL
LIN {X 46.853,Y 36.459,Z 0.4} C_VEL
LIN {X 47.27,Y 36.766,Z 0.4} C_VEL
LIN {X 47.636,Y 37.133,Z 0.4} C_VEL
LIN {X 47.94,Y 37.552,Z 0.4} C_VEL
LIN {X 48.177,Y 38.013,Z 0.4} C_VEL
LIN {X 48.34,Y 38.505,Z 0.4} C_VEL
LIN {X 48.437,Y 39.231,Z 0.4} C_VEL
LIN {X 48.613,Y 46.518,Z 0.4} C_VEL
LIN {X 49.012,Y 46.382,Z 0.4} C_VEL
LIN {X 49.522,Y 46.292,Z 0.4} C_VEL
LIN {X 49.861,Y 46.276,Z 0.4} C_VEL
LIN {X 54.581,Y 46.294,Z 0.4} C_VEL
LIN {X 55.033,Y 46.18,Z 0.4} C_VEL
LIN {X 55.549,Y 46.131,Z 0.4} C_VEL
LIN {X 56.066,Y 46.163,Z 0.4} C_VEL
LIN {X 56.572,Y 46.273,Z 0.4} C_VEL
LIN {X 56.623,Y 46.294,Z 0.4} C_VEL
LIN {X 61.348,Y 46.277,Z 0.4} C_VEL
LIN {X 61.865,Y 46.315,Z 0.4} C_VEL
LIN {X 62.37,Y 46.432,Z 0.4} C_VEL
LIN {X 62.597,Y 46.524,Z 0.4} C_VEL
LIN {X 62.771,Y 39.231,Z 0.4} C_VEL
LIN {X 62.823,Y 38.715,Z 0.4} C_VEL
LIN {X 62.954,Y 38.214,Z 0.4} C_VEL
LIN {X 63.16,Y 37.739,Z 0.4} C_VEL
LIN {X 63.437,Y 37.301,Z 0.4} C_VEL
LIN {X 63.778,Y 36.911,Z 0.4} C_VEL
LIN {X 64.175,Y 36.578,Z 0.4} C_VEL
LIN {X 64.619,Y 36.31,Z 0.4} C_VEL
LIN {X 65.098,Y 36.113,Z 0.4} C_VEL
LIN {X 65.602,Y 35.993,Z 0.4} C_VEL
LIN {X 65.989,Y 35.953,Z 0.4} C_VEL
LIN {X 66.507,Y 35.956,Z 0.4} C_VEL
LIN {X 67.018,Y 36.038,Z 0.4} C_VEL
LIN {X 67.511,Y 36.199,Z 0.4} C_VEL
LIN {X 67.783,Y 36.337,Z 0.4} C_VEL
LIN {X 67.858,Y 36.223,Z 0.4} C_VEL
LIN {X 68.205,Y 35.839,Z 0.4} C_VEL
LIN {X 68.607,Y 35.512,Z 0.4} C_VEL
LIN {X 69.055,Y 35.251,Z 0.4} C_VEL
LIN {X 69.537,Y 35.062,Z 0.4} C_VEL
LIN {X 70.295,Y 34.922,Z 0.4} C_VEL
LIN {X 70.46,Y 34.911,Z 0.4} C_VEL
LIN {X 70.979,Y 34.917,Z 0.4} C_VEL
LIN {X 71.49,Y 35.002,Z 0.4} C_VEL
LIN {X 71.981,Y 35.165,Z 0.4} C_VEL
LIN {X 72.443,Y 35.401,Z 0.4} C_VEL
LIN {X 72.862,Y 35.705,Z 0.4} C_VEL
LIN {X 73.229,Y 36.07,Z 0.4} C_VEL
LIN {X 73.536,Y 36.488,Z 0.4} C_VEL
LIN {X 73.752,Y 36.892,Z 0.4} C_VEL
LIN {X 74.224,Y 36.613,Z 0.4} C_VEL
LIN {X 74.689,Y 36.384,Z 0.4} C_VEL
LIN {X 75.183,Y 36.23,Z 0.4} C_VEL
LIN {X 75.696,Y 36.153,Z 0.4} C_VEL
LIN {X 76.214,Y 36.155,Z 0.4} C_VEL
LIN {X 76.725,Y 36.238,Z 0.4} C_VEL
LIN {X 77.218,Y 36.398,Z 0.4} C_VEL
LIN {X 77.68,Y 36.632,Z 0.4} C_VEL
LIN {X 78.101,Y 36.934,Z 0.4} C_VEL
LIN {X 78.471,Y 37.297,Z 0.4} C_VEL
LIN {X 78.78,Y 37.713,Z 0.4} C_VEL
LIN {X 79.1,Y 38.371,Z 0.4} C_VEL
LIN {X 80.692,Y 42.814,Z 0.4} C_VEL
LIN {X 80.912,Y 43.129,Z 0.4} C_VEL
LIN {X 81.14,Y 43.594,Z 0.4} C_VEL
LIN {X 81.251,Y 43.923,Z 0.4} C_VEL
LIN {X 84.823,Y 56.599,Z 0.4} C_VEL
LIN {X 84.925,Y 57.107,Z 0.4} C_VEL
LIN {X 84.947,Y 57.624,Z 0.4} C_VEL
LIN {X 84.89,Y 58.139,Z 0.4} C_VEL
LIN {X 84.754,Y 58.639,Z 0.4} C_VEL
LIN {X 84.542,Y 59.112,Z 0.4} C_VEL
LIN {X 84.261,Y 59.547,Z 0.4} C_VEL
LIN {X 83.916,Y 59.934,Z 0.4} C_VEL
LIN {X 83.516,Y 60.263,Z 0.4} C_VEL
LIN {X 82.885,Y 60.61,Z 0.4} C_VEL
LIN {X 82.83,Y 60.633,Z 0.4} C_VEL
LIN {X 77.822,Y 63.006,Z 0.4} C_VEL
LIN {X 77.338,Y 63.191,Z 0.4} C_VEL
LIN {X 76.831,Y 63.3,Z 0.4} C_VEL
LIN {X 76.314,Y 63.329,Z 0.4} C_VEL
LIN {X 75.798,Y 63.279,Z 0.4} C_VEL
LIN {X 75.297,Y 63.15,Z 0.4} C_VEL
LIN {X 74.821,Y 62.945,Z 0.4} C_VEL
LIN {X 74.382,Y 62.669,Z 0.4} C_VEL
LIN {X 73.964,Y 62.302,Z 0.4} C_VEL
LIN {X 73.616,Y 61.941,Z 0.4} C_VEL
LIN {X 67.042,Y 55.354,Z 0.4} C_VEL
LIN {X 71.263,Y 66.885,Z 0.4} C_VEL
LIN {X 73.65,Y 69.612,Z 0.4} C_VEL
LIN {X 76.839,Y 64.666,Z 0.4} C_VEL
LIN {X 77.153,Y 64.254,Z 0.4} C_VEL
LIN {X 77.526,Y 63.894,Z 0.4} C_VEL
LIN {X 77.95,Y 63.597,Z 0.4} C_VEL
LIN {X 78.414,Y 63.368,Z 0.4} C_VEL
LIN {X 78.909,Y 63.213,Z 0.4} C_VEL
LIN {X 79.421,Y 63.136,Z 0.4} C_VEL
LIN {X 79.939,Y 63.138,Z 0.4} C_VEL
LIN {X 80.451,Y 63.221,Z 0.4} C_VEL
LIN {X 80.943,Y 63.381,Z 0.4} C_VEL
LIN {X 81.406,Y 63.614,Z 0.4} C_VEL
LIN {X 81.827,Y 63.916,Z 0.4} C_VEL
LIN {X 82.196,Y 64.28,Z 0.4} C_VEL
LIN {X 82.505,Y 64.695,Z 0.4} C_VEL
LIN {X 82.806,Y 65.26,Z 0.4} C_VEL
LIN {X 83.297,Y 64.995,Z 0.4} C_VEL
LIN {X 83.77,Y 64.785,Z 0.4} C_VEL
LIN {X 84.27,Y 64.65,Z 0.4} C_VEL
LIN {X 84.785,Y 64.594,Z 0.4} C_VEL
LIN {X 85.303,Y 64.617,Z 0.4} C_VEL
LIN {X 85.811,Y 64.72,Z 0.4} C_VEL
LIN {X 86.499,Y 65.001,Z 0.4} C_VEL
LIN {X 86.611,Y 65.062,Z 0.4} C_VEL
LIN {X 87.046,Y 65.344,Z 0.4} C_VEL
LIN {X 87.432,Y 65.69,Z 0.4} C_VEL
LIN {X 87.76,Y 66.091,Z 0.4} C_VEL
LIN {X 88.023,Y 66.537,Z 0.4} C_VEL
LIN {X 88.275,Y 67.245,Z 0.4} C_VEL
LIN {X 88.34,Y 67.52,Z 0.4} C_VEL
LIN {X 88.702,Y 67.387,Z 0.4} C_VEL
LIN {X 89.2,Y 67.247,Z 0.4} C_VEL
LIN {X 89.715,Y 67.185,Z 0.4} C_VEL
LIN {X 90.233,Y 67.203,Z 0.4} C_VEL
LIN {X 90.741,Y 67.301,Z 0.4} C_VEL
LIN {X 91.229,Y 67.475,Z 0.4} C_VEL
LIN {X 91.743,Y 67.76,Z 0.4} C_VEL
LIN {X 92.157,Y 68.071,Z 0.4} C_VEL
LIN {X 92.519,Y 68.441,Z 0.4} C_VEL
LIN {X 92.82,Y 68.863,Z 0.4} C_VEL
LIN {X 93.052,Y 69.326,Z 0.4} C_VEL
LIN {X 93.21,Y 69.82,Z 0.4} C_VEL
LIN {X 93.291,Y 70.332,Z 0.4} C_VEL
LIN {X 93.291,Y 70.85,Z 0.4} C_VEL
LIN {X 93.151,Y 71.588,Z 0.4} C_VEL
LIN {X 89.505,Y 83.388,Z 0.4} C_VEL
LIN {X 89.479,Y 83.624,Z 0.4} C_VEL
LIN {X 89.383,Y 84.133,Z 0.4} C_VEL
LIN {X 89.211,Y 84.622,Z 0.4} C_VEL
LIN {X 88.965,Y 85.078,Z 0.4} C_VEL
LIN {X 88.653,Y 85.491,Z 0.4} C_VEL
LIN {X 88.28,Y 85.851,Z 0.4} C_VEL
LIN {X 88.03,Y 86.04,Z 0.4} C_VEL
LIN {X 73.039,Y 96.254,Z 0.4} C_VEL
LIN {X 72.491,Y 96.556,Z 0.4} C_VEL
LIN {X 72.223,Y 96.673,Z 0.4} C_VEL
LIN {X 71.734,Y 96.843,Z 0.4} C_VEL
LIN {X 71.224,Y 96.936,Z 0.4} C_VEL
LIN {X 70.706,Y 96.95,Z 0.4} C_VEL
LIN {X 69.998,Y 96.836,Z 0.4} C_VEL
LIN {X 55.605,Y 92.925,Z 0.4} C_VEL
LIN {X 41.211,Y 96.836,Z 0.4} C_VEL
LIN {X 40.702,Y 96.933,Z 0.4} C_VEL
LIN {X 40.184,Y 96.951,Z 0.4} C_VEL
LIN {X 39.67,Y 96.889,Z 0.4} C_VEL
LIN {X 38.986,Y 96.673,Z 0.4} C_VEL
LIN {X 38.718,Y 96.556,Z 0.4} C_VEL
LIN {X 38.133,Y 96.228,Z 0.4} C_VEL
LIN {X 38.026,Y 96.153,Z 0.4} C_VEL
LIN {X 23.18,Y 86.04,Z 0.4} C_VEL
LIN {X 22.776,Y 85.716,Z 0.4} C_VEL
LIN {X 22.426,Y 85.334,Z 0.4} C_VEL
LIN {X 22.139,Y 84.903,Z 0.4} C_VEL
LIN {X 21.922,Y 84.432,Z 0.4} C_VEL
LIN {X 21.78,Y 83.934,Z 0.4} C_VEL
LIN {X 21.706,Y 83.396,Z 0.4} C_VEL
LIN {X 18.057,Y 71.587,Z 0.4} C_VEL
LIN {X 17.942,Y 71.082,Z 0.4} C_VEL
LIN {X 17.907,Y 70.565,Z 0.4} C_VEL
LIN {X 17.952,Y 70.049,Z 0.4} C_VEL
LIN {X 18.075,Y 69.546,Z 0.4} C_VEL
LIN {X 18.274,Y 69.067,Z 0.4} C_VEL
LIN {X 18.545,Y 68.625,Z 0.4} C_VEL
LIN {X 18.88,Y 68.23,Z 0.4} C_VEL
LIN {X 19.272,Y 67.892,Z 0.4} C_VEL
LIN {X 19.614,Y 67.668,Z 0.4} C_VEL
LIN {X 20.077,Y 67.435,Z 0.4} C_VEL
LIN {X 20.57,Y 67.275,Z 0.4} C_VEL
LIN {X 21.082,Y 67.194,Z 0.4} C_VEL
LIN {X 21.6,Y 67.192,Z 0.4} C_VEL
LIN {X 22.112,Y 67.27,Z 0.4} C_VEL
LIN {X 22.868,Y 67.519,Z 0.4} C_VEL
LIN {X 22.933,Y 67.244,Z 0.4} C_VEL
LIN {X 23.089,Y 66.751,Z 0.4} C_VEL
LIN {X 23.32,Y 66.287,Z 0.4} C_VEL
LIN {X 23.619,Y 65.864,Z 0.4} C_VEL
LIN {X 23.98,Y 65.492,Z 0.4} C_VEL
LIN {X 24.394,Y 65.18,Z 0.4} C_VEL
LIN {X 24.783,Y 64.964,Z 0.4} C_VEL
LIN {X 25.26,Y 64.763,Z 0.4} C_VEL
LIN {X 25.763,Y 64.639,Z 0.4} C_VEL
LIN {X 26.279,Y 64.593,Z 0.4} C_VEL
LIN {X 26.796,Y 64.627,Z 0.4} C_VEL
LIN {X 27.302,Y 64.741,Z 0.4} C_VEL
LIN {X 27.912,Y 64.996,Z 0.4} C_VEL
LIN {X 28.403,Y 65.261,Z 0.4} C_VEL
LIN {X 28.537,Y 64.992,Z 0.4} C_VEL
LIN {X 28.803,Y 64.547,Z 0.4} C_VEL
LIN {X 29.133,Y 64.148,Z 0.4} C_VEL
LIN {X 29.522,Y 63.805,Z 0.4} C_VEL
LIN {X 29.958,Y 63.526,Z 0.4} C_VEL
LIN {X 30.432,Y 63.317,Z 0.4} C_VEL
LIN {X 30.932,Y 63.183,Z 0.4} C_VEL
LIN {X 31.448,Y 63.128,Z 0.4} C_VEL
LIN {X 31.965,Y 63.153,Z 0.4} C_VEL
LIN {X 32.473,Y 63.257,Z 0.4} C_VEL
LIN {X 32.958,Y 63.438,Z 0.4} C_VEL
LIN {X 33.41,Y 63.691,Z 0.4} C_VEL
LIN {X 33.818,Y 64.011,Z 0.4} C_VEL
LIN {X 34.171,Y 64.39,Z 0.4} C_VEL
LIN {X 34.37,Y 64.666,Z 0.4} C_VEL
LIN {X 37.56,Y 69.612,Z 0.4} C_VEL
LIN {X 39.942,Y 66.89,Z 0.4} C_VEL
LIN {X 44.168,Y 55.351,Z 0.4} C_VEL
LIN {X 37.615,Y 61.918,Z 0.4} C_VEL
LIN {X 37.24,Y 62.306,Z 0.4} C_VEL
LIN {X 36.852,Y 62.65,Z 0.4} C_VEL
LIN {X 36.416,Y 62.93,Z 0.4} C_VEL
LIN {X 35.943,Y 63.139,Z 0.4} C_VEL
LIN {X 35.442,Y 63.274,Z 0.4} C_VEL
LIN {X 34.927,Y 63.329,Z 0.4} C_VEL
LIN {X 34.41,Y 63.305,Z 0.4} C_VEL
LIN {X 33.902,Y 63.202,Z 0.4} C_VEL
LIN {X 33.384,Y 63.007,Z 0.4} C_VEL
LIN {X 28.358,Y 60.625,Z 0.4} C_VEL
LIN {X 27.894,Y 60.394,Z 0.4} C_VEL
LIN {X 27.471,Y 60.095,Z 0.4} C_VEL
LIN {X 27.1,Y 59.734,Z 0.4} C_VEL
LIN {X 26.788,Y 59.32,Z 0.4} C_VEL
LIN {X 26.543,Y 58.864,Z 0.4} C_VEL
LIN {X 26.372,Y 58.375,Z 0.4} C_VEL
LIN {X 26.278,Y 57.865,Z 0.4} C_VEL
LIN {X 26.263,Y 57.347,Z 0.4} C_VEL
LIN {X 26.385,Y 56.599,Z 0.4} C_VEL
LIN {X 29.958,Y 43.922,Z 0.4} C_VEL
LIN {X 30.137,Y 43.436,Z 0.4} C_VEL
LIN {X 30.388,Y 42.983,Z 0.4} C_VEL
LIN {X 30.516,Y 42.818,Z 0.4} C_VEL
LIN {X 32.109,Y 38.371,Z 0.4} C_VEL
LIN {X 32.321,Y 37.898,Z 0.4} C_VEL
LIN {X 32.602,Y 37.464,Z 0.4} C_VEL
LIN {X 32.838,Y 37.2,Z 0.4} C_VEL
LIN {X 34.129,Y 37.394,Z 0.4} C_VEL
LIN {X 34.531,Y 37.221,Z 0.4} C_VEL
LIN {X 34.958,Y 37.125,Z 0.4} C_VEL
LIN {X 35.396,Y 37.107,Z 0.4} C_VEL
LIN {X 35.829,Y 37.17,Z 0.4} C_VEL
LIN {X 36.244,Y 37.31,Z 0.4} C_VEL
LIN {X 36.495,Y 37.439,Z 0.4} C_VEL
LIN {X 37.874,Y 38.256,Z 0.4} C_VEL
LIN {X 38.358,Y 37.235,Z 0.4} C_VEL
LIN {X 38.581,Y 36.859,Z 0.4} C_VEL
LIN {X 38.868,Y 36.528,Z 0.4} C_VEL
LIN {X 39.211,Y 36.256,Z 0.4} C_VEL
LIN {X 39.597,Y 36.05,Z 0.4} C_VEL
LIN {X 40.015,Y 35.918,Z 0.4} C_VEL
LIN {X 40.449,Y 35.864,Z 0.4} C_VEL
LIN {X 40.881,Y 35.883,Z 0.4} C_VEL
LIN {X 41.312,Y 35.957,Z 0.4} C_VEL
LIN {X 41.723,Y 36.109,Z 0.4} C_VEL
LIN {X 42.099,Y 36.332,Z 0.4} C_VEL
LIN {X 42.429,Y 36.62,Z 0.4} C_VEL
LIN {X 42.701,Y 36.963,Z 0.4} C_VEL
LIN {X 42.948,Y 37.458,Z 0.4} C_VEL
LIN {X 43.056,Y 37.755,Z 0.4} C_VEL
LIN {X 43.525,Y 37.396,Z 0.4} C_VEL
LIN {X 43.895,Y 37.163,Z 0.4} C_VEL
LIN {X 44.302,Y 37.001,Z 0.4} C_VEL
LIN {X 44.731,Y 36.916,Z 0.4} C_VEL
LIN {X 45.302,Y 36.922,Z 0.4} C_VEL
LIN {X 45.732,Y 37.003,Z 0.4} C_VEL
LIN {X 46.141,Y 37.16,Z 0.4} C_VEL
LIN {X 46.514,Y 37.389,Z 0.4} C_VEL
LIN {X 46.839,Y 37.682,Z 0.4} C_VEL
LIN {X 47.106,Y 38.029,Z 0.4} C_VEL
LIN {X 47.305,Y 38.418,Z 0.4} C_VEL
LIN {X 47.431,Y 38.838,Z 0.4} C_VEL
LIN {X 47.477,Y 39.254,Z 0.4} C_VEL
LIN {X 47.702,Y 48.582,Z 0.4} C_VEL
LIN {X 47.835,Y 48.329,Z 0.4} C_VEL
LIN {X 48.106,Y 47.985,Z 0.4} C_VEL
LIN {X 48.435,Y 47.696,Z 0.4} C_VEL
LIN {X 48.811,Y 47.472,Z 0.4} C_VEL
LIN {X 49.221,Y 47.319,Z 0.4} C_VEL
LIN {X 49.857,Y 47.236,Z 0.4} C_VEL
LIN {X 54.758,Y 47.255,Z 0.4} C_VEL
LIN {X 55.331,Y 47.107,Z 0.4} C_VEL
LIN {X 55.768,Y 47.097,Z 0.4} C_VEL
LIN {X 56.2,Y 47.166,Z 0.4} C_VEL
LIN {X 56.432,Y 47.254,Z 0.4} C_VEL
LIN {X 61.352,Y 47.237,Z 0.4} C_VEL
LIN {X 61.788,Y 47.275,Z 0.4} C_VEL
LIN {X 62.209,Y 47.392,Z 0.4} C_VEL
LIN {X 62.603,Y 47.584,Z 0.4} C_VEL
LIN {X 62.955,Y 47.844,Z 0.4} C_VEL
LIN {X 63.254,Y 48.163,Z 0.4} C_VEL
LIN {X 63.508,Y 48.595,Z 0.4} C_VEL
LIN {X 63.731,Y 39.254,Z 0.4} C_VEL
LIN {X 63.781,Y 38.819,Z 0.4} C_VEL
LIN {X 63.909,Y 38.4,Z 0.4} C_VEL
LIN {X 64.112,Y 38.012,Z 0.4} C_VEL
LIN {X 64.381,Y 37.667,Z 0.4} C_VEL
LIN {X 64.709,Y 37.377,Z 0.4} C_VEL
LIN {X 65.084,Y 37.151,Z 0.4} C_VEL
LIN {X 65.493,Y 36.997,Z 0.4} C_VEL
LIN {X 66.057,Y 36.91,Z 0.4} C_VEL
LIN {X 66.495,Y 36.919,Z 0.4} C_VEL
LIN {X 66.923,Y 37.007,Z 0.4} C_VEL
LIN {X 67.329,Y 37.171,Z 0.4} C_VEL
LIN {X 67.685,Y 37.397,Z 0.4} C_VEL
LIN {X 68.154,Y 37.756,Z 0.4} C_VEL
LIN {X 68.449,Y 37.06,Z 0.4} C_VEL
LIN {X 68.704,Y 36.704,Z 0.4} C_VEL
LIN {X 69.02,Y 36.401,Z 0.4} C_VEL
LIN {X 69.385,Y 36.16,Z 0.4} C_VEL
LIN {X 69.788,Y 35.989,Z 0.4} C_VEL
LIN {X 70.359,Y 35.88,Z 0.4} C_VEL
LIN {X 70.962,Y 35.88,Z 0.4} C_VEL
LIN {X 71.39,Y 35.97,Z 0.4} C_VEL
LIN {X 71.795,Y 36.137,Z 0.4} C_VEL
LIN {X 72.163,Y 36.374,Z 0.4} C_VEL
LIN {X 72.482,Y 36.674,Z 0.4} C_VEL
LIN {X 72.853,Y 37.236,Z 0.4} C_VEL
LIN {X 73.336,Y 38.255,Z 0.4} C_VEL
LIN {X 74.714,Y 37.439,Z 0.4} C_VEL
LIN {X 75.109,Y 37.251,Z 0.4} C_VEL
LIN {X 75.532,Y 37.138,Z 0.4} C_VEL
LIN {X 75.968,Y 37.104,Z 0.4} C_VEL
LIN {X 76.404,Y 37.15,Z 0.4} C_VEL
LIN {X 76.823,Y 37.274,Z 0.4} C_VEL
LIN {X 77.214,Y 37.472,Z 0.4} C_VEL
LIN {X 77.562,Y 37.737,Z 0.4} C_VEL
LIN {X 77.855,Y 38.062,Z 0.4} C_VEL
LIN {X 78.085,Y 38.434,Z 0.4} C_VEL
LIN {X 78.196,Y 38.695,Z 0.4} C_VEL
LIN {X 79.843,Y 43.291,Z 0.4} C_VEL
LIN {X 80.181,Y 43.796,Z 0.4} C_VEL
LIN {X 80.327,Y 44.183,Z 0.4} C_VEL
LIN {X 83.899,Y 56.859,Z 0.4} C_VEL
LIN {X 83.979,Y 57.289,Z 0.4} C_VEL
LIN {X 83.979,Y 57.727,Z 0.4} C_VEL
LIN {X 83.9,Y 58.158,Z 0.4} C_VEL
LIN {X 83.744,Y 58.567,Z 0.4} C_VEL
LIN {X 83.516,Y 58.94,Z 0.4} C_VEL
LIN {X 83.224,Y 59.267,Z 0.4} C_VEL
LIN {X 82.878,Y 59.534,Z 0.4} C_VEL
LIN {X 82.453,Y 59.75,Z 0.4} C_VEL
LIN {X 77.411,Y 62.139,Z 0.4} C_VEL
LIN {X 77.0,Y 62.289,Z 0.4} C_VEL
LIN {X 76.568,Y 62.363,Z 0.4} C_VEL
LIN {X 76.13,Y 62.357,Z 0.4} C_VEL
LIN {X 75.701,Y 62.271,Z 0.4} C_VEL
LIN {X 75.295,Y 62.109,Z 0.4} C_VEL
LIN {X 74.924,Y 61.876,Z 0.4} C_VEL
LIN {X 74.655,Y 61.636,Z 0.4} C_VEL
LIN {X 74.281,Y 61.248,Z 0.4} C_VEL
LIN {X 64.642,Y 51.59,Z 0.4} C_VEL
LIN {X 70.424,Y 67.383,Z 0.4} C_VEL
LIN {X 73.767,Y 71.202,Z 0.4} C_VEL
LIN {X 77.646,Y 65.186,Z 0.4} C_VEL
LIN {X 77.916,Y 64.842,Z 0.4} C_VEL
LIN {X 78.244,Y 64.552,Z 0.4} C_VEL
LIN {X 78.619,Y 64.326,Z 0.4} C_VEL
LIN {X 79.029,Y 64.172,Z 0.4} C_VEL
LIN {X 79.459,Y 64.096,Z 0.4} C_VEL
LIN {X 79.897,Y 64.098,Z 0.4} C_VEL
LIN {X 80.327,Y 64.181,Z 0.4} C_VEL
LIN {X 80.735,Y 64.34,Z 0.4} C_VEL
LIN {X 81.107,Y 64.57,Z 0.4} C_VEL
LIN {X 81.431,Y 64.864,Z 0.4} C_VEL
LIN {X 81.812,Y 65.418,Z 0.4} C_VEL
LIN {X 82.388,Y 66.576,Z 0.4} C_VEL
LIN {X 83.752,Y 65.84,Z 0.4} C_VEL
LIN {X 84.155,Y 65.668,Z 0.4} C_VEL
LIN {X 84.582,Y 65.572,Z 0.4} C_VEL
LIN {X 85.02,Y 65.555,Z 0.4} C_VEL
LIN {X 85.453,Y 65.618,Z 0.4} C_VEL
LIN {X 86.04,Y 65.844,Z 0.4} C_VEL
LIN {X 86.516,Y 66.149,Z 0.4} C_VEL
LIN {X 86.829,Y 66.454,Z 0.4} C_VEL
LIN {X 87.082,Y 66.812,Z 0.4} C_VEL
LIN {X 87.34,Y 67.464,Z 0.4} C_VEL
LIN {X 87.652,Y 68.792,Z 0.4} C_VEL
LIN {X 89.031,Y 68.288,Z 0.4} C_VEL
LIN {X 89.455,Y 68.176,Z 0.4} C_VEL
LIN {X 89.891,Y 68.142,Z 0.4} C_VEL
LIN {X 90.326,Y 68.189,Z 0.4} C_VEL
LIN {X 90.746,Y 68.313,Z 0.4} C_VEL
LIN {X 91.228,Y 68.57,Z 0.4} C_VEL
LIN {X 91.574,Y 68.838,Z 0.4} C_VEL
LIN {X 91.867,Y 69.164,Z 0.4} C_VEL
LIN {X 92.095,Y 69.537,Z 0.4} C_VEL
LIN {X 92.251,Y 69.946,Z 0.4} C_VEL
LIN {X 92.331,Y 70.376,Z 0.4} C_VEL
LIN {X 92.331,Y 70.814,Z 0.4} C_VEL
LIN {X 92.234,Y 71.305,Z 0.4} C_VEL
LIN {X 88.559,Y 83.197,Z 0.4} C_VEL
LIN {X 88.438,Y 83.95,Z 0.4} C_VEL
LIN {X 88.275,Y 84.356,Z 0.4} C_VEL
LIN {X 88.04,Y 84.726,Z 0.4} C_VEL
LIN {X 87.743,Y 85.047,Z 0.4} C_VEL
LIN {X 87.489,Y 85.246,Z 0.4} C_VEL
LIN {X 72.498,Y 95.46,Z 0.4} C_VEL
LIN {X 71.839,Y 95.794,Z 0.4} C_VEL
LIN {X 71.424,Y 95.931,Z 0.4} C_VEL
LIN {X 70.99,Y 95.991,Z 0.4} C_VEL
LIN {X 70.553,Y 95.972,Z 0.4} C_VEL
LIN {X 70.25,Y 95.91,Z 0.4} C_VEL
LIN {X 55.605,Y 91.931,Z 0.4} C_VEL
LIN {X 40.959,Y 95.91,Z 0.4} C_VEL
LIN {X 40.528,Y 95.986,Z 0.4} C_VEL
LIN {X 40.09,Y 95.982,Z 0.4} C_VEL
LIN {X 39.661,Y 95.899,Z 0.4} C_VEL
LIN {X 39.102,Y 95.677,Z 0.4} C_VEL
LIN {X 38.567,Y 95.36,Z 0.4} C_VEL
LIN {X 23.721,Y 85.247,Z 0.4} C_VEL
LIN {X 23.383,Y 84.968,Z 0.4} C_VEL
LIN {X 23.101,Y 84.633,Z 0.4} C_VEL
LIN {X 22.885,Y 84.252,Z 0.4} C_VEL
LIN {X 22.742,Y 83.839,Z 0.4} C_VEL
LIN {X 22.65,Y 83.2,Z 0.4} C_VEL
LIN {X 18.974,Y 71.304,Z 0.4} C_VEL
LIN {X 18.883,Y 70.875,Z 0.4} C_VEL
LIN {X 18.872,Y 70.438,Z 0.4} C_VEL
LIN {X 18.941,Y 70.005,Z 0.4} C_VEL
LIN {X 19.086,Y 69.593,Z 0.4} C_VEL
LIN {X 19.305,Y 69.213,Z 0.4} C_VEL
LIN {X 19.588,Y 68.88,Z 0.4} C_VEL
LIN {X 20.025,Y 68.541,Z 0.4} C_VEL
LIN {X 20.505,Y 68.298,Z 0.4} C_VEL
LIN {X 20.927,Y 68.181,Z 0.4} C_VEL
LIN {X 21.363,Y 68.143,Z 0.4} C_VEL
LIN {X 21.799,Y 68.185,Z 0.4} C_VEL
LIN {X 22.176,Y 68.289,Z 0.4} C_VEL
LIN {X 23.555,Y 68.793,Z 0.4} C_VEL
LIN {X 23.867,Y 67.463,Z 0.4} C_VEL
LIN {X 24.006,Y 67.048,Z 0.4} C_VEL
LIN {X 24.217,Y 66.665,Z 0.4} C_VEL
LIN {X 24.495,Y 66.326,Z 0.4} C_VEL
LIN {X 24.829,Y 66.044,Z 0.4} C_VEL
LIN {X 25.221,Y 65.818,Z 0.4} C_VEL
LIN {X 25.627,Y 65.654,Z 0.4} C_VEL
LIN {X 26.056,Y 65.567,Z 0.4} C_VEL
LIN {X 26.494,Y 65.56,Z 0.4} C_VEL
LIN {X 26.926,Y 65.631,Z 0.4} C_VEL
LIN {X 27.456,Y 65.841,Z 0.4} C_VEL
LIN {X 28.822,Y 66.577,Z 0.4} C_VEL
LIN {X 29.397,Y 65.419,Z 0.4} C_VEL
LIN {X 29.626,Y 65.047,Z 0.4} C_VEL
LIN {X 29.92,Y 64.722,Z 0.4} C_VEL
LIN {X 30.268,Y 64.456,Z 0.4} C_VEL
LIN {X 30.658,Y 64.257,Z 0.4} C_VEL
LIN {X 31.077,Y 64.133,Z 0.4} C_VEL
LIN {X 31.513,Y 64.087,Z 0.4} C_VEL
LIN {X 31.949,Y 64.121,Z 0.4} C_VEL
LIN {X 32.372,Y 64.234,Z 0.4} C_VEL
LIN {X 32.768,Y 64.421,Z 0.4} C_VEL
LIN {X 33.123,Y 64.677,Z 0.4} C_VEL
LIN {X 33.563,Y 65.186,Z 0.4} C_VEL
LIN {X 37.443,Y 71.202,Z 0.4} C_VEL
LIN {X 40.782,Y 67.388,Z 0.4} C_VEL
LIN {X 46.568,Y 51.587,Z 0.4} C_VEL
LIN {X 36.925,Y 61.251,Z 0.4} C_VEL
LIN {X 36.55,Y 61.639,Z 0.4} C_VEL
LIN {X 36.218,Y 61.925,Z 0.4} C_VEL
LIN {X 35.84,Y 62.145,Z 0.4} C_VEL
LIN {X 35.428,Y 62.294,Z 0.4} C_VEL
LIN {X 34.996,Y 62.365,Z 0.4} C_VEL
LIN {X 34.559,Y 62.356,Z 0.4} C_VEL
LIN {X 34.13,Y 62.268,Z 0.4} C_VEL
LIN {X 33.796,Y 62.14,Z 0.4} C_VEL
LIN {X 28.778,Y 59.76,Z 0.4} C_VEL
LIN {X 28.329,Y 59.535,Z 0.4} C_VEL
LIN {X 27.983,Y 59.267,Z 0.4} C_VEL
LIN {X 27.691,Y 58.941,Z 0.4} C_VEL
LIN {X 27.464,Y 58.567,Z 0.4} C_VEL
LIN {X 27.308,Y 58.158,Z 0.4} C_VEL
LIN {X 27.229,Y 57.727,Z 0.4} C_VEL
LIN {X 27.229,Y 57.289,Z 0.4} C_VEL
LIN {X 27.309,Y 56.86,Z 0.4} C_VEL
LIN {X 30.882,Y 44.183,Z 0.4} C_VEL
LIN {X 31.039,Y 43.774,Z 0.4} C_VEL
LIN {X 31.368,Y 43.288,Z 0.4} C_VEL
LIN {X 33.013,Y 38.695,Z 0.4} C_VEL
LIN {X 33.197,Y 38.298,Z 0.4} C_VEL
LIN {X 33.451,Y 37.941,Z 0.4} C_VEL
LIN {X 33.646,Y 37.751,Z 0.4} C_VEL
LIN {X 34.557,Y 38.254,Z 0.4} C_VEL
LIN {X 34.869,Y 38.121,Z 0.4} C_VEL
LIN {X 35.203,Y 38.066,Z 0.4} C_VEL
LIN {X 35.541,Y 38.089,Z 0.4} C_VEL
LIN {X 36.006,Y 38.265,Z 0.4} C_VEL
LIN {X 38.292,Y 39.618,Z 0.4} C_VEL
LIN {X 39.226,Y 37.646,Z 0.4} C_VEL
LIN {X 39.406,Y 37.359,Z 0.4} C_VEL
LIN {X 39.648,Y 37.122,Z 0.4} C_VEL
LIN {X 39.939,Y 36.949,Z 0.4} C_VEL
LIN {X 40.262,Y 36.848,Z 0.4} C_VEL
LIN {X 40.64,Y 36.827,Z 0.4} C_VEL
LIN {X 41.137,Y 36.907,Z 0.4} C_VEL
LIN {X 41.445,Y 37.049,Z 0.4} C_VEL
LIN {X 41.711,Y 37.259,Z 0.4} C_VEL
LIN {X 41.921,Y 37.525,Z 0.4} C_VEL
LIN {X 42.046,Y 37.785,Z 0.4} C_VEL
LIN {X 42.599,Y 39.312,Z 0.4} C_VEL
LIN {X 44.108,Y 38.159,Z 0.4} C_VEL
LIN {X 44.399,Y 37.986,Z 0.4} C_VEL
LIN {X 44.723,Y 37.887,Z 0.4} C_VEL
LIN {X 45.212,Y 37.878,Z 0.4} C_VEL
LIN {X 45.544,Y 37.949,Z 0.4} C_VEL
LIN {X 45.849,Y 38.096,Z 0.4} C_VEL
LIN {X 46.112,Y 38.31,Z 0.4} C_VEL
LIN {X 46.318,Y 38.579,Z 0.4} C_VEL
LIN {X 46.454,Y 38.889,Z 0.4} C_VEL
LIN {X 46.518,Y 39.277,Z 0.4} C_VEL
LIN {X 46.748,Y 48.801,Z 0.4} C_VEL
LIN {X 46.846,Y 49.285,Z 0.4} C_VEL
LIN {X 46.822,Y 49.623,Z 0.4} C_VEL
LIN {X 46.72,Y 49.946,Z 0.4} C_VEL
LIN {X 46.427,Y 50.369,Z 0.4} C_VEL
LIN {X 36.234,Y 60.584,Z 0.4} C_VEL
LIN {X 35.859,Y 60.972,Z 0.4} C_VEL
LIN {X 35.597,Y 61.186,Z 0.4} C_VEL
LIN {X 35.292,Y 61.333,Z 0.4} C_VEL
LIN {X 34.96,Y 61.405,Z 0.4} C_VEL
LIN {X 34.622,Y 61.397,Z 0.4} C_VEL
LIN {X 34.207,Y 61.272,Z 0.4} C_VEL
LIN {X 29.17,Y 58.883,Z 0.4} C_VEL
LIN {X 28.782,Y 58.682,Z 0.4} C_VEL
LIN {X 28.531,Y 58.454,Z 0.4} C_VEL
LIN {X 28.341,Y 58.174,Z 0.4} C_VEL
LIN {X 28.221,Y 57.857,Z 0.4} C_VEL
LIN {X 28.179,Y 57.521,Z 0.4} C_VEL
LIN {X 28.233,Y 57.12,Z 0.4} C_VEL
LIN {X 31.806,Y 44.443,Z 0.4} C_VEL
LIN {X 31.936,Y 44.13,Z 0.4} C_VEL
LIN {X 32.204,Y 43.798,Z 0.4} C_VEL
LIN {X 33.916,Y 39.018,Z 0.4} C_VEL
LIN {X 34.067,Y 38.715,Z 0.4} C_VEL
LIN {X 34.179,Y 38.582,Z 0.4} C_VEL
LIN {X 35.081,Y 39.064,Z 0.4} C_VEL
LIN {X 35.272,Y 39.024,Z 0.4} C_VEL
LIN {X 35.517,Y 39.091,Z 0.4} C_VEL
LIN {X 38.708,Y 40.98,Z 0.4} C_VEL
LIN {X 40.093,Y 38.057,Z 0.4} C_VEL
LIN {X 40.211,Y 37.902,Z 0.4} C_VEL
LIN {X 40.38,Y 37.806,Z 0.4} C_VEL
LIN {X 40.565,Y 37.784,Z 0.4} C_VEL
LIN {X 40.917,Y 37.852,Z 0.4} C_VEL
LIN {X 41.067,Y 37.976,Z 0.4} C_VEL
LIN {X 41.143,Y 38.112,Z 0.4} C_VEL
LIN {X 42.142,Y 40.87,Z 0.4} C_VEL
LIN {X 44.691,Y 38.922,Z 0.4} C_VEL
LIN {X 44.866,Y 38.837,Z 0.4} C_VEL
LIN {X 45.123,Y 38.834,Z 0.4} C_VEL
LIN {X 45.309,Y 38.891,Z 0.4} C_VEL
LIN {X 45.457,Y 39.018,Z 0.4} C_VEL
LIN {X 45.558,Y 39.3,Z 0.4} C_VEL
LIN {X 45.791,Y 48.947,Z 0.4} C_VEL
LIN {X 45.884,Y 49.413,Z 0.4} C_VEL
LIN {X 45.748,Y 49.691,Z 0.4} C_VEL
LIN {X 35.539,Y 59.922,Z 0.4} C_VEL
LIN {X 35.169,Y 60.305,Z 0.4} C_VEL
LIN {X 35.008,Y 60.414,Z 0.4} C_VEL
LIN {X 34.817,Y 60.451,Z 0.4} C_VEL
LIN {X 34.618,Y 60.405,Z 0.4} C_VEL
LIN {X 29.541,Y 57.997,Z 0.4} C_VEL
LIN {X 29.277,Y 57.848,Z 0.4} C_VEL
LIN {X 29.171,Y 57.684,Z 0.4} C_VEL
LIN {X 29.157,Y 57.381,Z 0.4} C_VEL
LIN {X 32.73,Y 44.704,Z 0.4} C_VEL
LIN {X 32.82,Y 44.531,Z 0.4} C_VEL
LIN {X 33.017,Y 44.375,Z 0.4} C_VEL
LIN {X 34.82,Y 39.342,Z 0.4} C_VEL
LIN {X 34.835,Y 39.318,Z 0.4} C_VEL
LIN {X 34.922,Y 39.176,Z 0.4} C_VEL
LIN {X 48.684,Y 48.789,Z 0.4} C_VEL
LIN {X 48.914,Y 48.54,Z 0.4} C_VEL
LIN {X 49.196,Y 48.352,Z 0.4} C_VEL
LIN {X 49.514,Y 48.235,Z 0.4} C_VEL
LIN {X 49.854,Y 48.196,Z 0.4} C_VEL
LIN {X 54.937,Y 48.216,Z 0.4} C_VEL
LIN {X 55.257,Y 48.094,Z 0.4} C_VEL
LIN {X 55.593,Y 48.051,Z 0.4} C_VEL
LIN {X 55.93,Y 48.088,Z 0.4} C_VEL
LIN {X 56.272,Y 48.215,Z 0.4} C_VEL
LIN {X 61.355,Y 48.197,Z 0.4} C_VEL
LIN {X 61.692,Y 48.236,Z 0.4} C_VEL
LIN {X 62.01,Y 48.352,Z 0.4} C_VEL
LIN {X 62.292,Y 48.539,Z 0.4} C_VEL
LIN {X 62.523,Y 48.788,Z 0.4} C_VEL
LIN {X 62.765,Y 49.261,Z 0.4} C_VEL
LIN {X 62.792,Y 49.33,Z 0.4} C_VEL
LIN {X 69.553,Y 67.798,Z 0.4} C_VEL
LIN {X 69.568,Y 67.863,Z 0.4} C_VEL
LIN {X 73.884,Y 72.794,Z 0.4} C_VEL
LIN {X 78.453,Y 65.707,Z 0.4} C_VEL
LIN {X 78.669,Y 65.445,Z 0.4} C_VEL
LIN {X 78.939,Y 65.242,Z 0.4} C_VEL
LIN {X 79.25,Y 65.107,Z 0.4} C_VEL
LIN {X 79.584,Y 65.049,Z 0.4} C_VEL
LIN {X 79.922,Y 65.071,Z 0.4} C_VEL
LIN {X 80.246,Y 65.17,Z 0.4} C_VEL
LIN {X 80.538,Y 65.343,Z 0.4} C_VEL
LIN {X 80.781,Y 65.579,Z 0.4} C_VEL
LIN {X 80.952,Y 65.846,Z 0.4} C_VEL
LIN {X 81.97,Y 67.893,Z 0.4} C_VEL
LIN {X 84.208,Y 66.685,Z 0.4} C_VEL
LIN {X 84.523,Y 66.56,Z 0.4} C_VEL
LIN {X 84.859,Y 66.512,Z 0.4} C_VEL
LIN {X 85.196,Y 66.544,Z 0.4} C_VEL
LIN {X 85.693,Y 66.748,Z 0.4} C_VEL
LIN {X 85.969,Y 66.944,Z 0.4} C_VEL
LIN {X 86.192,Y 67.199,Z 0.4} C_VEL
LIN {X 86.406,Y 67.684,Z 0.4} C_VEL
LIN {X 86.966,Y 70.066,Z 0.4} C_VEL
LIN {X 89.361,Y 69.19,Z 0.4} C_VEL
LIN {X 89.691,Y 69.111,Z 0.4} C_VEL
LIN {X 90.03,Y 69.113,Z 0.4} C_VEL
LIN {X 90.359,Y 69.193,Z 0.4} C_VEL
LIN {X 90.713,Y 69.381,Z 0.4} C_VEL
LIN {X 90.976,Y 69.595,Z 0.4} C_VEL
LIN {X 91.181,Y 69.864,Z 0.4} C_VEL
LIN {X 91.318,Y 70.174,Z 0.4} C_VEL
LIN {X 91.378,Y 70.508,Z 0.4} C_VEL
LIN {X 91.317,Y 71.021,Z 0.4} C_VEL
LIN {X 87.615,Y 83.0,Z 0.4} C_VEL
LIN {X 87.494,Y 83.748,Z 0.4} C_VEL
LIN {X 87.343,Y 84.051,Z 0.4} C_VEL
LIN {X 87.125,Y 84.311,Z 0.4} C_VEL
LIN {X 86.949,Y 84.453,Z 0.4} C_VEL
LIN {X 71.958,Y 94.667,Z 0.4} C_VEL
LIN {X 71.455,Y 94.914,Z 0.4} C_VEL
LIN {X 71.131,Y 95.012,Z 0.4} C_VEL
LIN {X 70.793,Y 95.031,Z 0.4} C_VEL
LIN {X 70.501,Y 94.984,Z 0.4} C_VEL
LIN {X 55.605,Y 90.937,Z 0.4} C_VEL
LIN {X 40.708,Y 94.984,Z 0.4} C_VEL
LIN {X 40.372,Y 95.033,Z 0.4} C_VEL
LIN {X 40.035,Y 95.003,Z 0.4} C_VEL
LIN {X 39.486,Y 94.797,Z 0.4} C_VEL
LIN {X 39.091,Y 94.555,Z 0.4} C_VEL
LIN {X 24.261,Y 84.453,Z 0.4} C_VEL
LIN {X 24.006,Y 84.231,Z 0.4} C_VEL
LIN {X 23.809,Y 83.955,Z 0.4} C_VEL
LIN {X 23.682,Y 83.641,Z 0.4} C_VEL
LIN {X 23.594,Y 83.003,Z 0.4} C_VEL
LIN {X 19.891,Y 71.02,Z 0.4} C_VEL
LIN {X 19.83,Y 70.687,Z 0.4} C_VEL
LIN {X 19.848,Y 70.349,Z 0.4} C_VEL
LIN {X 19.945,Y 70.024,Z 0.4} C_VEL
LIN {X 20.115,Y 69.731,Z 0.4} C_VEL
LIN {X 20.522,Y 69.363,Z 0.4} C_VEL
LIN {X 20.916,Y 69.171,Z 0.4} C_VEL
LIN {X 21.249,Y 69.107,Z 0.4} C_VEL
LIN {X 21.588,Y 69.122,Z 0.4} C_VEL
LIN {X 21.847,Y 69.19,Z 0.4} C_VEL
LIN {X 24.244,Y 70.065,Z 0.4} C_VEL
LIN {X 24.802,Y 67.682,Z 0.4} C_VEL
LIN {X 24.918,Y 67.364,Z 0.4} C_VEL
LIN {X 25.104,Y 67.081,Z 0.4} C_VEL
LIN {X 25.352,Y 66.85,Z 0.4} C_VEL
LIN {X 25.659,Y 66.672,Z 0.4} C_VEL
LIN {X 25.977,Y 66.554,Z 0.4} C_VEL
LIN {X 26.313,Y 66.513,Z 0.4} C_VEL
LIN {X 26.65,Y 66.552,Z 0.4} C_VEL
LIN {X 27.0,Y 66.686,Z 0.4} C_VEL
LIN {X 29.239,Y 67.893,Z 0.4} C_VEL
LIN {X 30.256,Y 65.846,Z 0.4} C_VEL
LIN {X 30.442,Y 65.563,Z 0.4} C_VEL
LIN {X 30.688,Y 65.33,Z 0.4} C_VEL
LIN {X 30.982,Y 65.162,Z 0.4} C_VEL
LIN {X 31.308,Y 65.067,Z 0.4} C_VEL
LIN {X 31.646,Y 65.05,Z 0.4} C_VEL
LIN {X 31.979,Y 65.114,Z 0.4} C_VEL
LIN {X 32.288,Y 65.253,Z 0.4} C_VEL
LIN {X 32.556,Y 65.46,Z 0.4} C_VEL
LIN {X 32.756,Y 65.707,Z 0.4} C_VEL
LIN {X 37.326,Y 72.793,Z 0.4} C_VEL
LIN {X 41.635,Y 67.87,Z 0.4} C_VEL
LIN {X 41.655,Y 67.796,Z 0.4} C_VEL
LIN {X 48.44,Y 49.272,Z 0.4} C_VEL
LIN {X 48.61,Y 48.937,Z 0.4} C_VEL
LIN {X 49.679,Y 49.187,Z 0.4} C_VEL
LIN {X 49.85,Y 49.156,Z 0.4} C_VEL
LIN {X 55.169,Y 49.177,Z 0.4} C_VEL
LIN {X 55.571,Y 49.012,Z 0.4} C_VEL
LIN {X 55.825,Y 49.064,Z 0.4} C_VEL
LIN {X 56.041,Y 49.176,Z 0.4} C_VEL
LIN {X 61.358,Y 49.157,Z 0.4} C_VEL
LIN {X 61.549,Y 49.196,Z 0.4} C_VEL
LIN {X 61.709,Y 49.308,Z 0.4} C_VEL
LIN {X 61.891,Y 49.66,Z 0.4} C_VEL
LIN {X 68.652,Y 68.128,Z 0.4} C_VEL
LIN {X 68.678,Y 68.304,Z 0.4} C_VEL
LIN {X 74.0,Y 74.385,Z 0.4} C_VEL
LIN {X 79.26,Y 66.227,Z 0.4} C_VEL
LIN {X 79.396,Y 66.088,Z 0.4} C_VEL
LIN {X 79.577,Y 66.015,Z 0.4} C_VEL
LIN {X 79.772,Y 66.02,Z 0.4} C_VEL
LIN {X 79.949,Y 66.101,Z 0.4} C_VEL
LIN {X 80.093,Y 66.273,Z 0.4} C_VEL
LIN {X 81.553,Y 69.208,Z 0.4} C_VEL
LIN {X 84.664,Y 67.53,Z 0.4} C_VEL
LIN {X 84.851,Y 67.474,Z 0.4} C_VEL
LIN {X 85.122,Y 67.53,Z 0.4} C_VEL
LIN {X 85.382,Y 67.718,Z 0.4} C_VEL
LIN {X 85.471,Y 67.903,Z 0.4} C_VEL
LIN {X 86.278,Y 71.34,Z 0.4} C_VEL
LIN {X 89.691,Y 70.091,Z 0.4} C_VEL
LIN {X 89.884,Y 70.063,Z 0.4} C_VEL
LIN {X 90.198,Y 70.191,Z 0.4} C_VEL
LIN {X 90.338,Y 70.327,Z 0.4} C_VEL
LIN {X 90.413,Y 70.507,Z 0.4} C_VEL
LIN {X 90.4,Y 70.738,Z 0.4} C_VEL
LIN {X 86.67,Y 82.809,Z 0.4} C_VEL
LIN {X 86.615,Y 83.315,Z 0.4} C_VEL
LIN {X 86.555,Y 83.5,Z 0.4} C_VEL
LIN {X 86.408,Y 83.66,Z 0.4} C_VEL
LIN {X 71.417,Y 93.874,Z 0.4} C_VEL
LIN {X 71.071,Y 94.034,Z 0.4} C_VEL
LIN {X 70.88,Y 94.074,Z 0.4} C_VEL
LIN {X 70.753,Y 94.057,Z 0.4} C_VEL
LIN {X 55.605,Y 89.941,Z 0.4} C_VEL
LIN {X 40.456,Y 94.057,Z 0.4} C_VEL
LIN {X 40.261,Y 94.069,Z 0.4} C_VEL
LIN {X 39.786,Y 93.87,Z 0.4} C_VEL
LIN {X 39.642,Y 93.769,Z 0.4} C_VEL
LIN {X 24.802,Y 83.66,Z 0.4} C_VEL
LIN {X 24.666,Y 83.52,Z 0.4} C_VEL
LIN {X 24.595,Y 83.316,Z 0.4} C_VEL
LIN {X 24.538,Y 82.808,Z 0.4} C_VEL
LIN {X 20.808,Y 70.737,Z 0.4} C_VEL
LIN {X 20.79,Y 70.543,Z 0.4} C_VEL
LIN {X 20.85,Y 70.357,Z 0.4} C_VEL
LIN {X 21.105,Y 70.132,Z 0.4} C_VEL
LIN {X 21.288,Y 70.067,Z 0.4} C_VEL
LIN {X 21.518,Y 70.092,Z 0.4} C_VEL
LIN {X 24.932,Y 71.339,Z 0.4} C_VEL
LIN {X 25.737,Y 67.901,Z 0.4} C_VEL
LIN {X 25.819,Y 67.725,Z 0.4} C_VEL
LIN {X 26.098,Y 67.526,Z 0.4} C_VEL
LIN {X 26.286,Y 67.474,Z 0.4} C_VEL
LIN {X 26.545,Y 67.531,Z 0.4} C_VEL
LIN {X 29.657,Y 69.209,Z 0.4} C_VEL
LIN {X 31.116,Y 66.273,Z 0.4} C_VEL
LIN {X 31.237,Y 66.12,Z 0.4} C_VEL
LIN {X 31.408,Y 66.027,Z 0.4} C_VEL
LIN {X 31.602,Y 66.01,Z 0.4} C_VEL
LIN {X 31.787,Y 66.072,Z 0.4} C_VEL
LIN {X 31.949,Y 66.227,Z 0.4} C_VEL
LIN {X 37.21,Y 74.384,Z 0.4} C_VEL
LIN {X 42.531,Y 68.306,Z 0.4} C_VEL
LIN {X 42.556,Y 68.126,Z 0.4} C_VEL
LIN {X 49.327,Y 49.64,Z 0.4} C_VEL
LIN {X 49.436,Y 49.437,Z 0.4} C_VEL
LIN {X 49.514,Y 49.291,Z 0.4} C_VEL
LIN {X 64.738,Y 38.941,Z 0.4} C_VEL
LIN {X 64.863,Y 38.626,Z 0.4} C_VEL
LIN {X 65.058,Y 38.349,Z 0.4} C_VEL
LIN {X 65.313,Y 38.125,Z 0.4} C_VEL
LIN {X 65.612,Y 37.967,Z 0.4} C_VEL
LIN {X 66.125,Y 37.868,Z 0.4} C_VEL
LIN {X 66.464,Y 37.883,Z 0.4} C_VEL
LIN {X 66.789,Y 37.978,Z 0.4} C_VEL
LIN {X 67.102,Y 38.16,Z 0.4} C_VEL
LIN {X 68.61,Y 39.313,Z 0.4} C_VEL
LIN {X 69.165,Y 37.784,Z 0.4} C_VEL
LIN {X 69.318,Y 37.481,Z 0.4} C_VEL
LIN {X 69.536,Y 37.222,Z 0.4} C_VEL
LIN {X 69.81,Y 37.022,Z 0.4} C_VEL
LIN {X 70.122,Y 36.891,Z 0.4} C_VEL
LIN {X 70.588,Y 36.827,Z 0.4} C_VEL
LIN {X 70.927,Y 36.845,Z 0.4} C_VEL
LIN {X 71.252,Y 36.941,Z 0.4} C_VEL
LIN {X 71.545,Y 37.11,Z 0.4} C_VEL
LIN {X 71.791,Y 37.343,Z 0.4} C_VEL
LIN {X 71.985,Y 37.647,Z 0.4} C_VEL
LIN {X 72.92,Y 39.618,Z 0.4} C_VEL
LIN {X 75.203,Y 38.265,Z 0.4} C_VEL
LIN {X 75.513,Y 38.128,Z 0.4} C_VEL
LIN {X 75.846,Y 38.067,Z 0.4} C_VEL
LIN {X 76.184,Y 38.085,Z 0.4} C_VEL
LIN {X 76.509,Y 38.182,Z 0.4} C_VEL
LIN {X 76.802,Y 38.353,Z 0.4} C_VEL
LIN {X 77.047,Y 38.587,Z 0.4} C_VEL
LIN {X 77.293,Y 39.018,Z 0.4} C_VEL
LIN {X 79.004,Y 43.795,Z 0.4} C_VEL
LIN {X 79.264,Y 44.114,Z 0.4} C_VEL
LIN {X 79.403,Y 44.443,Z 0.4} C_VEL
LIN {X 82.975,Y 57.119,Z 0.4} C_VEL
LIN {X 83.028,Y 57.454,Z 0.4} C_VEL
LIN {X 83.001,Y 57.792,Z 0.4} C_VEL
LIN {X 82.896,Y 58.114,Z 0.4} C_VEL
LIN {X 82.719,Y 58.403,Z 0.4} C_VEL
LIN {X 82.479,Y 58.642,Z 0.4} C_VEL
LIN {X 82.047,Y 58.88,Z 0.4} C_VEL
LIN {X 77.0,Y 61.271,Z 0.4} C_VEL
LIN {X 76.678,Y 61.379,Z 0.4} C_VEL
LIN {X 76.341,Y 61.409,Z 0.4} C_VEL
LIN {X 76.006,Y 61.36,Z 0.4} C_VEL
LIN {X 75.692,Y 61.233,Z 0.4} C_VEL
LIN {X 75.346,Y 60.969,Z 0.4} C_VEL
LIN {X 74.972,Y 60.581,Z 0.4} C_VEL
LIN {X 64.781,Y 50.37,Z 0.4} C_VEL
LIN {X 64.571,Y 50.104,Z 0.4} C_VEL
LIN {X 64.43,Y 49.796,Z 0.4} C_VEL
LIN {X 64.364,Y 49.464,Z 0.4} C_VEL
LIN {X 64.419,Y 48.946,Z 0.4} C_VEL
LIN {X 64.462,Y 48.798,Z 0.4} C_VEL
LIN {X 64.69,Y 39.277,Z 0.4} C_VEL
LIN {X 64.715,Y 39.105,Z 0.4} C_VEL
LIN {X 65.694,Y 39.11,Z 0.4} C_VEL
LIN {X 65.81,Y 38.953,Z 0.4} C_VEL
LIN {X 66.096,Y 38.832,Z 0.4} C_VEL
LIN {X 66.387,Y 38.851,Z 0.4} C_VEL
LIN {X 66.519,Y 38.923,Z 0.4} C_VEL
LIN {X 69.067,Y 40.87,Z 0.4} C_VEL
LIN {X 70.068,Y 38.111,Z 0.4} C_VEL
LIN {X 70.17,Y 37.945,Z 0.4} C_VEL
LIN {X 70.33,Y 37.834,Z 0.4} C_VEL
LIN {X 70.652,Y 37.785,Z 0.4} C_VEL
LIN {X 70.845,Y 37.812,Z 0.4} C_VEL
LIN {X 71.012,Y 37.913,Z 0.4} C_VEL
LIN {X 71.118,Y 38.058,Z 0.4} C_VEL
LIN {X 72.504,Y 40.98,Z 0.4} C_VEL
LIN {X 75.692,Y 39.091,Z 0.4} C_VEL
LIN {X 75.877,Y 39.028,Z 0.4} C_VEL
LIN {X 76.071,Y 39.043,Z 0.4} C_VEL
LIN {X 76.243,Y 39.134,Z 0.4} C_VEL
LIN {X 76.389,Y 39.342,Z 0.4} C_VEL
LIN {X 78.192,Y 44.375,Z 0.4} C_VEL
LIN {X 78.417,Y 44.568,Z 0.4} C_VEL
LIN {X 78.479,Y 44.704,Z 0.4} C_VEL
LIN {X 82.051,Y 57.38,Z 0.4} C_VEL
LIN {X 82.065,Y 57.574,Z 0.4} C_VEL
LIN {X 82.0,Y 57.758,Z 0.4} C_VEL
LIN {X 81.774,Y 57.953,Z 0.4} C_VEL
LIN {X 81.669,Y 57.997,Z 0.4} C_VEL
LIN {X 76.589,Y 60.404,Z 0.4} C_VEL
LIN {X 76.399,Y 60.45,Z 0.4} C_VEL
LIN {X 76.207,Y 60.417,Z 0.4} C_VEL
LIN {X 76.037,Y 60.303,Z 0.4} C_VEL
LIN {X 75.663,Y 59.915,Z 0.4} C_VEL
LIN {X 65.46,Y 49.692,Z 0.4} C_VEL
LIN {X 65.353,Y 49.529,Z 0.4} C_VEL
LIN {X 65.34,Y 49.217,Z 0.4} C_VEL
LIN {X 65.419,Y 48.947,Z 0.4} C_VEL
LIN {X 65.647,Y 39.465,Z 0.4} C_VEL
LIN {X 65.65,Y 39.3,Z 0.4} C_VEL
LIN {X 69.793,Y 43.354,Z 0.4} C_VEL
LIN {X 70.651,Y 39.316,Z 0.4} C_VEL
LIN {X 71.971,Y 42.099,Z 0.4} C_VEL
LIN {X 72.623,Y 42.027,Z 0.4} C_VEL
LIN {X 75.681,Y 40.215,Z 0.4} C_VEL
LIN {X 77.398,Y 45.004,Z 0.4} C_VEL
LIN {X 77.604,Y 45.138,Z 0.4} C_VEL
LIN {X 81.015,Y 57.244,Z 0.4} C_VEL
LIN {X 76.489,Y 59.389,Z 0.4} C_VEL
LIN {X 76.351,Y 59.246,Z 0.4} C_VEL
LIN {X 66.341,Y 49.215,Z 0.4} C_VEL
LIN {X 66.376,Y 49.095,Z 0.4} C_VEL
LIN {X 66.589,Y 40.185,Z 0.4} C_VEL
LIN {X 69.392,Y 42.328,Z 0.4} C_VEL
LIN {X 70.76,Y 41.604,Z 0.4} C_VEL
LIN {X 71.443,Y 43.045,Z 0.4} C_VEL
LIN {X 72.909,Y 42.883,Z 0.4} C_VEL
LIN {X 75.212,Y 41.519,Z 0.4} C_VEL
LIN {X 76.668,Y 45.581,Z 0.4} C_VEL
LIN {X 76.845,Y 45.696,Z 0.4} C_VEL
LIN {X 79.964,Y 56.766,Z 0.4} C_VEL
LIN {X 76.677,Y 58.324,Z 0.4} C_VEL
LIN {X 67.263,Y 48.891,Z 0.4} C_VEL
LIN {X 67.43,Y 41.938,Z 0.4} C_VEL
LIN {X 69.942,Y 43.859,Z 0.4} C_VEL
LIN {X 70.365,Y 42.695,Z 0.4} C_VEL
LIN {X 70.921,Y 43.98,Z 0.4} C_VEL
LIN {X 73.191,Y 43.729,Z 0.4} C_VEL
LIN {X 74.748,Y 42.807,Z 0.4} C_VEL
LIN {X 75.946,Y 46.151,Z 0.4} C_VEL
LIN {X 76.095,Y 46.249,Z 0.4} C_VEL
LIN {X 78.925,Y 56.294,Z 0.4} C_VEL
LIN {X 76.861,Y 57.272,Z 0.4} C_VEL
LIN {X 68.144,Y 48.538,Z 0.4} C_VEL
LIN {X 68.261,Y 43.671,Z 0.4} C_VEL
LIN {X 70.356,Y 45.274,Z 0.4} C_VEL
LIN {X 70.811,Y 44.022,Z 0.4} C_VEL
LIN {X 75.171,Y 45.302,Z 0.4} C_VEL
LIN {X 75.171,Y 45.302,Z 0.4} C_VEL
LIN {X 72.735,Y 44.225,Z 0.4} C_VEL
LIN {X 72.735,Y 44.225,Z 0.4} C_VEL
LIN {X 76.509,Y 49.356,Z 0.4} C_VEL
LIN {X 76.509,Y 49.356,Z 0.4} C_VEL
LIN {X 70.89,Y 45.095,Z 0.4} C_VEL
LIN {X 70.89,Y 45.095,Z 0.4} C_VEL
LIN {X 77.575,Y 53.137,Z 0.4} C_VEL
LIN {X 77.575,Y 53.137,Z 0.4} C_VEL
LIN {X 68.657,Y 45.577,Z 0.4} C_VEL
LIN {X 68.657,Y 45.577,Z 0.4} C_VEL
LIN {X 77.974,Y 56.252,Z 0.4} C_VEL
LIN {X 77.974,Y 56.252,Z 0.4} C_VEL
LIN {X 68.593,Y 48.228,Z 0.4} C_VEL
LIN {X 68.593,Y 48.228,Z 0.4} C_VEL
LIN {X 67.829,Y 48.209,Z 0.4} C_VEL
LIN {X 67.829,Y 48.209,Z 2.4} C_VEL
LIN {X 41.686,Y 42.428,Z 0.4} C_VEL
LIN {X 41.686,Y 42.428,Z 0.4} C_VEL
LIN {X 44.619,Y 40.185,Z 0.4} C_VEL
LIN {X 44.834,Y 49.095,Z 0.4} C_VEL
LIN {X 44.868,Y 49.213,Z 0.4} C_VEL
LIN {X 34.857,Y 59.247,Z 0.4} C_VEL
LIN {X 34.719,Y 59.389,Z 0.4} C_VEL
LIN {X 30.193,Y 57.243,Z 0.4} C_VEL
LIN {X 33.605,Y 45.138,Z 0.4} C_VEL
LIN {X 33.812,Y 45.003,Z 0.4} C_VEL
LIN {X 35.528,Y 40.214,Z 0.4} C_VEL
LIN {X 38.587,Y 42.025,Z 0.4} C_VEL
LIN {X 39.239,Y 42.103,Z 0.4} C_VEL
LIN {X 40.56,Y 39.316,Z 0.4} C_VEL
LIN {X 41.63,Y 42.272,Z 0.4} C_VEL
LIN {X 41.266,Y 43.86,Z 0.4} C_VEL
LIN {X 43.779,Y 41.938,Z 0.4} C_VEL
LIN {X 43.947,Y 48.888,Z 0.4} C_VEL
LIN {X 34.532,Y 58.324,Z 0.4} C_VEL
LIN {X 31.244,Y 56.765,Z 0.4} C_VEL
LIN {X 34.364,Y 45.696,Z 0.4} C_VEL
LIN {X 34.542,Y 45.58,Z 0.4} C_VEL
LIN {X 35.998,Y 41.517,Z 0.4} C_VEL
LIN {X 38.298,Y 42.879,Z 0.4} C_VEL
LIN {X 39.764,Y 43.054,Z 0.4} C_VEL
LIN {X 40.451,Y 41.606,Z 0.4} C_VEL
LIN {X 40.778,Y 42.511,Z 0.4} C_VEL
LIN {X 40.778,Y 42.511,Z 0.4} C_VEL
LIN {X 40.85,Y 45.276,Z 0.4} C_VEL
LIN {X 42.948,Y 43.671,Z 0.4} C_VEL
LIN {X 43.066,Y 48.535,Z 0.4} C_VEL
LIN {X 34.348,Y 57.272,Z 0.4} C_VEL
LIN {X 32.283,Y 56.293,Z 0.4} C_VEL
LIN {X 35.114,Y 46.248,Z 0.4} C_VEL
LIN {X 35.264,Y 46.151,Z 0.4} C_VEL
LIN {X 36.462,Y 42.805,Z 0.4} C_VEL
LIN {X 38.012,Y 43.723,Z 0.4} C_VEL
LIN {X 40.255,Y 43.991,Z 0.4} C_VEL
LIN {X 42.543,Y 45.258,Z 0.4} C_VEL
LIN {X 42.543,Y 45.258,Z 0.4} C_VEL
LIN {X 42.577,Y 46.649,Z 0.4} C_VEL
LIN {X 42.577,Y 46.649,Z 0.4} C_VEL
LIN {X 38.837,Y 44.267,Z 0.4} C_VEL
LIN {X 38.837,Y 44.267,Z 0.4} C_VEL
LIN {X 42.093,Y 48.881,Z 0.4} C_VEL
LIN {X 42.093,Y 48.881,Z 0.4} C_VEL
LIN {X 36.332,Y 44.478,Z 0.4} C_VEL
LIN {X 36.332,Y 44.478,Z 0.4} C_VEL
LIN {X 40.737,Y 50.241,Z 0.4} C_VEL
LIN {X 40.737,Y 50.241,Z 0.4} C_VEL
LIN {X 35.599,Y 46.461,Z 0.4} C_VEL
LIN {X 35.599,Y 46.461,Z 0.4} C_VEL
LIN {X 39.381,Y 51.6,Z 0.4} C_VEL
LIN {X 39.381,Y 51.6,Z 0.4} C_VEL
LIN {X 34.936,Y 48.512,Z 0.4} C_VEL
LIN {X 34.936,Y 48.512,Z 0.4} C_VEL
LIN {X 38.025,Y 52.959,Z 0.4} C_VEL
LIN {X 38.025,Y 52.959,Z 0.4} C_VEL
LIN {X 34.338,Y 50.63,Z 0.4} C_VEL
LIN {X 34.338,Y 50.63,Z 0.4} C_VEL
LIN {X 36.669,Y 54.318,Z 0.4} C_VEL
LIN {X 36.669,Y 54.318,Z 0.4} C_VEL
LIN {X 33.741,Y 52.748,Z 0.4} C_VEL
LIN {X 33.741,Y 52.748,Z 0.4} C_VEL
LIN {X 35.313,Y 55.678,Z 0.4} C_VEL
LIN {X 35.313,Y 55.678,Z 0.4} C_VEL
LIN {X 33.144,Y 54.867,Z 0.4} C_VEL
LIN {X 33.144,Y 54.867,Z 0.4} C_VEL
LIN {X 33.117,Y 56.197,Z 0.4} C_VEL
LIN {X 33.117,Y 56.197,Z 0.4} C_VEL
LIN {X 32.787,Y 56.89,Z 0.4} C_VEL
LIN {X 32.787,Y 56.89,Z 2.4} C_VEL
LIN {X 74.106,Y 75.962,Z 0.4} C_VEL
LIN {X 74.106,Y 75.962,Z 0.4} C_VEL
LIN {X 74.443,Y 75.295,Z 0.4} C_VEL
LIN {X 74.679,Y 75.104,Z 0.4} C_VEL
LIN {X 79.609,Y 67.456,Z 0.4} C_VEL
LIN {X 80.948,Y 70.15,Z 0.4} C_VEL
LIN {X 81.382,Y 70.391,Z 0.4} C_VEL
LIN {X 84.655,Y 68.625,Z 0.4} C_VEL
LIN {X 85.494,Y 72.197,Z 0.4} C_VEL
LIN {X 85.978,Y 72.472,Z 0.4} C_VEL
LIN {X 88.317,Y 71.616,Z 0.4} C_VEL
LIN {X 89.226,Y 71.284,Z 0.4} C_VEL
LIN {X 88.941,Y 72.208,Z 0.4} C_VEL
LIN {X 85.726,Y 82.612,Z 0.4} C_VEL
LIN {X 85.685,Y 82.992,Z 0.4} C_VEL
LIN {X 70.916,Y 93.053,Z 0.4} C_VEL
LIN {X 70.84,Y 93.086,Z 0.4} C_VEL
LIN {X 55.605,Y 88.948,Z 0.4} C_VEL
LIN {X 40.369,Y 93.086,Z 0.4} C_VEL
LIN {X 40.189,Y 92.981,Z 0.4} C_VEL
LIN {X 25.524,Y 82.99,Z 0.4} C_VEL
LIN {X 25.482,Y 82.611,Z 0.4} C_VEL
LIN {X 22.268,Y 72.207,Z 0.4} C_VEL
LIN {X 21.983,Y 71.284,Z 0.4} C_VEL
LIN {X 22.891,Y 71.615,Z 0.4} C_VEL
LIN {X 25.232,Y 72.471,Z 0.4} C_VEL
LIN {X 25.717,Y 72.196,Z 0.4} C_VEL
LIN {X 26.553,Y 68.625,Z 0.4} C_VEL
LIN {X 29.835,Y 70.395,Z 0.4} C_VEL
LIN {X 30.266,Y 70.145,Z 0.4} C_VEL
LIN {X 31.6,Y 67.457,Z 0.4} C_VEL
LIN {X 36.532,Y 75.105,Z 0.4} C_VEL
LIN {X 36.765,Y 75.293,Z 0.4} C_VEL
LIN {X 37.098,Y 75.969,Z 0.4} C_VEL
LIN {X 43.511,Y 68.642,Z 0.4} C_VEL
LIN {X 43.493,Y 68.361,Z 0.4} C_VEL
LIN {X 50.174,Y 50.117,Z 0.4} C_VEL
LIN {X 55.403,Y 50.137,Z 0.4} C_VEL
LIN {X 55.606,Y 50.032,Z 0.4} C_VEL
LIN {X 55.809,Y 50.136,Z 0.4} C_VEL
LIN {X 61.036,Y 50.118,Z 0.4} C_VEL
LIN {X 67.716,Y 68.365,Z 0.4} C_VEL
LIN {X 67.701,Y 68.645,Z 0.4} C_VEL
LIN {X 73.997,Y 75.838,Z 0.4} C_VEL
LIN {X 75.344,Y 75.701,Z 0.4} C_VEL
LIN {X 79.51,Y 69.238,Z 0.4} C_VEL
LIN {X 80.28,Y 70.788,Z 0.4} C_VEL
LIN {X 81.376,Y 71.396,Z 0.4} C_VEL
LIN {X 84.059,Y 69.948,Z 0.4} C_VEL
LIN {X 84.723,Y 72.774,Z 0.4} C_VEL
LIN {X 85.897,Y 73.441,Z 0.4} C_VEL
LIN {X 87.098,Y 73.001,Z 0.4} C_VEL
LIN {X 87.858,Y 72.723,Z 0.4} C_VEL
LIN {X 87.619,Y 73.496,Z 0.4} C_VEL
LIN {X 84.858,Y 82.433,Z 0.4} C_VEL
LIN {X 84.852,Y 82.492,Z 0.4} C_VEL
LIN {X 70.698,Y 92.134,Z 0.4} C_VEL
LIN {X 55.605,Y 88.034,Z 0.4} C_VEL
LIN {X 40.512,Y 92.133,Z 0.4} C_VEL
LIN {X 26.356,Y 82.489,Z 0.4} C_VEL
LIN {X 26.349,Y 82.431,Z 0.4} C_VEL
LIN {X 23.589,Y 73.495,Z 0.4} C_VEL
LIN {X 23.351,Y 72.722,Z 0.4} C_VEL
LIN {X 24.111,Y 72.999,Z 0.4} C_VEL
LIN {X 25.312,Y 73.439,Z 0.4} C_VEL
LIN {X 26.488,Y 72.773,Z 0.4} C_VEL
LIN {X 27.149,Y 69.949,Z 0.4} C_VEL
LIN {X 29.851,Y 71.406,Z 0.4} C_VEL
LIN {X 30.938,Y 70.775,Z 0.4} C_VEL
LIN {X 31.7,Y 69.239,Z 0.4} C_VEL
LIN {X 35.868,Y 75.702,Z 0.4} C_VEL
LIN {X 36.06,Y 75.857,Z 0.4} C_VEL
LIN {X 36.891,Y 77.545,Z 0.4} C_VEL
LIN {X 44.414,Y 68.949,Z 0.4} C_VEL
LIN {X 44.385,Y 68.49,Z 0.4} C_VEL
LIN {X 50.789,Y 51.001,Z 0.4} C_VEL
LIN {X 55.618,Y 51.019,Z 0.4} C_VEL
LIN {X 60.421,Y 51.002,Z 0.4} C_VEL
LIN {X 66.825,Y 68.497,Z 0.4} C_VEL
LIN {X 66.801,Y 68.956,Z 0.4} C_VEL
LIN {X 74.304,Y 77.527,Z 0.4} C_VEL
LIN {X 75.055,Y 76.04,Z 0.4} C_VEL
LIN {X 76.001,Y 76.291,Z 0.4} C_VEL
LIN {X 79.412,Y 71.0,Z 0.4} C_VEL
LIN {X 79.62,Y 71.419,Z 0.4} C_VEL
LIN {X 81.37,Y 72.39,Z 0.4} C_VEL
LIN {X 83.471,Y 71.257,Z 0.4} C_VEL
LIN {X 83.961,Y 73.344,Z 0.4} C_VEL
LIN {X 85.817,Y 74.399,Z 0.4} C_VEL
LIN {X 86.506,Y 74.147,Z 0.4} C_VEL
LIN {X 84.093,Y 81.954,Z 0.4} C_VEL
LIN {X 70.54,Y 91.187,Z 0.4} C_VEL
LIN {X 55.605,Y 87.13,Z 0.4} C_VEL
LIN {X 40.67,Y 91.186,Z 0.4} C_VEL
LIN {X 27.114,Y 81.95,Z 0.4} C_VEL
LIN {X 24.703,Y 74.144,Z 0.4} C_VEL
LIN {X 25.391,Y 74.396,Z 0.4} C_VEL
LIN {X 27.25,Y 73.344,Z 0.4} C_VEL
LIN {X 27.738,Y 71.258,Z 0.4} C_VEL
LIN {X 29.866,Y 72.406,Z 0.4} C_VEL
LIN {X 31.602,Y 71.397,Z 0.4} C_VEL
LIN {X 31.798,Y 71.002,Z 0.4} C_VEL
LIN {X 35.211,Y 76.292,Z 0.4} C_VEL
LIN {X 35.361,Y 76.414,Z 0.4} C_VEL
LIN {X 36.687,Y 79.103,Z 0.4} C_VEL
LIN {X 45.308,Y 69.252,Z 0.4} C_VEL
LIN {X 45.266,Y 68.616,Z 0.4} C_VEL
LIN {X 51.397,Y 51.875,Z 0.4} C_VEL
LIN {X 55.618,Y 51.891,Z 0.4} C_VEL
LIN {X 59.812,Y 51.876,Z 0.4} C_VEL
LIN {X 65.946,Y 68.631,Z 0.4} C_VEL
LIN {X 65.911,Y 69.264,Z 0.4} C_VEL
LIN {X 74.499,Y 79.074,Z 0.4} C_VEL
LIN {X 75.765,Y 76.57,Z 0.4} C_VEL
LIN {X 83.29,Y 72.429,Z 0.4} C_VEL
LIN {X 83.29,Y 72.429,Z 0.4} C_VEL
LIN {X 85.477,Y 75.973,Z 0.4} C_VEL
LIN {X 85.477,Y 75.973,Z 0.4} C_VEL
LIN {X 80.637,Y 72.491,Z 0.4} C_VEL
LIN {X 80.637,Y 72.491,Z 0.4} C_VEL
LIN {X 84.835,Y 78.047,Z 0.4} C_VEL
LIN {X 84.835,Y 78.047,Z 0.4} C_VEL
LIN {X 78.563,Y 73.132,Z 0.4} C_VEL
LIN {X 78.563,Y 73.132,Z 0.4} C_VEL
LIN {X 84.195,Y 80.122,Z 0.4} C_VEL
LIN {X 84.195,Y 80.122,Z 0.4} C_VEL
LIN {X 77.498,Y 74.783,Z 0.4} C_VEL
LIN {X 77.498,Y 74.783,Z 0.4} C_VEL
LIN {X 83.308,Y 81.95,Z 0.4} C_VEL
LIN {X 83.308,Y 81.95,Z 0.4} C_VEL
LIN {X 76.434,Y 76.434,Z 0.4} C_VEL
LIN {X 76.434,Y 76.434,Z 0.4} C_VEL
LIN {X 81.693,Y 83.051,Z 0.4} C_VEL
LIN {X 81.693,Y 83.051,Z 0.4} C_VEL
LIN {X 75.452,Y 78.167,Z 0.4} C_VEL
LIN {X 75.452,Y 78.167,Z 0.4} C_VEL
LIN {X 80.078,Y 84.151,Z 0.4} C_VEL
LIN {X 80.078,Y 84.151,Z 0.4} C_VEL
LIN {X 59.109,Y 52.321,Z 0.4} C_VEL
LIN {X 59.109,Y 52.321,Z 0.4} C_VEL
LIN {X 60.514,Y 55.084,Z 0.4} C_VEL
LIN {X 60.514,Y 55.084,Z 0.4} C_VEL
LIN {X 56.403,Y 52.33,Z 0.4} C_VEL
LIN {X 56.403,Y 52.33,Z 0.4} C_VEL
LIN {X 62.082,Y 59.367,Z 0.4} C_VEL
LIN {X 62.082,Y 59.367,Z 0.4} C_VEL
LIN {X 53.684,Y 52.326,Z 0.4} C_VEL
LIN {X 53.684,Y 52.326,Z 0.4} C_VEL
LIN {X 63.65,Y 63.65,Z 0.4} C_VEL
LIN {X 63.65,Y 63.65,Z 0.4} C_VEL
LIN {X 51.505,Y 52.863,Z 0.4} C_VEL
LIN {X 51.505,Y 52.863,Z 0.4} C_VEL
LIN {X 65.218,Y 67.933,Z 0.4} C_VEL
LIN {X 65.218,Y 67.933,Z 0.4} C_VEL
LIN {X 50.778,Y 54.85,Z 0.4} C_VEL
LIN {X 50.778,Y 54.85,Z 0.4} C_VEL
LIN {X 79.27,Y 84.701,Z 0.4} C_VEL
LIN {X 79.27,Y 84.701,Z 0.4} C_VEL
LIN {X 50.05,Y 56.838,Z 0.4} C_VEL
LIN {X 50.05,Y 56.838,Z 0.4} C_VEL
LIN {X 77.655,Y 85.801,Z 0.4} C_VEL
LIN {X 77.655,Y 85.801,Z 0.4} C_VEL
LIN {X 49.322,Y 58.826,Z 0.4} C_VEL
LIN {X 49.322,Y 58.826,Z 0.4} C_VEL
LIN {X 76.04,Y 86.902,Z 0.4} C_VEL
LIN {X 76.04,Y 86.902,Z 0.4} C_VEL
LIN {X 48.595,Y 60.814,Z 0.4} C_VEL
LIN {X 48.595,Y 60.814,Z 0.4} C_VEL
LIN {X 74.425,Y 88.002,Z 0.4} C_VEL
LIN {X 74.425,Y 88.002,Z 0.4} C_VEL
LIN {X 47.866,Y 62.8,Z 0.4} C_VEL
LIN {X 47.866,Y 62.8,Z 0.4} C_VEL
LIN {X 72.81,Y 89.102,Z 0.4} C_VEL
LIN {X 72.81,Y 89.102,Z 0.4} C_VEL
LIN {X 47.139,Y 64.788,Z 0.4} C_VEL
LIN {X 47.139,Y 64.788,Z 0.4} C_VEL
LIN {X 71.195,Y 90.202,Z 0.4} C_VEL
LIN {X 71.195,Y 90.202,Z 0.4} C_VEL
LIN {X 46.411,Y 66.776,Z 0.4} C_VEL
LIN {X 46.411,Y 66.776,Z 0.4} C_VEL
LIN {X 68.431,Y 90.153,Z 0.4} C_VEL
LIN {X 68.431,Y 90.153,Z 0.4} C_VEL
LIN {X 45.722,Y 68.802,Z 0.4} C_VEL
LIN {X 45.722,Y 68.802,Z 0.4} C_VEL
LIN {X 64.704,Y 89.142,Z 0.4} C_VEL
LIN {X 64.704,Y 89.142,Z 0.4} C_VEL
LIN {X 44.757,Y 70.552,Z 0.4} C_VEL
LIN {X 44.757,Y 70.552,Z 0.4} C_VEL
LIN {X 60.976,Y 88.129,Z 0.4} C_VEL
LIN {X 60.976,Y 88.129,Z 0.4} C_VEL
LIN {X 43.489,Y 72.0,Z 0.4} C_VEL
LIN {X 43.489,Y 72.0,Z 0.4} C_VEL
LIN {X 57.249,Y 87.117,Z 0.4} C_VEL
LIN {X 57.249,Y 87.117,Z 0.4} C_VEL
LIN {X 42.222,Y 73.448,Z 0.4} C_VEL
LIN {X 42.222,Y 73.448,Z 0.4} C_VEL
LIN {X 54.411,Y 86.995,Z 0.4} C_VEL
LIN {X 54.411,Y 86.995,Z 0.4} C_VEL
LIN {X 40.955,Y 74.896,Z 0.4} C_VEL
LIN {X 40.955,Y 74.896,Z 0.4} C_VEL
LIN {X 52.276,Y 87.575,Z 0.4} C_VEL
LIN {X 52.276,Y 87.575,Z 0.4} C_VEL
LIN {X 39.688,Y 76.344,Z 0.4} C_VEL
LIN {X 39.688,Y 76.344,Z 0.4} C_VEL
LIN {X 50.14,Y 88.155,Z 0.4} C_VEL
LIN {X 50.14,Y 88.155,Z 0.4} C_VEL
LIN {X 38.42,Y 77.792,Z 0.4} C_VEL
LIN {X 38.42,Y 77.792,Z 0.4} C_VEL
LIN {X 48.004,Y 88.734,Z 0.4} C_VEL
LIN {X 48.004,Y 88.734,Z 0.4} C_VEL
LIN {X 37.153,Y 79.24,Z 0.4} C_VEL
LIN {X 37.153,Y 79.24,Z 0.4} C_VEL
LIN {X 31.335,Y 72.064,Z 0.4} C_VEL
LIN {X 31.335,Y 72.064,Z 0.4} C_VEL
LIN {X 35.394,Y 77.481,Z 0.4} C_VEL
LIN {X 35.394,Y 77.481,Z 0.4} C_VEL
LIN {X 45.869,Y 89.313,Z 0.4} C_VEL
LIN {X 45.869,Y 89.313,Z 0.4} C_VEL
LIN {X 27.862,Y 72.665,Z 0.4} C_VEL
LIN {X 27.862,Y 72.665,Z 0.4} C_VEL
LIN {X 43.733,Y 89.893,Z 0.4} C_VEL
LIN {X 43.733,Y 89.893,Z 0.4} C_VEL
LIN {X 26.665,Y 74.183,Z 0.4} C_VEL
LIN {X 26.665,Y 74.183,Z 0.4} C_VEL
LIN {X 41.598,Y 90.473,Z 0.4} C_VEL
LIN {X 41.598,Y 90.473,Z 0.4} C_VEL
LIN {X 25.728,Y 75.961,Z 0.4} C_VEL
LIN {X 25.728,Y 75.961,Z 0.4} C_VEL
LIN {X 35.612,Y 87.202,Z 0.4} C_VEL
LIN {X 35.612,Y 87.202,Z 0.4} C_VEL
LIN {X 26.941,Y 79.889,Z 0.4} C_VEL
LIN {X 26.941,Y 79.889,Z 0.4} C_VEL
LIN {X 75.834,Y 74.899,Z 0.8} C_VEL
LIN {X 79.621,Y 69.025,Z 0.8} C_VEL
LIN {X 80.357,Y 70.507,Z 0.8} C_VEL
LIN {X 81.427,Y 71.112,Z 0.8} C_VEL
LIN {X 84.068,Y 69.687,Z 0.8} C_VEL
LIN {X 84.732,Y 72.514,Z 0.8} C_VEL
LIN {X 85.946,Y 73.202,Z 0.8} C_VEL
LIN {X 87.443,Y 72.654,Z 0.8} C_VEL
LIN {X 88.075,Y 72.423,Z 0.8} C_VEL
LIN {X 87.877,Y 73.066,Z 0.8} C_VEL
LIN {X 85.278,Y 81.479,Z 0.8} C_VEL
LIN {X 85.14,Y 82.73,Z 0.8} C_VEL
LIN {X 71.059,Y 92.319,Z 0.8} C_VEL
LIN {X 70.714,Y 92.558,Z 0.8} C_VEL
LIN {X 70.376,Y 92.707,Z 0.8} C_VEL
LIN {X 55.605,Y 88.694,Z 0.8} C_VEL
LIN {X 40.833,Y 92.707,Z 0.8} C_VEL
LIN {X 40.495,Y 92.558,Z 0.8} C_VEL
LIN {X 40.149,Y 92.318,Z 0.8} C_VEL
LIN {X 26.07,Y 82.728,Z 0.8} C_VEL
LIN {X 25.931,Y 81.477,Z 0.8} C_VEL
LIN {X 23.331,Y 73.065,Z 0.8} C_VEL
LIN {X 23.133,Y 72.422,Z 0.8} C_VEL
LIN {X 23.766,Y 72.653,Z 0.8} C_VEL
LIN {X 25.263,Y 73.201,Z 0.8} C_VEL
LIN {X 26.479,Y 72.513,Z 0.8} C_VEL
LIN {X 27.141,Y 69.687,Z 0.8} C_VEL
LIN {X 29.789,Y 71.115,Z 0.8} C_VEL
LIN {X 30.855,Y 70.501,Z 0.8} C_VEL
LIN {X 31.588,Y 69.025,Z 0.8} C_VEL
LIN {X 35.378,Y 74.9,Z 0.8} C_VEL
LIN {X 36.092,Y 75.475,Z 0.8} C_VEL
LIN {X 36.924,Y 77.144,Z 0.8} C_VEL
LIN {X 43.914,Y 69.156,Z 0.8} C_VEL
LIN {X 43.866,Y 68.379,Z 0.8} C_VEL
LIN {X 50.322,Y 50.752,Z 0.8} C_VEL
LIN {X 54.923,Y 50.769,Z 0.8} C_VEL
LIN {X 55.605,Y 50.415,Z 0.8} C_VEL
LIN {X 56.288,Y 50.768,Z 0.8} C_VEL
LIN {X 60.888,Y 50.753,Z 0.8} C_VEL
LIN {X 67.342,Y 68.383,Z 0.8} C_VEL
LIN {X 67.297,Y 69.158,Z 0.8} C_VEL
LIN {X 74.28,Y 77.138,Z 0.8} C_VEL
LIN {X 75.007,Y 75.692,Z 0.8} C_VEL
LIN {X 74.53,Y 75.007,Z 0.8} C_VEL
LIN {X 75.28,Y 74.401,Z 0.8} C_VEL
LIN {X 79.704,Y 67.54,Z 0.8} C_VEL
LIN {X 80.915,Y 69.978,Z 0.8} C_VEL
LIN {X 81.435,Y 70.272,Z 0.8} C_VEL
LIN {X 84.564,Y 68.584,Z 0.8} C_VEL
LIN {X 85.374,Y 72.033,Z 0.8} C_VEL
LIN {X 86.013,Y 72.395,Z 0.8} C_VEL
LIN {X 88.458,Y 71.5,Z 0.8} C_VEL
LIN {X 89.215,Y 71.223,Z 0.8} C_VEL
LIN {X 88.978,Y 71.993,Z 0.8} C_VEL
LIN {X 86.001,Y 81.629,Z 0.8} C_VEL
LIN {X 85.834,Y 83.146,Z 0.8} C_VEL
LIN {X 71.475,Y 92.925,Z 0.8} C_VEL
LIN {X 71.074,Y 93.203,Z 0.8} C_VEL
LIN {X 70.435,Y 93.484,Z 0.8} C_VEL
LIN {X 55.605,Y 89.456,Z 0.8} C_VEL
LIN {X 40.774,Y 93.484,Z 0.8} C_VEL
LIN {X 40.135,Y 93.203,Z 0.8} C_VEL
LIN {X 39.733,Y 92.924,Z 0.8} C_VEL
LIN {X 25.377,Y 83.145,Z 0.8} C_VEL
LIN {X 25.208,Y 81.628,Z 0.8} C_VEL
LIN {X 22.23,Y 71.993,Z 0.8} C_VEL
LIN {X 21.993,Y 71.223,Z 0.8} C_VEL
LIN {X 22.75,Y 71.499,Z 0.8} C_VEL
LIN {X 25.197,Y 72.394,Z 0.8} C_VEL
LIN {X 25.837,Y 72.032,Z 0.8} C_VEL
LIN {X 26.644,Y 68.584,Z 0.8} C_VEL
LIN {X 29.777,Y 70.274,Z 0.8} C_VEL
LIN {X 30.296,Y 69.975,Z 0.8} C_VEL
LIN {X 31.505,Y 67.54,Z 0.8} C_VEL
LIN {X 35.931,Y 74.402,Z 0.8} C_VEL
LIN {X 36.679,Y 75.005,Z 0.8} C_VEL
LIN {X 37.093,Y 75.835,Z 0.8} C_VEL
LIN {X 43.162,Y 68.9,Z 0.8} C_VEL
LIN {X 43.123,Y 68.272,Z 0.8} C_VEL
LIN {X 49.699,Y 50.315,Z 0.8} C_VEL
LIN {X 49.825,Y 50.015,Z 0.8} C_VEL
LIN {X 54.745,Y 50.033,Z 0.8} C_VEL
LIN {X 55.605,Y 49.587,Z 0.8} C_VEL
LIN {X 56.466,Y 50.032,Z 0.8} C_VEL
LIN {X 61.385,Y 50.016,Z 0.8} C_VEL
LIN {X 61.511,Y 50.316,Z 0.8} C_VEL
LIN {X 68.085,Y 68.274,Z 0.8} C_VEL
LIN {X 68.048,Y 68.901,Z 0.8} C_VEL
LIN {X 73.983,Y 75.683,Z 0.8} C_VEL
LIN {X 76.38,Y 75.39,Z 0.8} C_VEL
LIN {X 79.54,Y 70.49,Z 0.8} C_VEL
LIN {X 79.807,Y 71.029,Z 0.8} C_VEL
LIN {X 81.418,Y 71.941,Z 0.8} C_VEL
LIN {X 83.578,Y 70.775,Z 0.8} C_VEL
LIN {X 84.098,Y 72.988,Z 0.8} C_VEL
LIN {X 85.881,Y 73.998,Z 0.8} C_VEL
LIN {X 86.95,Y 73.607,Z 0.8} C_VEL
LIN {X 84.565,Y 81.331,Z 0.8} C_VEL
LIN {X 84.456,Y 82.318,Z 0.8} C_VEL
LIN {X 70.648,Y 91.722,Z 0.8} C_VEL
LIN {X 70.316,Y 91.941,Z 0.8} C_VEL
LIN {X 55.605,Y 87.943,Z 0.8} C_VEL
LIN {X 40.893,Y 91.941,Z 0.8} C_VEL
LIN {X 40.56,Y 91.721,Z 0.8} C_VEL
LIN {X 26.754,Y 82.316,Z 0.8} C_VEL
LIN {X 26.644,Y 81.328,Z 0.8} C_VEL
LIN {X 24.258,Y 73.605,Z 0.8} C_VEL
LIN {X 25.328,Y 73.997,Z 0.8} C_VEL
LIN {X 27.113,Y 72.987,Z 0.8} C_VEL
LIN {X 27.631,Y 70.775,Z 0.8} C_VEL
LIN {X 29.8,Y 71.945,Z 0.8} C_VEL
LIN {X 31.407,Y 71.02,Z 0.8} C_VEL
LIN {X 31.67,Y 70.49,Z 0.8} C_VEL
LIN {X 34.832,Y 75.391,Z 0.8} C_VEL
LIN {X 35.514,Y 75.941,Z 0.8} C_VEL
LIN {X 36.757,Y 78.436,Z 0.8} C_VEL
LIN {X 44.656,Y 69.409,Z 0.8} C_VEL
LIN {X 44.598,Y 68.487,Z 0.8} C_VEL
LIN {X 50.828,Y 51.479,Z 0.8} C_VEL
LIN {X 55.099,Y 51.494,Z 0.8} C_VEL
LIN {X 55.606,Y 51.231,Z 0.8} C_VEL
LIN {X 56.113,Y 51.493,Z 0.8} C_VEL
LIN {X 60.382,Y 51.48,Z 0.8} C_VEL
LIN {X 66.61,Y 68.493,Z 0.8} C_VEL
LIN {X 66.556,Y 69.412,Z 0.8} C_VEL
LIN {X 74.444,Y 78.426,Z 0.8} C_VEL
LIN {X 75.602,Y 76.124,Z 0.8} C_VEL
LIN {X 24.949,Y 74.611,Z 0.8} C_VEL
LIN {X 24.949,Y 74.611,Z 0.8} C_VEL
LIN {X 28.114,Y 71.446,Z 0.8} C_VEL
LIN {X 28.114,Y 71.446,Z 0.8} C_VEL
LIN {X 25.216,Y 75.475,Z 0.8} C_VEL
LIN {X 25.216,Y 75.475,Z 0.8} C_VEL
LIN {X 29.583,Y 72.239,Z 0.8} C_VEL
LIN {X 29.583,Y 72.239,Z 0.8} C_VEL
LIN {X 25.75,Y 77.204,Z 0.8} C_VEL
LIN {X 25.75,Y 77.204,Z 0.8} C_VEL
LIN {X 32.162,Y 71.924,Z 0.8} C_VEL
LIN {X 32.162,Y 71.924,Z 0.8} C_VEL
LIN {X 26.284,Y 78.932,Z 0.8} C_VEL
LIN {X 26.284,Y 78.932,Z 0.8} C_VEL
LIN {X 33.049,Y 73.299,Z 0.8} C_VEL
LIN {X 33.049,Y 73.299,Z 0.8} C_VEL
LIN {X 26.819,Y 80.661,Z 0.8} C_VEL
LIN {X 26.819,Y 80.661,Z 0.8} C_VEL
LIN {X 33.937,Y 74.674,Z 0.8} C_VEL
LIN {X 33.937,Y 74.674,Z 0.8} C_VEL
LIN {X 27.415,Y 82.327,Z 0.8} C_VEL
LIN {X 27.415,Y 82.327,Z 0.8} C_VEL
LIN {X 34.935,Y 75.939,Z 0.8} C_VEL
LIN {X 34.935,Y 75.939,Z 0.8} C_VEL
LIN {X 28.761,Y 83.244,Z 0.8} C_VEL
LIN {X 28.761,Y 83.244,Z 0.8} C_VEL
LIN {X 35.802,Y 77.334,Z 0.8} C_VEL
LIN {X 35.802,Y 77.334,Z 0.8} C_VEL
LIN {X 30.107,Y 84.161,Z 0.8} C_VEL
LIN {X 30.107,Y 84.161,Z 0.8} C_VEL
LIN {X 36.555,Y 78.844,Z 0.8} C_VEL
LIN {X 36.555,Y 78.844,Z 0.8} C_VEL
LIN {X 52.24,Y 51.845,Z 0.8} C_VEL
LIN {X 52.24,Y 51.845,Z 0.8} C_VEL
LIN {X 49.756,Y 55.461,Z 0.8} C_VEL
LIN {X 49.756,Y 55.461,Z 0.8} C_VEL
LIN {X 54.494,Y 51.854,Z 0.8} C_VEL
LIN {X 54.494,Y 51.854,Z 0.8} C_VEL
LIN {X 48.448,Y 59.032,Z 0.8} C_VEL
LIN {X 48.448,Y 59.032,Z 0.8} C_VEL
LIN {X 56.758,Y 51.853,Z 0.8} C_VEL
LIN {X 56.758,Y 51.853,Z 0.8} C_VEL
LIN {X 47.139,Y 62.602,Z 0.8} C_VEL
LIN {X 47.139,Y 62.602,Z 0.8} C_VEL
LIN {X 59.027,Y 51.847,Z 0.8} C_VEL
LIN {X 59.027,Y 51.847,Z 0.8} C_VEL
LIN {X 45.832,Y 66.173,Z 0.8} C_VEL
LIN {X 45.832,Y 66.173,Z 0.8} C_VEL
LIN {X 60.439,Y 52.697,Z 0.8} C_VEL
LIN {X 60.439,Y 52.697,Z 0.8} C_VEL
LIN {X 45.01,Y 69.257,Z 0.8} C_VEL
LIN {X 45.01,Y 69.257,Z 0.8} C_VEL
LIN {X 61.045,Y 54.353,Z 0.8} C_VEL
LIN {X 61.045,Y 54.353,Z 0.8} C_VEL
LIN {X 31.453,Y 85.077,Z 0.8} C_VEL
LIN {X 31.453,Y 85.077,Z 0.8} C_VEL
LIN {X 61.651,Y 56.01,Z 0.8} C_VEL
LIN {X 61.651,Y 56.01,Z 0.8} C_VEL
LIN {X 32.799,Y 85.994,Z 0.8} C_VEL
LIN {X 32.799,Y 85.994,Z 0.8} C_VEL
LIN {X 62.258,Y 57.666,Z 0.8} C_VEL
LIN {X 62.258,Y 57.666,Z 0.8} C_VEL
LIN {X 34.145,Y 86.911,Z 0.8} C_VEL
LIN {X 34.145,Y 86.911,Z 0.8} C_VEL
LIN {X 62.864,Y 59.323,Z 0.8} C_VEL
LIN {X 62.864,Y 59.323,Z 0.8} C_VEL
LIN {X 35.491,Y 87.828,Z 0.8} C_VEL
LIN {X 35.491,Y 87.828,Z 0.8} C_VEL
LIN {X 63.471,Y 60.979,Z 0.8} C_VEL
LIN {X 63.471,Y 60.979,Z 0.8} C_VEL
LIN {X 36.837,Y 88.744,Z 0.8} C_VEL
LIN {X 36.837,Y 88.744,Z 0.8} C_VEL
LIN {X 64.077,Y 62.636,Z 0.8} C_VEL
LIN {X 64.077,Y 62.636,Z 0.8} C_VEL
LIN {X 38.183,Y 89.661,Z 0.8} C_VEL
LIN {X 38.183,Y 89.661,Z 0.8} C_VEL
LIN {X 64.684,Y 64.292,Z 0.8} C_VEL
LIN {X 64.684,Y 64.292,Z 0.8} C_VEL
LIN {X 39.528,Y 90.578,Z 0.8} C_VEL
LIN {X 39.528,Y 90.578,Z 0.8} C_VEL
LIN {X 65.29,Y 65.948,Z 0.8} C_VEL
LIN {X 65.29,Y 65.948,Z 0.8} C_VEL
LIN {X 40.875,Y 91.494,Z 0.8} C_VEL
LIN {X 40.875,Y 91.494,Z 0.8} C_VEL
LIN {X 65.896,Y 67.605,Z 0.8} C_VEL
LIN {X 65.896,Y 67.605,Z 0.8} C_VEL
LIN {X 43.879,Y 90.753,Z 0.8} C_VEL
LIN {X 43.879,Y 90.753,Z 0.8} C_VEL
LIN {X 66.204,Y 69.56,Z 0.8} C_VEL
LIN {X 66.204,Y 69.56,Z 0.8} C_VEL
LIN {X 46.987,Y 89.908,Z 0.8} C_VEL
LIN {X 46.987,Y 89.908,Z 0.8} C_VEL
LIN {X 67.259,Y 70.767,Z 0.8} C_VEL
LIN {X 67.259,Y 70.767,Z 0.8} C_VEL
LIN {X 50.094,Y 89.064,Z 0.8} C_VEL
LIN {X 50.094,Y 89.064,Z 0.8} C_VEL
LIN {X 68.315,Y 71.974,Z 0.8} C_VEL
LIN {X 68.315,Y 71.974,Z 0.8} C_VEL
LIN {X 53.202,Y 88.219,Z 0.8} C_VEL
LIN {X 53.202,Y 88.219,Z 0.8} C_VEL
LIN {X 69.372,Y 73.18,Z 0.8} C_VEL
LIN {X 69.372,Y 73.18,Z 0.8} C_VEL
LIN {X 56.007,Y 87.676,Z 0.8} C_VEL
LIN {X 56.007,Y 87.676,Z 0.8} C_VEL
LIN {X 70.427,Y 74.387,Z 0.8} C_VEL
LIN {X 70.427,Y 74.387,Z 0.8} C_VEL
LIN {X 57.786,Y 88.159,Z 0.8} C_VEL
LIN {X 57.786,Y 88.159,Z 0.8} C_VEL
LIN {X 71.484,Y 75.593,Z 0.8} C_VEL
LIN {X 71.484,Y 75.593,Z 0.8} C_VEL
LIN {X 59.566,Y 88.642,Z 0.8} C_VEL
LIN {X 59.566,Y 88.642,Z 0.8} C_VEL
LIN {X 72.539,Y 76.8,Z 0.8} C_VEL
LIN {X 72.539,Y 76.8,Z 0.8} C_VEL
LIN {X 61.345,Y 89.126,Z 0.8} C_VEL
LIN {X 61.345,Y 89.126,Z 0.8} C_VEL
LIN {X 73.595,Y 78.008,Z 0.8} C_VEL
LIN {X 73.595,Y 78.008,Z 0.8} C_VEL
LIN {X 63.124,Y 89.61,Z 0.8} C_VEL
LIN {X 63.124,Y 89.61,Z 0.8} C_VEL
LIN {X 80.03,Y 71.573,Z 0.8} C_VEL
LIN {X 80.03,Y 71.573,Z 0.8} C_VEL
LIN {X 75.398,Y 77.336,Z 0.8} C_VEL
LIN {X 75.398,Y 77.336,Z 0.8} C_VEL
LIN {X 64.014,Y 89.852,Z 0.8} C_VEL
LIN {X 64.014,Y 89.852,Z 0.8} C_VEL
LIN {X 83.398,Y 71.599,Z 0.8} C_VEL
LIN {X 83.398,Y 71.599,Z 0.8} C_VEL
LIN {X 65.793,Y 90.335,Z 0.8} C_VEL
LIN {X 65.793,Y 90.335,Z 0.8} C_VEL
LIN {X 83.942,Y 73.317,Z 0.8} C_VEL
LIN {X 83.942,Y 73.317,Z 0.8} C_VEL
LIN {X 67.572,Y 90.819,Z 0.8} C_VEL
LIN {X 67.572,Y 90.819,Z 0.8} C_VEL
LIN {X 85.388,Y 74.135,Z 0.8} C_VEL
LIN {X 85.388,Y 74.135,Z 0.8} C_VEL
LIN {X 69.351,Y 91.303,Z 0.8} C_VEL
LIN {X 69.351,Y 91.303,Z 0.8} C_VEL
LIN {X 85.85,Y 75.935,Z 0.8} C_VEL
LIN {X 85.85,Y 75.935,Z 0.8} C_VEL
LIN {X 73.743,Y 89.173,Z 0.8} C_VEL
LIN {X 73.743,Y 89.173,Z 0.8} C_VEL
LIN {X 84.839,Y 79.209,Z 0.8} C_VEL
LIN {X 84.839,Y 79.209,Z 0.8} C_VEL
LIN {X 80.838,Y 84.341,Z 0.8} C_VEL
LIN {X 80.838,Y 84.341,Z 0.8} C_VEL
LIN {X 80.838,Y 84.341,Z 0.8} C_VEL
LIN {X 70.464,Y 41.937,Z 0.8} C_VEL
LIN {X 70.737,Y 41.183,Z 0.8} C_VEL
LIN {X 71.08,Y 41.907,Z 0.8} C_VEL
LIN {X 71.578,Y 42.959,Z 0.8} C_VEL
LIN {X 73.252,Y 42.767,Z 0.8} C_VEL
LIN {X 75.318,Y 41.542,Z 0.8} C_VEL
LIN {X 76.612,Y 45.153,Z 0.8} C_VEL
LIN {X 77.244,Y 45.564,Z 0.8} C_VEL
LIN {X 77.333,Y 45.871,Z 0.8} C_VEL
LIN {X 80.453,Y 56.947,Z 0.8} C_VEL
LIN {X 76.731,Y 58.711,Z 0.8} C_VEL
LIN {X 76.167,Y 58.125,Z 0.8} C_VEL
LIN {X 67.081,Y 49.023,Z 0.8} C_VEL
LIN {X 67.225,Y 48.528,Z 0.8} C_VEL
LIN {X 67.386,Y 41.796,Z 0.8} C_VEL
LIN {X 69.836,Y 43.669,Z 0.8} C_VEL
LIN {X 70.383,Y 42.16,Z 0.8} C_VEL
LIN {X 70.32,Y 40.176,Z 0.8} C_VEL
LIN {X 70.646,Y 39.275,Z 0.8} C_VEL
LIN {X 71.056,Y 40.141,Z 0.8} C_VEL
LIN {X 72.017,Y 42.169,Z 0.8} C_VEL
LIN {X 73.012,Y 42.055,Z 0.8} C_VEL
LIN {X 75.71,Y 40.456,Z 0.8} C_VEL
LIN {X 77.22,Y 44.672,Z 0.8} C_VEL
LIN {X 77.876,Y 45.098,Z 0.8} C_VEL
LIN {X 78.039,Y 45.669,Z 0.8} C_VEL
LIN {X 81.329,Y 57.348,Z 0.8} C_VEL
LIN {X 81.281,Y 57.368,Z 0.8} C_VEL
LIN {X 76.569,Y 59.601,Z 0.8} C_VEL
LIN {X 75.642,Y 58.64,Z 0.8} C_VEL
LIN {X 66.254,Y 49.234,Z 0.8} C_VEL
LIN {X 66.493,Y 48.414,Z 0.8} C_VEL
LIN {X 66.686,Y 40.335,Z 0.8} C_VEL
LIN {X 69.328,Y 42.355,Z 0.8} C_VEL
LIN {X 71.145,Y 43.738,Z 0.8} C_VEL
LIN {X 73.488,Y 43.47,Z 0.8} C_VEL
LIN {X 74.932,Y 42.613,Z 0.8} C_VEL
LIN {X 76.012,Y 45.627,Z 0.8} C_VEL
LIN {X 76.623,Y 46.025,Z 0.8} C_VEL
LIN {X 76.683,Y 46.232,Z 0.8} C_VEL
LIN {X 79.59,Y 56.554,Z 0.8} C_VEL
LIN {X 76.892,Y 57.833,Z 0.8} C_VEL
LIN {X 76.685,Y 57.617,Z 0.8} C_VEL
LIN {X 67.897,Y 48.814,Z 0.8} C_VEL
LIN {X 67.948,Y 48.64,Z 0.8} C_VEL
LIN {X 68.077,Y 43.237,Z 0.8} C_VEL
LIN {X 70.18,Y 44.845,Z 0.8} C_VEL
LIN {X 70.758,Y 43.252,Z 0.8} C_VEL
LIN {X 68.404,Y 44.732,Z 0.8} C_VEL
LIN {X 68.404,Y 44.732,Z 0.8} C_VEL
LIN {X 68.377,Y 45.891,Z 0.8} C_VEL
LIN {X 68.377,Y 45.891,Z 0.8} C_VEL
LIN {X 70.132,Y 45.266,Z 0.8} C_VEL
LIN {X 70.132,Y 45.266,Z 0.8} C_VEL
LIN {X 71.316,Y 44.083,Z 0.8} C_VEL
LIN {X 71.316,Y 44.083,Z 0.8} C_VEL
LIN {X 68.321,Y 48.209,Z 0.8} C_VEL
LIN {X 68.321,Y 48.209,Z 0.8} C_VEL
LIN {X 74.183,Y 43.479,Z 0.8} C_VEL
LIN {X 74.183,Y 43.479,Z 0.8} C_VEL
LIN {X 69.194,Y 49.599,Z 0.8} C_VEL
LIN {X 69.194,Y 49.599,Z 0.8} C_VEL
LIN {X 75.275,Y 44.649,Z 0.8} C_VEL
LIN {X 75.275,Y 44.649,Z 0.8} C_VEL
LIN {X 70.325,Y 50.731,Z 0.8} C_VEL
LIN {X 70.325,Y 50.731,Z 0.8} C_VEL
LIN {X 76.082,Y 46.105,Z 0.8} C_VEL
LIN {X 76.082,Y 46.105,Z 0.8} C_VEL
LIN {X 71.455,Y 51.864,Z 0.8} C_VEL
LIN {X 71.455,Y 51.864,Z 0.8} C_VEL
LIN {X 76.725,Y 47.725,Z 0.8} C_VEL
LIN {X 76.725,Y 47.725,Z 0.8} C_VEL
LIN {X 72.585,Y 52.996,Z 0.8} C_VEL
LIN {X 72.585,Y 52.996,Z 0.8} C_VEL
LIN {X 77.222,Y 49.491,Z 0.8} C_VEL
LIN {X 77.222,Y 49.491,Z 0.8} C_VEL
LIN {X 73.716,Y 54.128,Z 0.8} C_VEL
LIN {X 73.716,Y 54.128,Z 0.8} C_VEL
LIN {X 77.72,Y 51.256,Z 0.8} C_VEL
LIN {X 77.72,Y 51.256,Z 0.8} C_VEL
LIN {X 74.846,Y 55.261,Z 0.8} C_VEL
LIN {X 74.846,Y 55.261,Z 0.8} C_VEL
LIN {X 78.217,Y 53.021,Z 0.8} C_VEL
LIN {X 78.217,Y 53.021,Z 0.8} C_VEL
LIN {X 75.977,Y 56.393,Z 0.8} C_VEL
LIN {X 75.977,Y 56.393,Z 0.8} C_VEL
LIN {X 78.714,Y 54.787,Z 0.8} C_VEL
LIN {X 78.714,Y 54.787,Z 0.8} C_VEL
LIN {X 77.48,Y 57.152,Z 0.8} C_VEL
LIN {X 77.48,Y 57.152,Z 0.8} C_VEL
LIN {X 77.48,Y 57.152,Z 0.8} C_VEL
LIN {X 40.746,Y 41.939,Z 0.8} C_VEL
LIN {X 41.372,Y 43.669,Z 0.8} C_VEL
LIN {X 43.822,Y 41.796,Z 0.8} C_VEL
LIN {X 43.985,Y 48.527,Z 0.8} C_VEL
LIN {X 44.128,Y 49.02,Z 0.8} C_VEL
LIN {X 35.041,Y 58.126,Z 0.8} C_VEL
LIN {X 34.477,Y 58.712,Z 0.8} C_VEL
LIN {X 30.756,Y 56.946,Z 0.8} C_VEL
LIN {X 33.878,Y 45.872,Z 0.8} C_VEL
LIN {X 33.966,Y 45.563,Z 0.8} C_VEL
LIN {X 34.598,Y 45.152,Z 0.8} C_VEL
LIN {X 35.892,Y 41.541,Z 0.8} C_VEL
LIN {X 37.958,Y 42.765,Z 0.8} C_VEL
LIN {X 39.631,Y 42.963,Z 0.8} C_VEL
LIN {X 40.131,Y 41.909,Z 0.8} C_VEL
LIN {X 40.474,Y 41.184,Z 0.8} C_VEL
LIN {X 40.746,Y 41.939,Z 0.8} C_VEL
LIN {X 40.746,Y 41.939,Z 0.8} C_VEL
LIN {X 44.522,Y 40.336,Z 0.8} C_VEL
LIN {X 44.717,Y 48.414,Z 0.8} C_VEL
LIN {X 44.954,Y 49.232,Z 0.8} C_VEL
LIN {X 35.566,Y 58.641,Z 0.8} C_VEL
LIN {X 34.639,Y 59.602,Z 0.8} C_VEL
LIN {X 29.926,Y 57.366,Z 0.8} C_VEL
LIN {X 29.88,Y 57.347,Z 0.8} C_VEL
LIN {X 33.171,Y 45.67,Z 0.8} C_VEL
LIN {X 33.335,Y 45.096,Z 0.8} C_VEL
LIN {X 33.99,Y 44.671,Z 0.8} C_VEL
LIN {X 35.5,Y 40.455,Z 0.8} C_VEL
LIN {X 38.199,Y 42.053,Z 0.8} C_VEL
LIN {X 39.193,Y 42.171,Z 0.8} C_VEL
LIN {X 40.154,Y 40.142,Z 0.8} C_VEL
LIN {X 40.565,Y 39.275,Z 0.8} C_VEL
LIN {X 40.891,Y 40.178,Z 0.8} C_VEL
LIN {X 41.722,Y 42.476,Z 0.8} C_VEL
LIN {X 41.722,Y 42.476,Z 0.8} C_VEL
LIN {X 43.262,Y 48.639,Z 0.8} C_VEL
LIN {X 43.312,Y 48.811,Z 0.8} C_VEL
LIN {X 34.523,Y 57.619,Z 0.8} C_VEL
LIN {X 34.317,Y 57.834,Z 0.8} C_VEL
LIN {X 31.619,Y 56.553,Z 0.8} C_VEL
LIN {X 34.588,Y 46.024,Z 0.8} C_VEL
LIN {X 35.198,Y 45.626,Z 0.8} C_VEL
LIN {X 36.278,Y 42.613,Z 0.8} C_VEL
LIN {X 37.72,Y 43.467,Z 0.8} C_VEL
LIN {X 40.063,Y 43.744,Z 0.8} C_VEL
LIN {X 40.383,Y 43.068,Z 0.8} C_VEL
LIN {X 41.026,Y 44.846,Z 0.8} C_VEL
LIN {X 42.974,Y 43.357,Z 0.8} C_VEL
LIN {X 36.075,Y 44.252,Z 0.8} C_VEL
LIN {X 36.075,Y 44.252,Z 0.8} C_VEL
LIN {X 34.78,Y 46.678,Z 0.8} C_VEL
LIN {X 34.78,Y 46.678,Z 0.8} C_VEL
LIN {X 38.649,Y 43.941,Z 0.8} C_VEL
LIN {X 38.649,Y 43.941,Z 0.8} C_VEL
LIN {X 33.892,Y 49.829,Z 0.8} C_VEL
LIN {X 33.892,Y 49.829,Z 0.8} C_VEL
LIN {X 40.471,Y 44.38,Z 0.8} C_VEL
LIN {X 40.471,Y 44.38,Z 0.8} C_VEL
LIN {X 33.003,Y 52.98,Z 0.8} C_VEL
LIN {X 33.003,Y 52.98,Z 0.8} C_VEL
LIN {X 42.794,Y 44.321,Z 0.8} C_VEL
LIN {X 42.794,Y 44.321,Z 0.8} C_VEL
LIN {X 32.115,Y 56.131,Z 0.8} C_VEL
LIN {X 32.115,Y 56.131,Z 0.8} C_VEL
LIN {X 42.847,Y 46.531,Z 0.8} C_VEL
LIN {X 42.847,Y 46.531,Z 0.8} C_VEL
LIN {X 33.476,Y 57.033,Z 0.8} C_VEL
LIN {X 33.476,Y 57.033,Z 0.8} C_VEL
LIN {X 33.476,Y 57.033,Z 0.8} C_VEL
LIN {X 33.476,Y 57.033,Z 2.8} C_VEL
LIN {X 75.267,Y 75.241,Z 1.2} C_VEL
LIN {X 75.267,Y 75.241,Z 1.2} C_VEL
LIN {X 76.496,Y 74.249,Z 1.2} C_VEL
LIN {X 79.706,Y 69.27,Z 1.2} C_VEL
LIN {X 80.264,Y 70.394,Z 1.2} C_VEL
LIN {X 81.482,Y 71.083,Z 1.2} C_VEL
LIN {X 83.924,Y 69.765,Z 1.2} C_VEL
LIN {X 84.543,Y 72.402,Z 1.2} C_VEL
LIN {X 85.975,Y 73.212,Z 1.2} C_VEL
LIN {X 87.307,Y 72.724,Z 1.2} C_VEL
LIN {X 87.941,Y 72.492,Z 1.2} C_VEL
LIN {X 87.742,Y 73.136,Z 1.2} C_VEL
LIN {X 85.473,Y 80.48,Z 1.2} C_VEL
LIN {X 85.213,Y 82.839,Z 1.2} C_VEL
LIN {X 71.47,Y 92.198,Z 1.2} C_VEL
LIN {X 70.838,Y 92.636,Z 1.2} C_VEL
LIN {X 69.963,Y 93.021,Z 1.2} C_VEL
LIN {X 55.605,Y 89.12,Z 1.2} C_VEL
LIN {X 41.246,Y 93.021,Z 1.2} C_VEL
LIN {X 40.371,Y 92.636,Z 1.2} C_VEL
LIN {X 39.738,Y 92.197,Z 1.2} C_VEL
LIN {X 25.997,Y 82.838,Z 1.2} C_VEL
LIN {X 25.735,Y 80.479,Z 1.2} C_VEL
LIN {X 23.465,Y 73.136,Z 1.2} C_VEL
LIN {X 23.267,Y 72.492,Z 1.2} C_VEL
LIN {X 23.9,Y 72.723,Z 1.2} C_VEL
LIN {X 25.235,Y 73.211,Z 1.2} C_VEL
LIN {X 26.668,Y 72.401,Z 1.2} C_VEL
LIN {X 27.285,Y 69.765,Z 1.2} C_VEL
LIN {X 29.733,Y 71.086,Z 1.2} C_VEL
LIN {X 30.948,Y 70.39,Z 1.2} C_VEL
LIN {X 31.503,Y 69.27,Z 1.2} C_VEL
LIN {X 34.715,Y 74.25,Z 1.2} C_VEL
LIN {X 35.942,Y 75.24,Z 1.2} C_VEL
LIN {X 36.898,Y 77.154,Z 1.2} C_VEL
LIN {X 43.648,Y 69.443,Z 1.2} C_VEL
LIN {X 43.578,Y 68.299,Z 1.2} C_VEL
LIN {X 49.931,Y 50.952,Z 1.2} C_VEL
LIN {X 50.024,Y 50.73,Z 1.2} C_VEL
LIN {X 54.284,Y 50.746,Z 1.2} C_VEL
LIN {X 55.605,Y 50.061,Z 1.2} C_VEL
LIN {X 56.927,Y 50.745,Z 1.2} C_VEL
LIN {X 61.186,Y 50.731,Z 1.2} C_VEL
LIN {X 61.267,Y 50.921,Z 1.2} C_VEL
LIN {X 67.63,Y 68.301,Z 1.2} C_VEL
LIN {X 67.562,Y 69.444,Z 1.2} C_VEL
LIN {X 74.308,Y 77.15,Z 1.2} C_VEL
LIN {X 75.161,Y 75.453,Z 1.2} C_VEL
LIN {X 74.682,Y 74.769,Z 1.2} C_VEL
LIN {X 75.942,Y 73.751,Z 1.2} C_VEL
LIN {X 79.789,Y 67.785,Z 1.2} C_VEL
LIN {X 80.822,Y 69.865,Z 1.2} C_VEL
LIN {X 81.49,Y 70.243,Z 1.2} C_VEL
LIN {X 84.257,Y 68.75,Z 1.2} C_VEL
LIN {X 84.468,Y 68.863,Z 1.2} C_VEL
LIN {X 85.185,Y 71.921,Z 1.2} C_VEL
LIN {X 86.041,Y 72.405,Z 1.2} C_VEL
LIN {X 88.324,Y 71.569,Z 1.2} C_VEL
LIN {X 89.081,Y 71.292,Z 1.2} C_VEL
LIN {X 88.843,Y 72.063,Z 1.2} C_VEL
LIN {X 86.196,Y 80.63,Z 1.2} C_VEL
LIN {X 85.907,Y 83.255,Z 1.2} C_VEL
LIN {X 71.886,Y 92.804,Z 1.2} C_VEL
LIN {X 71.198,Y 93.281,Z 1.2} C_VEL
LIN {X 70.021,Y 93.798,Z 1.2} C_VEL
LIN {X 55.605,Y 89.882,Z 1.2} C_VEL
LIN {X 41.188,Y 93.798,Z 1.2} C_VEL
LIN {X 40.011,Y 93.281,Z 1.2} C_VEL
LIN {X 39.322,Y 92.803,Z 1.2} C_VEL
LIN {X 25.303,Y 83.254,Z 1.2} C_VEL
LIN {X 25.012,Y 80.629,Z 1.2} C_VEL
LIN {X 22.365,Y 72.063,Z 1.2} C_VEL
LIN {X 22.128,Y 71.293,Z 1.2} C_VEL
LIN {X 22.885,Y 71.569,Z 1.2} C_VEL
LIN {X 25.169,Y 72.404,Z 1.2} C_VEL
LIN {X 26.026,Y 71.92,Z 1.2} C_VEL
LIN {X 26.741,Y 68.862,Z 1.2} C_VEL
LIN {X 26.951,Y 68.75,Z 1.2} C_VEL
LIN {X 29.722,Y 70.245,Z 1.2} C_VEL
LIN {X 30.389,Y 69.863,Z 1.2} C_VEL
LIN {X 31.42,Y 67.785,Z 1.2} C_VEL
LIN {X 35.269,Y 73.752,Z 1.2} C_VEL
LIN {X 36.528,Y 74.768,Z 1.2} C_VEL
LIN {X 37.066,Y 75.846,Z 1.2} C_VEL
LIN {X 42.896,Y 69.186,Z 1.2} C_VEL
LIN {X 42.835,Y 68.192,Z 1.2} C_VEL
LIN {X 49.253,Y 50.667,Z 1.2} C_VEL
LIN {X 49.536,Y 49.993,Z 1.2} C_VEL
LIN {X 54.106,Y 50.01,Z 1.2} C_VEL
LIN {X 55.605,Y 49.233,Z 1.2} C_VEL
LIN {X 57.105,Y 50.009,Z 1.2} C_VEL
LIN {X 61.673,Y 49.994,Z 1.2} C_VEL
LIN {X 61.957,Y 50.668,Z 1.2} C_VEL
LIN {X 68.373,Y 68.193,Z 1.2} C_VEL
LIN {X 68.314,Y 69.187,Z 1.2} C_VEL
LIN {X 74.011,Y 75.694,Z 1.2} C_VEL
LIN {X 77.042,Y 74.74,Z 1.2} C_VEL
LIN {X 79.624,Y 70.735,Z 1.2} C_VEL
LIN {X 79.714,Y 70.916,Z 1.2} C_VEL
LIN {X 81.473,Y 71.912,Z 1.2} C_VEL
LIN {X 83.434,Y 70.853,Z 1.2} C_VEL
LIN {X 83.909,Y 72.876,Z 1.2} C_VEL
LIN {X 85.91,Y 74.008,Z 1.2} C_VEL
LIN {X 86.816,Y 73.676,Z 1.2} C_VEL
LIN {X 84.76,Y 80.332,Z 1.2} C_VEL
LIN {X 84.529,Y 82.428,Z 1.2} C_VEL
LIN {X 71.059,Y 91.601,Z 1.2} C_VEL
LIN {X 70.487,Y 91.998,Z 1.2} C_VEL
LIN {X 69.904,Y 92.255,Z 1.2} C_VEL
LIN {X 55.605,Y 88.369,Z 1.2} C_VEL
LIN {X 41.305,Y 92.255,Z 1.2} C_VEL
LIN {X 40.722,Y 91.998,Z 1.2} C_VEL
LIN {X 40.149,Y 91.6,Z 1.2} C_VEL
LIN {X 26.681,Y 82.426,Z 1.2} C_VEL
LIN {X 26.448,Y 80.33,Z 1.2} C_VEL
LIN {X 24.392,Y 73.675,Z 1.2} C_VEL
LIN {X 25.3,Y 74.007,Z 1.2} C_VEL
LIN {X 27.302,Y 72.875,Z 1.2} C_VEL
LIN {X 27.775,Y 70.853,Z 1.2} C_VEL
LIN {X 29.744,Y 71.915,Z 1.2} C_VEL
LIN {X 31.5,Y 70.909,Z 1.2} C_VEL
LIN {X 31.585,Y 70.736,Z 1.2} C_VEL
LIN {X 34.169,Y 74.741,Z 1.2} C_VEL
LIN {X 35.364,Y 75.705,Z 1.2} C_VEL
LIN {X 36.732,Y 78.444,Z 1.2} C_VEL
LIN {X 44.39,Y 69.696,Z 1.2} C_VEL
LIN {X 44.31,Y 68.407,Z 1.2} C_VEL
LIN {X 50.518,Y 51.457,Z 1.2} C_VEL
LIN {X 54.46,Y 51.471,Z 1.2} C_VEL
LIN {X 55.605,Y 50.877,Z 1.2} C_VEL
LIN {X 56.752,Y 51.47,Z 1.2} C_VEL
LIN {X 60.691,Y 51.458,Z 1.2} C_VEL
LIN {X 66.898,Y 68.41,Z 1.2} C_VEL
LIN {X 66.82,Y 69.697,Z 1.2} C_VEL
LIN {X 74.472,Y 78.438,Z 1.2} C_VEL
