;START_OF_HEADER
;HEADER_VERSION:0.1
;FLAVOR:Griffin
;GENERATOR.NAME:Cura_SteamEngine
;GENERATOR.VERSION:4.12.0
;GENERATOR.BUILD_DATE:2021-11-09
;TARGET_MACHINE.NAME:Ultimaker 3 Extended
;EXTRUDER_TRAIN.0.INITIAL_TEMPERATURE:215
;EXTRUDER_TRAIN.0.MATERIAL.VOLUME_USED:78266
;EXTRUDER_TRAIN.0.MATERIAL.GUID:506c9f0d-e3aa-4bd4-b2d2-23e2425b1aa9
;EXTRUDER_TRAIN.0.NOZZLE.DIAMETER:0.8
;EXTRUDER_TRAIN.0.NOZZLE.NAME:AA 0.8
;BUILD_PLATE.TYPE:glass
;BUILD_PLATE.INITIAL_TEMPERATURE:60
;PRINT.TIME:7451
;PRINT.GROUPS:1
;PRINT.SIZE.MIN.X:9
;PRINT.SIZE.MIN.Y:6
;PRINT.SIZE.MIN.Z:0.4
;PRINT.SIZE.MAX.X:97.132
;PRINT.SIZE.MAX.Y:107.695
;PRINT.SIZE.MAX.Z:70
;END_OF_HEADER
;Generated with Cura_SteamEngine 4.12.0
T0
M82 ;absolute extrusion mode

G92 E0
M109 S215
G0 F15000 X9 Y6 Z2
G280
G1 F1500 E-5
;LAYER_COUNT:176
;LAYER:0
M107
M204 S625
M205 X30 Y30
G1 F600 Z2.4
G0 F6666.7 X30.635 Y33.996 Z2.4
M204 S500
M205 X25 Y25
;TYPE:SKIRT
G1 F600 Z0.4
G1 F900 E0
G1 F1200 X31.24 Y33.539 E0.04564
G1 X31.89 Y33.148 E0.0913
G1 X32.578 Y32.827 E0.137
G1 X33.295 Y32.581 E0.18263
G1 X34.035 Y32.411 E0.22833
G1 X34.788 Y32.32 E0.27399
G1 X35.547 Y32.309 E0.31968
G1 X36.302 Y32.378 E0.36531
G1 X36.369 Y32.391 E0.36942
G1 X36.454 Y32.326 E0.37586
G1 X37.102 Y31.93 E0.42157
G1 X37.787 Y31.605 E0.46721
G1 X38.503 Y31.353 E0.5129
G1 X39.241 Y31.179 E0.55854
G1 X39.994 Y31.083 E0.60424
G1 X41.093 Y31.085 E0.67039
G1 X41.258 Y31.098 E0.68035
G1 X42.01 Y31.198 E0.72602
G1 X42.747 Y31.376 E0.77166
G1 X43.462 Y31.63 E0.81733
G1 X44.146 Y31.958 E0.86299
G1 X44.431 Y32.134 E0.88315
G1 X44.837 Y32.104 E0.90766
G1 X45.654 Y32.134 E0.95687
G1 X45.75 Y32.143 E0.96267
G1 X46.501 Y32.254 E1.00837
G1 X47.235 Y32.443 E1.05399
G1 X47.946 Y32.708 E1.09967
G1 X48.625 Y33.046 E1.14532
G1 X49.265 Y33.455 E1.19104
G1 X49.858 Y33.928 E1.2367
G1 X50.398 Y34.46 E1.28233
G1 X50.879 Y35.047 E1.32801
G1 X51.296 Y35.681 E1.37369
G1 X51.643 Y36.356 E1.41937
G1 X51.918 Y37.063 E1.46504
G1 X52.116 Y37.795 E1.51068
G1 X52.237 Y38.544 E1.55635
G1 X52.276 Y39.139 E1.59224
G1 X52.356 Y42.446 E1.79136
G1 X54.135 Y42.452 E1.89845
G1 X54.433 Y42.387 E1.91681
G1 X55.187 Y42.303 E1.96248
G1 X55.945 Y42.299 E2.0081
G1 X56.7 Y42.375 E2.05378
G1 X57.069 Y42.452 E2.07647
G1 X58.853 Y42.446 E2.18386
G1 X58.932 Y39.139 E2.38297
G1 X58.99 Y38.383 E2.42861
G1 X59.127 Y37.636 E2.47433
G1 X59.343 Y36.909 E2.51998
G1 X59.633 Y36.208 E2.56564
G1 X59.996 Y35.542 E2.6113
G1 X60.426 Y34.917 E2.65697
G1 X60.92 Y34.341 E2.70264
G1 X61.472 Y33.821 E2.74829
G1 X62.076 Y33.361 E2.79399
G1 X62.724 Y32.967 E2.83964
G1 X63.411 Y32.644 E2.88534
G1 X64.127 Y32.395 E2.93097
G1 X64.866 Y32.223 E2.97664
G1 X65.617 Y32.129 E3.0222
G1 X65.715 Y32.122 E3.02811
G1 X66.474 Y32.108 E3.07381
G1 X66.778 Y32.135 E3.09218
G1 X67.164 Y31.904 E3.11925
G1 X67.853 Y31.587 E3.16491
G1 X68.571 Y31.343 E3.21055
G1 X69.312 Y31.177 E3.25626
G1 X70.04 Y31.091 E3.30039
G1 X70.205 Y31.08 E3.31034
G1 X70.964 Y31.069 E3.35603
G1 X71.719 Y31.139 E3.40168
G1 X72.463 Y31.287 E3.44734
G1 X73.187 Y31.513 E3.49299
G1 X73.884 Y31.814 E3.53869
G1 X74.545 Y32.187 E3.58438
G1 X74.84 Y32.397 E3.60617
G1 X75.124 Y32.35 E3.6235
G1 X75.881 Y32.304 E3.66915
G1 X76.639 Y32.338 E3.71483
G1 X77.389 Y32.452 E3.76049
G1 X78.123 Y32.644 E3.80616
G1 X78.833 Y32.912 E3.85184
G1 X79.51 Y33.253 E3.89747
G1 X80.148 Y33.664 E3.94315
G1 X80.739 Y34.14 E3.98883
G1 X81.277 Y34.675 E4.0345
G1 X81.756 Y35.263 E4.08015
G1 X82.17 Y35.899 E4.12583
G1 X82.514 Y36.575 E4.17149
G1 X82.715 Y37.076 E4.20398
G1 X84.145 Y41.066 E4.45911
G1 X84.442 Y41.584 E4.49505
G1 X84.748 Y42.278 E4.54071
G1 X84.947 Y42.881 E4.57893
G1 X88.519 Y55.557 E5.37166
G1 X88.686 Y56.297 E5.41733
G1 X88.774 Y57.051 E5.46302
G1 X88.783 Y57.809 E5.50865
G1 X88.711 Y58.565 E5.55436
G1 X88.561 Y59.308 E5.59999
G1 X88.333 Y60.032 E5.64568
G1 X88.03 Y60.728 E5.69137
G1 X87.685 Y61.335 E5.7334
G1 X88.336 Y61.629 E5.7764
G1 X88.448 Y61.69 E5.78407
G1 X89.094 Y62.087 E5.82972
G1 X89.695 Y62.551 E5.87542
G1 X90.244 Y63.075 E5.9211
G1 X90.5 Y63.377 E5.94493
G1 X91.119 Y63.454 E5.98248
G1 X91.858 Y63.626 E6.02815
G1 X92.575 Y63.875 E6.07384
G1 X93.261 Y64.198 E6.11948
G1 X93.717 Y64.465 E6.15129
G1 X93.802 Y64.519 E6.15735
G1 X94.42 Y64.959 E6.20302
G1 X94.988 Y65.461 E6.24864
G1 X95.501 Y66.021 E6.29436
G1 X95.951 Y66.631 E6.33999
G1 X96.335 Y67.286 E6.38569
G1 X96.648 Y67.977 E6.43135
G1 X96.886 Y68.697 E6.477
G1 X97.047 Y69.439 E6.5227
G1 X97.13 Y70.193 E6.56836
G1 X97.132 Y70.951 E6.61399
G1 X97.055 Y71.706 E6.65967
G1 X96.82 Y72.722 E6.72244
G1 X93.266 Y84.222 E7.44697
G1 X93.175 Y84.786 E7.48136
G1 X92.976 Y85.518 E7.52702
G1 X92.701 Y86.225 E7.57269
G1 X92.352 Y86.899 E7.61837
G1 X91.935 Y87.533 E7.66405
G1 X91.454 Y88.119 E7.70969
G1 X90.913 Y88.651 E7.75536
G1 X90.192 Y89.213 E7.81038
G1 X75.201 Y99.427 E8.90229
G1 X74.552 Y99.821 E8.94799
G1 X74.028 Y100.076 E8.98307
G1 X73.76 Y100.193 E9.00067
G1 X73.049 Y100.459 E9.04637
G1 X72.315 Y100.649 E9.09201
G1 X71.565 Y100.761 E9.13765
G1 X70.807 Y100.794 E9.18332
G1 X70.049 Y100.746 E9.22904
G1 X68.991 Y100.542 E9.2939
G1 X55.605 Y96.905 E10.12887
G1 X42.218 Y100.542 E10.96389
G1 X41.476 Y100.702 E11.00958
G1 X40.722 Y100.783 E11.05523
G1 X39.963 Y100.785 E11.10091
G1 X39.208 Y100.706 E11.14661
G1 X38.466 Y100.549 E11.19226
G1 X37.449 Y100.193 E11.25712
G1 X37.181 Y100.076 E11.27472
G1 X36.503 Y99.736 E11.32038
G1 X35.928 Y99.372 E11.36134
G1 X35.825 Y99.3 E11.36891
G1 X21.019 Y89.214 E12.44727
G1 X20.415 Y88.754 E12.49297
G1 X19.863 Y88.233 E12.53866
G1 X19.369 Y87.658 E12.5843
G1 X18.938 Y87.033 E12.62999
G1 X18.575 Y86.367 E12.67565
G1 X18.285 Y85.666 E12.72132
G1 X18.07 Y84.938 E12.76701
G1 X17.947 Y84.238 E12.80979
G1 X14.388 Y72.721 E13.53539
G1 X14.202 Y71.985 E13.58108
G1 X14.095 Y71.234 E13.62674
G1 X14.068 Y70.476 E13.6724
G1 X14.12 Y69.719 E13.71807
G1 X14.252 Y68.972 E13.76374
G1 X14.462 Y68.243 E13.8094
G1 X14.747 Y67.54 E13.85506
G1 X15.105 Y66.871 E13.90074
G1 X15.531 Y66.243 E13.94641
G1 X16.021 Y65.664 E13.99207
G1 X16.569 Y65.139 E14.03775
G1 X17.169 Y64.675 E14.08341
G1 X17.628 Y64.382 E14.11619
G1 X18.297 Y64.024 E14.16186
G1 X19 Y63.739 E14.20752
G1 X19.729 Y63.529 E14.25319
G1 X20.476 Y63.397 E14.29885
G1 X20.703 Y63.381 E14.31255
G1 X20.972 Y63.065 E14.33753
G1 X21.521 Y62.542 E14.38317
G1 X22.123 Y62.08 E14.42885
G1 X22.916 Y61.605 E14.48449
G1 X23.029 Y61.547 E14.49213
G1 X23.517 Y61.329 E14.5243
G1 X23.494 Y61.296 E14.52673
G1 X23.13 Y60.63 E14.57241
G1 X22.838 Y59.93 E14.61807
G1 X22.621 Y59.203 E14.66374
G1 X22.481 Y58.457 E14.70942
G1 X22.422 Y57.701 E14.75507
G1 X22.441 Y56.943 E14.80071
G1 X22.541 Y56.19 E14.84643
G1 X22.689 Y55.558 E14.88551
G1 X26.262 Y42.881 E15.67831
G1 X26.506 Y42.162 E15.72402
G1 X26.824 Y41.474 E15.76964
G1 X27.061 Y41.076 E15.79752
G1 X28.494 Y37.076 E16.05328
G1 X28.787 Y36.377 E16.0989
G1 X29.152 Y35.711 E16.14462
G1 X29.585 Y35.089 E16.19024
G1 X30.081 Y34.515 E16.2359
G1 X30.514 Y34.109 E16.27163
G0 F1080 X30.635 Y33.996
M204 S625
M205 X30 Y30
G0 F6666.7 X31.443 Y34.577
M204 S500
M205 X25 Y25
G1 F1200 X32.024 Y34.176 E16.31412
G1 X32.647 Y33.843 E16.35665
G1 X33.304 Y33.583 E16.39918
G1 X33.985 Y33.398 E16.44166
G1 X34.683 Y33.292 E16.48415
G1 X35.389 Y33.265 E16.52668
G1 X36.093 Y33.318 E16.56918
G1 X36.601 Y33.415 E16.60031
G1 X36.626 Y33.393 E16.60231
G1 X37.201 Y32.983 E16.64482
G1 X37.819 Y32.641 E16.68734
G1 X38.472 Y32.371 E16.72987
G1 X39.151 Y32.177 E16.77238
G1 X39.847 Y32.06 E16.81486
G1 X40.553 Y32.023 E16.85742
G1 X41.182 Y32.055 E16.89533
G1 X41.882 Y32.151 E16.93786
G1 X42.566 Y32.324 E16.98033
G1 X43.227 Y32.574 E17.02286
G1 X43.855 Y32.897 E17.06537
G1 X44.193 Y33.122 E17.08981
G1 X44.444 Y33.086 E17.10508
G1 X45.149 Y33.065 E17.14753
G1 X45.66 Y33.099 E17.17836
G1 X46.359 Y33.205 E17.22092
G1 X47.041 Y33.389 E17.26344
G1 X47.697 Y33.648 E17.30589
G1 X48.321 Y33.981 E17.34846
G1 X48.902 Y34.381 E17.39092
G1 X49.435 Y34.845 E17.43346
G1 X49.912 Y35.366 E17.47598
G1 X50.327 Y35.937 E17.51847
G1 X50.675 Y36.552 E17.56101
G1 X50.951 Y37.202 E17.60351
G1 X51.151 Y37.879 E17.646
G1 X51.274 Y38.575 E17.68855
G1 X51.316 Y39.162 E17.72397
G1 X51.418 Y43.402 E17.97927
G1 X54.228 Y43.413 E18.14841
G1 X54.734 Y43.312 E18.17947
G1 X55.438 Y43.253 E18.222
G1 X56.143 Y43.274 E18.26445
G1 X56.843 Y43.375 E18.30703
G1 X56.985 Y43.412 E18.31586
G1 X59.791 Y43.402 E18.48476
G1 X59.892 Y39.162 E18.74006
G1 X59.949 Y38.458 E18.78257
G1 X60.085 Y37.765 E18.82508
G1 X60.298 Y37.092 E18.86757
G1 X60.586 Y36.447 E18.91009
G1 X60.945 Y35.839 E18.95259
G1 X61.371 Y35.275 E18.99514
G1 X61.857 Y34.763 E19.03763
G1 X62.399 Y34.31 E19.08015
G1 X62.988 Y33.92 E19.12267
G1 X63.617 Y33.599 E19.16518
G1 X64.279 Y33.352 E19.20771
G1 X64.964 Y33.181 E19.25021
G1 X65.685 Y33.087 E19.29398
G1 X65.783 Y33.08 E19.29989
G1 X66.49 Y33.069 E19.34245
G1 X67.018 Y33.122 E19.3744
G1 X67.293 Y32.933 E19.39448
G1 X67.918 Y32.603 E19.43702
G1 X68.575 Y32.345 E19.47951
G1 X69.258 Y32.164 E19.52204
G1 X70.104 Y32.049 E19.57344
G1 X70.269 Y32.038 E19.58339
G1 X70.975 Y32.031 E19.62589
G1 X71.678 Y32.104 E19.66843
G1 X72.367 Y32.255 E19.71089
G1 X73.036 Y32.484 E19.75345
G1 X73.674 Y32.787 E19.79597
G1 X74.273 Y33.16 E19.83844
G1 X74.596 Y33.416 E19.86325
G1 X74.727 Y33.382 E19.8714
G1 X75.426 Y33.285 E19.91388
G1 X76.132 Y33.267 E19.95639
G1 X76.836 Y33.329 E19.99893
G1 X77.528 Y33.47 E20.04144
G1 X78.2 Y33.689 E20.08398
G1 X78.842 Y33.982 E20.12646
G1 X79.448 Y34.345 E20.16898
G1 X80.008 Y34.775 E20.21148
G1 X80.516 Y35.265 E20.25397
G1 X80.966 Y35.81 E20.29651
G1 X81.351 Y36.402 E20.33902
G1 X81.667 Y37.034 E20.38155
G1 X81.811 Y37.399 E20.40517
G1 X83.276 Y41.489 E20.66668
G1 X83.361 Y41.613 E20.67573
G1 X83.691 Y42.238 E20.71827
G1 X84.023 Y43.142 E20.77624
G1 X87.595 Y55.818 E21.56897
G1 X87.748 Y56.507 E21.61146
G1 X87.822 Y57.209 E21.65395
G1 X87.816 Y57.916 E21.6965
G1 X87.73 Y58.617 E21.73902
G1 X87.566 Y59.304 E21.78153
G1 X87.325 Y59.967 E21.824
G1 X87.01 Y60.6 E21.86656
G1 X86.626 Y61.193 E21.90908
G1 X86.178 Y61.738 E21.95155
G1 X86.084 Y61.829 E21.95942
G1 X86.724 Y61.987 E21.9991
G1 X87.386 Y62.232 E22.04159
G1 X87.877 Y62.472 E22.07449
G1 X87.989 Y62.533 E22.08217
G1 X88.589 Y62.905 E22.12466
G1 X89.143 Y63.343 E22.16717
G1 X89.644 Y63.841 E22.20969
G1 X90.023 Y64.313 E22.24613
G1 X90.493 Y64.335 E22.27445
G1 X91.19 Y64.446 E22.31694
G1 X91.871 Y64.636 E22.35949
G1 X92.525 Y64.902 E22.40199
G1 X93.202 Y65.275 E22.44852
G1 X93.287 Y65.329 E22.45458
G1 X93.861 Y65.741 E22.49711
G1 X94.384 Y66.215 E22.5396
G1 X94.851 Y66.745 E22.58212
G1 X95.255 Y67.325 E22.62466
G1 X95.59 Y67.946 E22.66714
G1 X95.854 Y68.601 E22.70965
G1 X96.041 Y69.282 E22.75216
G1 X96.151 Y69.98 E22.79469
G1 X96.18 Y70.686 E22.83722
G1 X96.13 Y71.39 E22.87971
G1 X96.001 Y72.084 E22.9222
G1 X95.903 Y72.438 E22.94431
G1 X92.332 Y83.993 E23.6723
G1 X92.226 Y84.63 E23.71117
G1 X92.033 Y85.31 E23.75372
G1 X91.764 Y85.963 E23.79623
G1 X91.423 Y86.581 E23.83872
G1 X91.014 Y87.157 E23.88124
G1 X90.543 Y87.683 E23.92374
G1 X90.015 Y88.152 E23.96625
G1 X89.652 Y88.42 E23.99341
G1 X74.661 Y98.634 E25.08532
G1 X74.055 Y98.998 E25.12787
G1 X73.376 Y99.313 E25.17293
G1 X72.713 Y99.558 E25.21548
G1 X72.028 Y99.727 E25.25794
G1 X71.327 Y99.818 E25.30049
G1 X70.621 Y99.829 E25.343
G1 X69.918 Y99.76 E25.38552
G1 X69.243 Y99.616 E25.42706
G1 X55.605 Y95.91 E26.27775
G1 X41.966 Y99.616 E27.1285
G1 X41.275 Y99.762 E27.17102
G1 X40.572 Y99.829 E27.21352
G1 X39.866 Y99.817 E27.25603
G1 X39.166 Y99.724 E27.29853
G1 X38.48 Y99.554 E27.34108
G1 X37.833 Y99.313 E27.38264
G1 X37.565 Y99.196 E27.40024
G1 X36.935 Y98.877 E27.44274
G1 X36.479 Y98.586 E27.47531
G1 X36.335 Y98.485 E27.48589
G1 X21.559 Y88.42 E28.56206
G1 X20.999 Y87.99 E28.60456
G1 X20.491 Y87.5 E28.64704
G1 X20.041 Y86.955 E28.68958
G1 X19.656 Y86.363 E28.73209
G1 X19.341 Y85.731 E28.7746
G1 X19.099 Y85.067 E28.81714
G1 X18.933 Y84.381 E28.85962
G1 X18.875 Y83.99 E28.88342
G1 X15.305 Y72.437 E29.61128
G1 X15.135 Y71.752 E29.65376
G1 X15.044 Y71.052 E29.69625
G1 X15.032 Y70.345 E29.73882
G1 X15.1 Y69.642 E29.78133
G1 X15.247 Y68.952 E29.8238
G1 X15.472 Y68.282 E29.86634
G1 X15.77 Y67.642 E29.90884
G1 X16.139 Y67.04 E29.95134
G1 X16.574 Y66.483 E29.99388
G1 X17.068 Y65.979 E30.03636
G1 X17.617 Y65.534 E30.0789
G1 X18.038 Y65.255 E30.1093
G1 X18.124 Y65.203 E30.11535
G1 X18.748 Y64.873 E30.15784
G1 X19.406 Y64.615 E30.20038
G1 X20.088 Y64.433 E30.24287
G1 X20.787 Y64.329 E30.28541
G1 X21.188 Y64.315 E30.30956
G1 X21.364 Y64.072 E30.32762
G1 X21.84 Y63.551 E30.3701
G1 X22.372 Y63.086 E30.41263
G1 X22.953 Y62.685 E30.45513
G1 X23.468 Y62.402 E30.4905
G1 X24.113 Y62.115 E30.53299
G1 X24.787 Y61.903 E30.57552
G1 X25.133 Y61.836 E30.59674
G1 X24.982 Y61.686 E30.60955
G1 X24.54 Y61.136 E30.65202
G1 X24.163 Y60.539 E30.69452
G1 X23.855 Y59.903 E30.73706
G1 X23.622 Y59.236 E30.77959
G1 X23.466 Y58.547 E30.82211
G1 X23.388 Y57.845 E30.86463
G1 X23.39 Y57.139 E30.90712
G1 X23.472 Y56.438 E30.94961
G1 X23.613 Y55.818 E30.98788
G1 X27.186 Y43.141 E31.78069
G1 X27.416 Y42.473 E31.82321
G1 X27.72 Y41.836 E31.8657
G1 X27.928 Y41.502 E31.88938
G1 X29.397 Y37.4 E32.15165
G1 X29.673 Y36.75 E32.19416
G1 X30.02 Y36.135 E32.23667
G1 X30.434 Y35.563 E32.27917
G1 X30.911 Y35.041 E32.32173
G1 X31.318 Y34.686 E32.35424
G0 F1080 X31.443 Y34.577
M204 S625
M205 X30 Y30
G0 F6666.7 X31.734 Y35.585
M204 S500
M205 X25 Y25
G1 F1200 X32.242 Y35.18 E32.39335
G1 X32.795 Y34.841 E32.43239
G1 X33.387 Y34.572 E32.47153
G1 X34.007 Y34.378 E32.51064
G1 X34.646 Y34.261 E32.54974
G1 X35.294 Y34.224 E32.58881
G1 X35.943 Y34.267 E32.62796
G1 X36.581 Y34.389 E32.66706
G1 X36.852 Y34.476 E32.68419
G1 X36.893 Y34.432 E32.68781
G1 X37.391 Y34.015 E32.72691
G1 X37.937 Y33.662 E32.76605
G1 X38.521 Y33.379 E32.80511
G1 X39.136 Y33.169 E32.84423
G1 X39.772 Y33.037 E32.88333
G1 X40.42 Y32.984 E32.92246
G1 X40.942 Y32.999 E32.9539
G1 X41.107 Y33.012 E32.96386
G1 X41.75 Y33.103 E33.00295
G1 X42.377 Y33.272 E33.04204
G1 X42.979 Y33.517 E33.08116
G1 X43.546 Y33.834 E33.12026
G1 X43.954 Y34.133 E33.15071
G1 X44.14 Y34.091 E33.16219
G1 X44.786 Y34.027 E33.20127
G1 X45.475 Y34.046 E33.24276
G1 X45.571 Y34.055 E33.24856
G1 X46.213 Y34.155 E33.28767
G1 X46.837 Y34.334 E33.32675
G1 X47.435 Y34.587 E33.36583
G1 X47.998 Y34.913 E33.40499
G1 X48.516 Y35.305 E33.44409
G1 X48.982 Y35.757 E33.48317
G1 X49.389 Y36.263 E33.52226
G1 X49.731 Y36.816 E33.5614
G1 X50.002 Y37.406 E33.60048
G1 X50.199 Y38.025 E33.63958
G1 X50.318 Y38.664 E33.67871
G1 X50.356 Y39.185 E33.71015
G1 X50.481 Y44.358 E34.02162
G1 X54.32 Y44.373 E34.25271
G1 X54.383 Y44.354 E34.25667
G1 X55.023 Y44.243 E34.29577
G1 X55.672 Y44.211 E34.33488
G1 X56.32 Y44.26 E34.374
G1 X56.885 Y44.373 E34.40868
G1 X60.728 Y44.359 E34.64001
G1 X60.852 Y39.185 E34.95154
G1 X60.907 Y38.538 E34.99063
G1 X61.041 Y37.902 E35.02975
G1 X61.253 Y37.288 E35.06885
G1 X61.538 Y36.704 E35.10797
G1 X61.893 Y36.16 E35.14707
G1 X62.312 Y35.664 E35.18615
G1 X62.789 Y35.222 E35.22529
G1 X63.316 Y34.843 E35.26437
G1 X63.886 Y34.531 E35.30348
G1 X64.49 Y34.292 E35.34258
G1 X65.119 Y34.129 E35.38169
G1 X65.754 Y34.044 E35.42026
G1 X65.852 Y34.037 E35.42617
G1 X66.501 Y34.031 E35.46524
G1 X67.147 Y34.105 E35.50438
G1 X67.261 Y34.133 E35.51144
G1 X67.507 Y33.939 E35.5303
G1 X68.062 Y33.602 E35.56939
G1 X68.654 Y33.335 E35.60848
G1 X69.275 Y33.144 E35.64759
G1 X70.168 Y33.007 E35.70197
G1 X70.333 Y32.996 E35.71192
G1 X70.982 Y32.992 E35.75099
G1 X71.627 Y33.069 E35.79009
G1 X72.258 Y33.224 E35.8292
